<?xml version="1.0" encoding="UTF-8"?>
<map version="1.10" tiledversion="1.11.2" orientation="orthogonal" renderorder="right-down" width="80" height="60" tilewidth="32" tileheight="32" infinite="0" nextlayerid="23" nextobjectid="25">
 <tileset firstgid="1" source="../tilesets/scotus_floors.tsx"/>
 <tileset firstgid="33" source="../tilesets/scotus_structures.tsx"/>
 <tileset firstgid="81" source="../tilesets/scotus_decor.tsx"/>
 <tileset firstgid="97" source="../tilesets/collision.tsx"/>
 <tileset firstgid="129" source="../../../../vendor/tilesets/lpc/terrains/terrain-map-v7-repacked.tsx"/>
 <tileset firstgid="16513" source="../../../../private/assets/tilesets/scotus_exterior_building_pack_v2/scotus_exterior_building_v2/scotus_exterior_building.tsx"/>
 <tileset firstgid="16618" source="../../../../dist/content/tiled/tilesets/scotus_structures.tsx"/>
 <tileset firstgid="16666" source="../../../assets/tilesets/scotus_exterior_building_pack_v2/scotus_exterior_building_v2/scotus_exterior_building.tsx"/>
 <tileset firstgid="16771" source="../../../../dist/content/tiled/tilesets/collision.tsx"/>
 <tileset firstgid="16803" source="../../../../dist/assets/tilesets/lpc/victorian/roofs.tsx"/>
 <tileset firstgid="20899" source="../tilesets/castle.tsx"/>
 <tileset firstgid="21051" source="../tilesets/ProjectUtumno_full.tsx"/>
 <tileset firstgid="27131" source="../tilesets/ProjectUtumno_full.tsx"/>
 <tileset firstgid="33211" source="../../../../dist/assets/tilesets/lpc/victorian/bricks.tsx"/>
 <tileset firstgid="35259" source="tile2map32.tsx"/>
 <tileset firstgid="36579" source="../tilesets/scomp.tsx"/>
 <tileset firstgid="37359" source="../../tilesets/Sky.tsx"/>
 <layer id="7" name="Floor" width="80" height="60">
  <data encoding="csv">
37359,37360,37361,37362,37363,37364,37365,37359,37360,37361,37362,37363,37364,37365,37366,37367,37368,37369,37370,37371,37372,37373,37374,37373,37374,37359,37360,37361,37362,37363,37364,37365,37366,37367,37368,37369,37370,37371,37372,37373,37374,37362,37363,37364,37365,37366,37367,37368,37369,37370,37371,37372,37373,37374,37375,37376,37377,37378,37379,37380,37381,37382,37383,37384,37385,37386,37360,37361,37362,37363,37364,37365,37366,37367,37368,37369,37370,37371,37372,37373,
37375,37376,37377,37378,37379,37380,37381,37375,37376,37377,37378,37379,37380,37381,37382,37383,37384,37385,37386,37387,37388,37389,37390,37405,37406,37375,37376,37377,37378,37379,37380,37381,37382,37383,37384,37385,37386,37387,37388,37389,37390,37394,37395,37396,37397,37398,37399,37400,37401,37402,37403,37404,37405,37406,37407,37408,37409,37410,37411,37412,37413,37414,37415,37416,37417,37418,37392,37393,37394,37395,37396,37397,37398,37399,37400,37401,37402,37403,37404,37405,
37391,37392,37393,37394,37395,37396,37397,37391,37392,37393,37394,37395,37396,37397,37398,37399,37400,37401,37402,37403,37404,37405,37406,37437,37438,37391,37392,37393,37394,37395,37396,37397,37398,37399,37400,37401,37402,37403,37404,37405,37406,37426,37427,37428,37429,37430,37431,37432,37433,37434,37435,37436,37437,37438,37439,37440,37441,37442,37443,37444,37445,37446,37447,37448,37449,37450,37424,37425,37426,37427,37428,37429,37430,37431,37432,37433,37434,37435,37436,37437,
37427,37428,37429,37430,37431,37432,37433,37434,37435,37436,37437,37438,37423,37459,37460,37461,37462,37463,37464,37465,37466,37467,37468,37469,37470,37471,37472,37473,37474,37475,37476,37477,37478,37479,37480,37481,37482,37483,37455,37456,37457,37458,37459,37460,37461,37462,37463,37464,37465,37466,37467,37468,37469,37470,37471,37472,37473,37474,37475,37476,37477,37478,37479,37480,37481,37482,37456,37457,37458,37459,37460,37461,37462,37463,37464,37465,37466,37467,37468,37469,
37443,37444,37445,37446,37447,37448,37449,37450,37451,37452,37453,37454,37439,37491,37492,37493,37494,37495,37496,37497,37498,37499,37500,37501,37502,37503,37504,37505,37506,37507,37508,37509,37510,37511,37512,37513,37514,37515,37487,37488,37489,37490,37491,37492,37493,37494,37495,37496,37497,37498,37499,37500,37501,37502,37503,37504,37505,37506,37507,37508,37509,37510,37511,37512,37513,37514,37488,37489,37490,37491,37492,37493,37494,37495,37496,37497,37498,37499,37500,37501,
37459,37460,37461,37462,37463,37464,37465,37466,37467,37468,37469,37470,37455,37523,37524,37525,37526,37527,37528,37529,37530,37531,37532,37533,37534,37535,37536,37537,37538,37539,37540,37541,37542,37543,37544,37545,37546,37547,37519,37520,37521,37522,37523,37524,37525,37526,37527,37528,37529,37530,37531,37532,37533,37534,37535,37536,37537,37538,37539,37540,37541,37542,37543,37544,37545,37546,37528,37529,37530,37531,37532,37533,37534,37535,37536,37537,37538,37539,37540,0,
37475,37476,37477,37478,37479,37480,37481,37482,37483,37484,37485,37486,37471,37392,37393,37394,37395,37396,37397,37398,37399,37400,37401,37402,37403,37404,37405,37406,37407,37408,37409,37410,37476,37477,37478,37479,37480,37481,37482,37483,37484,37485,37486,37455,37456,37457,37458,37459,37460,37461,37462,37463,37464,37465,37466,37467,37468,37469,37470,37471,37472,37473,37474,37475,37476,37477,37478,37479,37480,37481,0,0,0,0,0,0,0,0,0,0,
37491,37492,37493,37494,37495,37496,37497,37498,37499,37500,37501,37502,37487,37424,37425,37426,37427,37428,37429,37430,37431,37432,37433,37434,37435,37436,37437,37438,37439,37440,37441,37442,37508,37509,37510,37511,37512,37513,37514,37515,37516,37517,37518,37487,37488,37489,37490,37491,37492,37493,37494,37495,37496,37497,37498,37499,37500,37501,37502,37503,37504,37505,37506,37507,37508,37509,37510,37511,37512,37513,0,0,0,0,0,0,0,0,0,0,
37507,37508,37509,37510,37511,37512,37513,37514,37515,37516,37517,37518,37503,37395,37396,37397,37398,37399,37400,37401,37402,37403,37404,37405,37532,37533,37534,37535,37536,37537,37538,37539,37540,37541,37542,37543,37544,37545,37546,37547,37548,37549,37550,37519,37520,37521,37522,37523,37524,37525,37526,37527,37528,37529,37530,37531,37532,37533,37534,37535,37536,37537,37538,37539,37540,37541,37542,37543,37544,37545,0,0,0,0,0,0,0,0,0,0,
37523,37524,37525,37526,37527,37528,37529,37530,37531,37532,37533,37534,37519,37427,37428,37429,37430,37431,37432,37433,37434,37435,37436,37437,37564,37565,37566,37567,37568,37569,37570,37571,37572,37573,37574,37575,37576,37577,37578,37579,37580,37581,37582,37551,37552,37553,37554,37555,37556,37557,37558,37559,37560,37561,37562,37563,37564,37565,37566,37567,37568,37569,37570,37571,37572,37573,37574,37575,37576,37577,0,0,0,0,0,0,0,0,0,0,
37539,37540,37541,37542,37543,37544,37545,37546,37547,37548,37549,37550,37535,37459,37460,37461,37462,37463,37464,37465,37466,37467,37468,37469,37404,37405,37406,37407,37408,37409,37410,37411,37412,37413,37414,37415,37416,37417,37418,37419,37420,37421,37422,37391,37392,37393,37394,37395,37396,37397,37398,37399,37400,37401,37402,37403,37404,37405,37406,37407,37408,37409,37410,37411,37412,37413,37414,37415,37416,37417,0,0,0,0,0,0,0,0,0,0,
37555,37556,37557,37558,37559,37560,37561,37562,37563,37564,37565,37566,37551,37491,37492,37493,37494,37495,37496,37497,37498,37499,37500,37501,37436,37437,37438,37439,37440,37441,37442,37443,37444,37445,37446,37447,37448,37449,37450,37451,37452,37453,37454,37423,37424,37425,37426,37427,37428,37429,37430,37431,37432,37433,37434,37435,37436,37437,37438,37439,37440,37441,37442,37443,37444,37445,37446,37447,37448,37449,0,0,0,0,0,0,0,0,0,0,
37411,37412,37413,37414,37415,37416,37417,37418,37419,37420,37421,37422,37407,37523,37524,37525,37526,37527,37528,37529,37530,37531,37532,37533,37438,37439,37440,37441,37442,37443,37444,37445,37446,37447,37448,37449,37450,37451,37423,37424,37425,37426,37427,37428,37429,37430,37431,37432,37433,37434,37435,37436,37437,37438,37567,37568,37441,37442,37443,37444,37445,37446,37447,37448,37449,37450,37451,37452,37453,37454,0,0,0,0,0,0,0,0,0,0,
37476,37477,37478,37479,37480,37481,37477,37478,37479,37480,37481,37438,37567,37459,37460,37461,37462,37463,37464,37465,37466,37467,37468,37469,37470,37471,37472,37473,37474,37475,37476,37477,37478,37479,37480,37481,37482,37483,37455,37456,37457,37458,37459,37460,37461,37462,37463,37464,37465,37466,37467,37468,37469,37470,37583,37584,37473,37474,37475,37476,37477,37478,37479,37480,37481,37482,37483,37484,37485,37486,0,0,0,0,0,0,0,0,0,0,
37492,37493,37494,37495,37496,37497,37493,37494,37495,37496,37497,37454,37439,37491,37492,37493,37494,37495,37496,37497,37498,37499,37500,37501,37502,37503,37504,37505,37506,37507,37508,37509,37510,37511,37512,37513,37514,37515,37487,37488,37489,37490,37491,37492,37493,37494,37495,37496,37497,37498,37499,37500,37501,37502,37503,37504,37505,37506,37507,37508,37509,37510,37511,37512,37513,37514,37515,37516,37517,37518,0,0,0,0,0,0,0,0,0,0,
37568,37569,37570,37571,37572,37573,37574,37575,37576,37577,37578,37579,37580,37567,37568,37569,37570,37571,37572,37573,37574,37575,37576,37577,37578,37579,37580,37581,37582,37539,37540,37541,37542,37543,37544,37545,37546,37547,37519,37520,37521,37522,37523,37524,37525,37526,37527,37567,37568,37569,37570,37571,37572,37573,37574,37575,37576,37577,37578,37579,37580,37581,37582,37575,37576,37577,37578,37579,37580,37581,37582,37571,37572,37573,37574,37575,37576,37577,37578,37579,
37584,37585,37586,37587,37588,37589,37590,37591,37592,37593,37594,37595,37596,37583,37584,37585,37586,37587,37588,37589,37590,37591,37592,37593,37594,37595,37596,37597,37598,37571,37572,37573,37574,37575,37576,37577,37578,37579,37551,37552,37553,37554,37555,37556,37557,37558,37559,37583,37584,37585,37586,37587,37588,37589,37590,37591,37592,37593,37594,37595,37596,37597,37598,37591,37592,37593,37594,37595,37596,37597,37598,37587,37588,37589,37590,37591,37592,37593,37594,37595,
37600,37601,37602,37603,37604,37605,37606,37607,37608,37609,37610,37611,37612,37599,37600,37601,37602,37603,37604,37605,37606,37607,37608,37609,37610,37611,37612,37613,37614,37603,37604,37605,37606,37607,37608,37609,37610,37611,37583,37584,37585,37586,37587,37588,37589,37590,37591,37599,37600,37601,37602,37603,37604,37605,37606,37607,37608,37609,37610,37611,37612,37613,37614,37607,37608,37609,37610,37611,37612,37613,37614,37603,37604,37605,37606,37607,35571,35571,35571,37611,
35571,35571,35571,35571,35571,35571,35571,35571,35571,37608,37609,37610,37611,37612,37613,37614,15787,137,15791,15790,129,15789,15787,15791,130,15791,15789,15788,15788,15788,15786,15786,130,137,134,137,15791,15787,15791,15791,15786,134,129,15789,15789,15790,129,129,137,15788,15786,129,15789,15790,37599,37600,37601,37602,37603,37604,37605,37606,37607,37608,37599,37600,37601,37602,37603,37604,35571,35571,35571,35571,35571,35571,35571,35571,35571,35571,
35515,35613,35617,35515,35617,35616,35516,35617,35616,15791,15789,134,15791,129,137,15787,129,15786,130,134,15788,130,15787,15789,130,130,15786,15790,137,15788,15786,137,134,134,15787,15789,15791,15787,129,129,130,15788,137,15790,15788,15787,130,134,15788,15787,129,134,15786,137,137,134,15786,15791,15788,15789,15789,15791,15786,130,129,130,15791,15789,129,35612,35507,35616,35511,35515,35515,35616,35612,35617,35617,35617,
35613,35613,35613,35507,35507,35516,35617,35516,35516,130,15791,129,15791,15787,129,130,15787,137,15787,15790,15789,15790,15788,130,137,15788,15789,15790,129,15789,15786,130,15789,137,15791,129,15786,15790,129,15788,15790,15791,15790,15786,134,15787,15788,130,130,129,137,15788,15790,134,129,15788,15786,129,134,134,129,130,15787,15791,15789,137,15788,129,15786,35616,35507,35612,35516,35507,35515,35512,35612,35507,35515,35617,
35507,35617,35511,35507,35511,35612,35612,35613,35515,15790,15791,129,137,15787,15790,130,130,130,15788,15788,15789,137,15786,137,137,130,15788,137,129,137,134,129,134,15790,130,137,15789,130,134,129,15789,15787,134,15789,15790,15788,15789,15791,15791,15787,15790,130,15790,130,130,130,129,15788,134,15787,15787,15786,15791,15791,15786,15790,15786,137,15786,35617,35616,35507,35515,35616,35507,35511,35507,35612,35507,35507,
35507,35617,35512,35511,35515,35616,35617,35616,35512,15791,15789,15791,130,129,137,15788,15789,15789,129,15791,137,15788,129,15791,134,134,130,15787,15788,15786,15786,137,15788,15788,134,137,134,15786,15786,15789,129,15791,15789,129,15790,15788,15787,15787,15791,15791,134,134,15790,15786,15789,15791,15789,137,137,15791,15786,137,137,134,15789,137,15789,129,15791,35507,35613,35616,35612,35612,35612,35507,35511,35516,35511,35507,
35612,35612,35511,35507,35515,35516,35617,35507,35507,134,129,15791,15789,15791,15790,15789,15789,15791,15786,130,15790,15786,15787,15788,134,137,130,15790,129,15790,15787,15790,15788,15788,130,129,137,15791,15789,15788,15789,15790,15787,129,137,137,130,130,15788,15786,134,137,129,15788,15786,134,130,15789,130,129,15791,129,130,134,137,15788,134,137,15790,35612,35515,35515,35511,35507,35515,35511,35515,35507,35613,35613,
35512,35515,35507,35613,35612,35617,35616,35516,35516,15787,15787,15787,15786,15790,137,15789,15789,134,15788,129,15790,15788,15788,15791,137,15789,15786,134,15788,130,129,137,15788,15786,130,129,137,134,137,15787,130,15789,130,15788,15788,15791,129,15791,15791,15788,15791,134,15789,15786,129,134,130,15790,134,15789,130,15786,15787,134,15791,15786,15790,15787,15789,35516,35511,35616,35515,35512,35613,35512,35515,35512,35613,35616,
35612,35507,35616,35507,35616,35516,35512,35616,35612,15789,15788,15787,15787,130,130,129,15787,15791,15789,137,130,15791,137,134,15789,129,15788,137,15791,15788,15787,15789,15787,15791,134,15788,15786,15786,15786,134,137,15786,134,15790,137,129,15790,15789,15790,15786,15786,137,134,129,130,15788,15790,134,15787,15788,15791,15787,15786,15790,15788,15790,15788,130,129,35612,35616,35612,35613,35515,35511,35616,35617,35512,35512,35512,
35617,35516,35511,35613,35516,35613,35507,35612,35612,15789,15789,15787,15790,134,15789,130,134,15786,15786,130,15790,15789,15790,15788,15788,130,15789,15789,137,129,134,15789,15788,15787,15791,134,129,15791,134,137,15787,15786,130,15789,15791,134,15786,134,137,15789,15788,134,15788,15789,15786,130,15791,15786,15791,15791,15787,15790,15788,130,15787,15791,130,15787,15790,35617,35613,35616,35613,35617,35515,35511,35617,35511,35512,35512,
35612,35613,35515,35511,35507,35507,35616,35616,35616,15790,15789,15787,134,129,15787,15788,15790,15786,15789,137,15787,137,15786,15791,130,15787,15786,137,15791,137,15788,15791,129,15786,15786,129,137,130,15786,137,134,15786,15791,15788,134,15788,137,137,15791,137,15789,15790,15788,15788,134,15787,130,129,15786,15791,15791,15790,15786,130,15787,134,15790,15786,15787,35512,35511,35612,35511,35613,35616,35617,35511,35617,35617,35616,
35617,35616,35511,35511,35516,35617,35616,35512,35613,137,134,130,130,15786,129,15790,15791,15787,137,137,130,15791,15788,134,134,137,134,15788,130,130,129,129,15791,137,15787,15788,15788,129,15786,137,137,15788,15788,129,15791,15788,137,134,15790,15786,15788,130,129,130,137,130,129,15787,130,15786,15790,137,15786,15791,15790,15791,129,137,130,35511,35516,35515,35515,35617,35512,35515,35511,35515,35516,35507,
35516,35613,35612,35515,35515,35515,35613,35613,35512,15788,15786,129,15787,134,15786,130,137,15789,134,15789,129,15786,15791,137,15790,130,134,130,137,15787,15791,130,130,129,15790,15787,15786,134,15791,15787,15786,15790,137,130,15786,15788,15790,15789,15787,129,15787,15790,15789,15791,137,134,15786,15787,134,15791,15791,137,15790,15786,15790,130,15788,137,15787,35511,35512,35507,35612,35612,35512,35613,35511,35507,35612,35511,
35516,35515,35511,35617,35616,35512,35511,35612,35515,129,130,130,137,15789,129,15787,15788,15786,15786,130,15787,130,137,15787,15790,15787,15789,15791,15787,15790,15789,15791,15786,15787,15788,15790,15788,130,15790,134,15788,137,129,15790,15788,134,15786,130,15790,15787,15788,15790,129,15786,15790,134,15787,134,130,15786,130,137,15790,15789,137,15788,15786,15791,15788,35612,35512,35617,35612,35507,35616,35515,35613,35617,35616,35617,
35616,35515,35507,35616,35612,35516,35515,35515,35617,137,15789,130,15789,15790,15789,130,15788,15786,15789,129,15789,134,15788,15789,15787,129,15788,15787,15790,15788,15789,129,137,15786,15787,134,129,15791,15788,15790,15788,15790,15789,15789,15791,15788,137,15791,137,130,15786,15790,137,15791,134,134,15788,15787,15788,15791,130,137,15786,130,137,130,15786,130,15791,35516,35612,35516,35511,35507,35511,35512,35511,35515,35512,35511,
35613,35613,35616,35516,35616,35613,35515,35616,35516,15789,130,15791,15788,129,134,137,15789,15786,15787,130,134,15790,15791,137,129,15789,137,15790,137,15786,15790,137,15788,130,15789,130,15786,15786,15786,129,137,15787,137,129,134,15788,15786,130,15788,15788,137,15788,15788,15790,134,15790,130,129,15790,15787,15789,130,15788,15786,134,15790,15786,129,129,35512,35515,35507,35616,35616,35617,35616,35616,35612,35515,35616,
35507,35515,35515,35613,35613,35616,35511,35515,35613,15790,15788,15786,15791,15791,15790,15790,15786,129,134,15786,15790,129,15787,130,15791,130,129,129,15789,137,130,15791,129,15789,129,15790,15788,15790,15789,15786,134,15791,134,137,129,15789,15789,15791,15791,15789,15791,137,15790,15787,15788,15790,137,15790,15791,130,15790,130,15789,129,134,130,137,15790,15788,35616,35616,35515,35516,35612,35612,35612,35511,35516,35507,35612,
35616,35516,35512,35515,35512,35617,35507,35511,35612,15790,134,15791,137,134,134,15789,134,15790,15787,15788,15788,137,129,134,15788,15787,134,134,129,15791,15787,15789,15787,15790,137,15788,15790,15787,129,130,137,129,15787,15790,137,15790,15787,15789,15788,15788,137,15788,15790,15787,130,15791,15788,134,15787,15787,15790,129,15786,15787,15790,15791,15790,15786,15789,35515,35516,35516,35612,35612,35613,35617,35613,35507,35613,35515,
35616,35507,35612,35507,35507,35613,35515,35613,35616,129,15788,15786,15789,137,15791,15787,15789,129,129,134,15791,15788,129,130,15791,15787,134,134,15786,137,134,15788,134,15786,15786,15786,129,15786,15786,129,15789,15789,15791,15790,15790,130,129,15788,15786,15788,15789,15786,15786,15791,15786,15789,137,15789,15786,134,15791,15787,15788,15786,15787,15791,15788,129,15790,35516,35511,35612,35616,35617,35612,35515,35617,35511,35616,35516,
35613,35616,35617,35515,35616,35507,35616,35616,35616,15788,15788,129,15786,15790,15787,15790,137,15791,15787,134,129,129,137,15788,134,15791,137,15789,15790,15788,15786,15791,15790,15787,130,15791,130,130,134,15789,15786,137,15788,134,130,15787,15789,130,134,134,15787,130,15790,137,137,15790,15786,15787,130,15789,15789,15790,137,129,15791,137,15788,130,134,35507,35612,35512,35515,35612,35515,35507,35612,35515,35516,35616,
35612,35617,35617,35613,35512,35612,35612,35617,35511,134,134,15787,134,15789,15788,15791,15788,129,15789,15790,15788,15791,137,15787,15791,15786,15786,15789,15791,15787,15786,15789,129,15789,15788,15791,134,134,15788,15790,15789,137,15791,130,15787,15788,130,129,15788,15791,15787,15788,15787,15791,137,15786,15787,15791,130,129,15790,130,15788,15791,15787,15789,15788,137,137,35515,35511,35613,35613,35516,35515,35613,35507,35512,35617,35512,
35515,35512,35617,35616,35516,35612,35616,35507,35613,15789,15788,15787,15788,15786,15787,15787,137,15786,15791,129,134,15786,130,15787,15789,137,15790,130,130,15786,15787,15790,15788,15788,129,15789,15790,130,15787,134,134,15791,15791,15791,15788,134,15786,137,137,134,15790,15787,15789,134,15787,15791,15791,15791,15788,15787,134,129,15789,137,15789,129,15789,134,15790,35512,35617,35617,35617,35617,35616,35612,35511,35507,35616,35511,
35507,35512,35616,35617,35515,35507,35507,35617,35511,15786,129,15789,15787,15790,15790,129,134,15791,15787,15789,137,15789,130,15786,134,15788,15789,15788,130,15786,15787,15789,15791,15791,15786,15788,15787,15791,134,130,15787,15789,15788,134,15789,15786,130,15787,137,129,15791,129,137,137,130,130,137,15791,134,137,15791,15790,137,15786,15787,129,134,15789,15787,35507,35515,35617,35511,35516,35511,35507,35515,35613,35512,35511,
35617,35613,35511,35516,35616,35515,35512,35616,35616,134,130,129,15791,130,15789,15788,134,137,15789,15788,35961,129,15790,15787,15788,15788,15787,15787,15790,15790,15789,15786,15786,15788,15788,134,15789,134,130,15788,15790,137,15786,137,15791,15790,15791,15787,15788,15787,15791,130,15786,15789,137,15789,15786,15788,15788,15789,15789,15788,15786,137,137,15791,15789,15786,15788,35516,35507,35515,35617,35612,35613,35511,35613,35512,35511,35515,
35515,35507,35612,35617,35612,35612,35613,35511,35512,129,129,15787,15790,129,15787,129,15790,130,35953,35956,35959,15787,130,15787,15788,129,15789,15791,15789,15789,15786,15790,137,134,15788,15786,15786,15788,134,134,15790,15786,137,134,15787,15787,130,130,15787,137,130,15790,15786,130,137,134,15788,15786,129,129,129,130,137,15789,130,137,15789,15791,15788,35511,35512,35515,35616,35507,35511,35511,35612,35616,35516,35516,
35515,35507,35612,35516,35613,35516,35515,35616,35616,15786,15788,130,15788,134,15790,134,15791,35961,35952,130,129,15790,15789,15791,130,137,130,134,15788,129,15791,129,129,129,129,15790,15790,15789,15788,130,129,129,137,137,130,130,15788,15791,15788,15790,15788,134,15787,15789,15791,15788,15786,15788,15791,15788,130,130,15786,129,15790,15787,15787,15786,15790,35516,35507,35507,35613,35512,35617,35512,35512,35516,35515,35516,
35511,35617,35516,35612,35616,35512,35617,35511,35516,130,15791,129,15791,15791,137,137,15786,35955,15790,130,137,15788,15789,137,15790,15788,15788,15788,15788,15790,15788,15791,137,129,129,15788,15787,15791,15791,15786,15791,15790,129,15787,15790,129,137,137,129,130,15788,134,129,129,137,15789,15786,15787,15786,15789,15787,15790,15787,15787,15786,137,15787,129,15790,35613,35512,35516,35613,35616,35612,35616,35613,35613,35516,35616,
35512,35612,35511,35613,35515,35612,35617,35512,35612,15790,129,130,15790,130,134,134,134,15787,15786,15789,15789,15788,15791,129,15789,137,15789,134,15791,15787,15789,15786,15791,137,130,129,130,129,130,15791,15791,15789,134,129,15791,15787,15786,134,15786,137,134,134,15788,15791,130,137,15789,15786,15791,15787,15787,15788,137,15789,15789,15788,15788,15791,129,35616,35612,35507,35507,35516,35616,35617,35507,35511,35516,35617,
35612,35507,35612,35616,35612,35617,35511,35616,35612,134,129,129,15789,130,15786,15789,15788,15788,15789,129,130,137,137,15791,15787,15787,15787,15786,15791,15786,15789,129,15788,15786,130,15787,134,15790,15791,15787,15790,15786,15789,15787,134,15788,15789,15790,130,15788,137,130,15788,15788,15787,15791,15787,15790,15787,15787,15788,15787,15788,129,15789,15791,137,129,15789,35511,35512,35613,35617,35613,35616,35511,35612,35616,35616,35515,
35612,35613,35516,35612,35613,35507,35612,35612,35613,15789,15787,15789,15791,15786,129,15788,15790,15787,130,15786,134,129,137,134,15789,15791,15791,15790,15790,134,15789,15789,137,15789,15791,15788,15791,15790,130,15789,137,137,129,15786,15791,15786,15791,15789,15791,129,15791,130,129,15786,129,134,15786,130,129,15788,129,129,15791,15789,15788,15791,15790,15787,129,35512,35516,35515,35515,35516,35616,35507,35507,35612,35613,35516,
35512,35616,35512,35512,35515,35612,35613,35511,35515,134,15789,130,15786,134,130,137,15791,137,15790,15786,15786,15791,15790,15789,15788,130,15789,129,15787,15787,15786,137,15786,15787,134,15786,15786,15787,15789,134,15787,15786,15788,137,134,134,137,15788,130,15790,15791,129,129,15786,15788,15786,137,15791,129,15787,130,15790,15787,15789,15786,137,15786,15788,15790,35507,35617,35507,35507,35616,35612,35616,35516,35613,35612,35617,
35507,35515,35507,35616,35616,35617,35507,35511,35617,15787,130,134,130,134,15790,15791,15791,130,130,130,134,15791,137,15790,15786,15791,15786,137,15788,15788,15787,130,129,129,15791,15787,129,15791,15790,137,15789,15789,15788,15786,15789,130,15790,15786,15790,134,15786,15787,15790,129,15787,130,129,15787,15791,15790,15789,15786,15787,15788,15788,15788,15791,15789,15786,35617,35512,35616,35612,35613,35613,35511,35617,35512,35617,35507,
35616,35613,35616,35516,35512,35613,35512,35612,35612,15787,137,137,15789,15787,15786,130,15790,134,15789,134,15788,137,15791,129,15791,15788,15788,134,15789,137,15787,15786,130,15786,15786,15789,15790,15789,15787,15789,15786,137,134,137,15789,137,15786,137,130,15791,137,15789,129,134,130,137,15787,129,130,137,130,15786,134,15789,15791,130,129,15791,15791,35616,35617,35616,35612,35613,35616,35507,35613,35507,35511,35616,
35616,35612,35617,35512,35616,35515,35612,35613,35613,15791,129,15791,137,15787,129,130,130,15787,15791,15791,15790,15789,15786,15789,15790,15787,15786,129,137,129,15791,15787,134,15790,129,137,130,15790,15787,130,15791,15788,15791,15790,15786,15790,15791,129,15790,15788,129,15788,129,15786,15787,15790,15791,15788,15789,134,130,15791,15787,15786,15787,129,15789,15787,15788,35612,35613,35617,35612,35512,35511,35515,35507,35617,35516,35511,
35516,35515,35613,35613,35617,35612,35516,35617,35507,15787,15789,15790,130,137,134,15791,137,15787,15787,15786,137,15789,15789,15789,134,15786,15788,15788,129,129,15790,15789,134,15790,137,15789,15787,129,15787,15789,15790,15787,137,15791,130,15788,15786,15791,15786,134,129,15787,129,15789,15789,15790,15788,15790,15788,137,15788,15787,129,15789,15791,15789,15787,15786,15788,35511,35617,35512,35617,35507,35613,35515,35512,35617,35616,35617,
35612,35617,35512,35507,35512,35511,35511,35616,35516,15787,15786,15788,137,15791,134,134,15788,15790,137,130,15787,15791,15791,15788,129,130,15789,15791,15791,15787,134,15791,15789,15790,129,15789,15789,15786,15787,134,137,15791,130,15787,129,15787,134,15788,15788,15791,15790,15790,15790,15789,15787,129,134,134,15791,15791,15786,134,129,15788,15788,15787,15791,15786,129,35613,35507,35511,35511,35616,35612,35507,35617,35515,35612,35616,
35613,35613,35613,35516,35512,35512,35512,35516,35613,15791,15786,15786,130,15789,15787,15787,137,137,15789,130,15786,137,15789,15789,15791,15787,130,15790,130,134,129,15791,15786,137,137,130,15786,15786,129,15788,134,130,134,134,130,137,129,15786,137,15787,15788,15791,15789,15787,15791,15791,15791,129,15786,129,15791,130,129,134,129,15791,129,134,15788,35616,35507,35511,35511,35617,35512,35515,35617,35512,35616,35617,
35617,35515,35511,35511,35512,35512,35613,35507,35613,15788,15789,15791,15790,130,15790,15789,129,15787,129,130,134,15786,134,129,15786,134,15787,15789,15787,15786,129,134,15791,15788,15791,15789,137,130,15787,15791,137,129,129,15788,15786,129,129,15786,15788,15788,15786,15791,129,129,130,15789,15791,15789,134,15786,130,134,130,15787,130,137,129,15789,130,35507,35516,35511,35617,35515,35616,35515,35612,35613,35616,35617,
35617,35616,35515,35511,35613,35516,35515,35612,35515,15790,130,15789,15788,15791,15786,15791,15789,15787,15790,15791,130,130,15788,130,134,134,130,15788,134,129,129,137,129,15787,15791,15790,15787,15787,15790,15790,137,15791,15787,15788,137,129,137,130,15786,15789,15791,15790,134,130,134,15788,137,15788,15790,15788,129,137,137,15786,15789,15790,129,15787,15790,35612,35516,35507,35613,35613,35616,35511,35515,35616,35516,35507,
35613,35616,35612,35516,35511,35512,35515,35507,35507,130,15788,15790,15790,129,134,134,15786,129,15791,134,15788,130,15788,15791,15786,134,15786,15790,137,129,15786,15786,15790,15790,15789,15789,15789,15787,130,130,15791,15786,129,15791,129,15788,129,130,15788,15787,15791,15790,130,15790,134,130,130,134,15790,130,15788,15791,15791,15789,15787,130,15790,137,130,35616,35516,35511,35511,35507,35613,35511,35507,35516,35612,35507,
35515,35511,35507,35515,35507,35617,35512,35612,35617,134,129,15791,129,15789,15791,15789,15787,137,15791,15786,134,129,15786,15790,130,134,129,129,15787,15791,15787,15791,15791,129,15791,15791,130,15789,15789,15790,15787,137,15789,130,15788,129,130,129,15790,15787,130,137,15790,137,15789,15791,15787,15787,15788,15787,15790,129,15788,15791,134,15790,15788,129,15789,35512,35516,35612,35613,35516,35507,35511,35507,35612,35515,35613,
35617,35507,35612,35511,35613,35511,35512,35613,35617,130,137,15791,15788,134,129,15791,15789,15789,15787,15791,130,129,15791,15786,15791,137,130,15789,15791,15786,129,134,15788,129,134,15786,130,15786,15786,134,15787,130,129,15788,15790,137,15787,15786,15789,137,137,15786,15791,15790,130,134,15787,134,15787,130,134,15791,15788,137,129,15788,15791,130,15787,35612,35511,35516,35511,35515,35616,35512,35617,35616,35617,35507,
35511,35516,35515,35612,35613,35617,35511,35511,35515,15788,15789,129,137,15789,130,130,137,15790,15788,134,15788,15791,15788,129,15790,15789,15786,15788,15787,15786,129,15789,130,134,15791,15791,15788,15786,137,15788,134,137,137,130,15786,134,15789,15789,134,15789,137,15788,129,137,129,137,15788,15786,130,134,134,134,15788,15790,15790,130,130,15790,15791,35512,35616,35613,35512,35512,35613,35515,35515,35507,35512,35616
</data>
 </layer>
 <layer id="20" name="scote2" width="80" height="60">
  <data encoding="csv">
0,0,0,0,0,0,0,0,0,0,0,0,0,0,0,0,0,0,0,0,0,0,0,0,0,0,0,0,37359,37360,37361,37362,37363,37364,37365,37366,37367,37368,37369,37370,37371,37372,37359,37360,37361,37362,37363,37364,37365,37366,37367,37368,37369,37370,37371,37372,37373,37359,37360,37361,37362,37363,37364,37365,37366,37359,37360,37361,37362,37363,37364,37365,37366,37367,37368,37369,37370,37371,37372,37373,
0,0,0,0,0,0,0,0,0,0,0,0,0,0,0,0,0,0,0,0,0,0,0,0,0,0,0,0,37375,37376,37377,37378,37379,37380,37381,37382,37383,37384,37385,37386,37387,37388,37375,37376,37377,37378,37379,37380,37381,37382,37383,37384,37385,37386,37387,37388,37389,37375,37376,37377,37378,37379,37380,37381,37382,37375,37376,37377,37378,37379,37380,37381,37382,37383,37384,37385,37386,37387,37388,37389,
0,0,0,0,0,0,0,0,0,0,0,0,0,0,0,0,0,0,0,0,0,0,0,0,0,0,0,0,37391,37392,37393,37394,37395,37396,37397,37398,37399,37400,37401,37402,37403,37404,37391,37392,37393,37394,37395,37396,37397,37398,37399,37400,37401,37402,37403,37404,37405,37391,37392,37393,37394,37395,37396,37397,37398,37391,37392,37393,37394,37395,37396,37397,37398,37399,37400,37401,37402,37403,37404,37405,
0,0,0,0,0,0,0,0,0,0,0,0,0,0,0,0,0,0,0,0,0,0,0,0,0,0,0,0,37407,37408,37409,37410,37411,37412,37413,37414,37415,37416,37417,37418,37419,37420,37407,37408,37409,37410,37411,37412,37413,37414,37415,37416,37417,37418,37419,37420,37421,37407,37408,37409,37410,37411,37412,37413,37414,37407,37424,37425,37426,37427,37428,37429,37430,37431,37432,37432,37418,37419,37420,37421,
0,0,0,0,0,0,0,0,0,0,0,0,0,0,0,0,0,0,0,0,0,0,0,0,0,0,0,0,37423,37424,37425,37426,37427,37428,37429,37430,37431,37432,37433,37434,37435,37436,37423,37424,37425,37426,37427,37428,37429,37430,37431,37432,37433,37434,37435,37436,37437,37423,37424,37425,37426,37427,37428,37429,37430,37423,37440,37441,37442,37443,37444,37445,37446,37447,37448,37448,37434,37435,37436,37437,
0,0,0,0,0,0,0,0,0,0,0,0,0,0,0,0,0,0,0,0,0,0,0,0,0,0,0,0,37439,37440,37441,37442,37443,37444,37445,37446,37447,37448,37449,37450,37451,37452,37439,37440,37441,37442,37443,37444,37445,37446,37447,37448,37449,37450,37451,37452,37453,37439,37440,37441,37442,37443,37444,37445,37446,37439,37456,37457,37458,37459,37460,37461,37424,37424,37425,37426,37427,37428,37429,37430,
0,0,0,0,0,0,0,0,0,0,0,0,0,0,0,0,0,0,0,0,0,0,0,0,0,0,0,0,0,0,0,0,0,0,0,0,0,0,0,0,0,0,0,0,0,0,0,0,0,0,0,0,0,0,0,0,0,0,0,0,0,0,0,0,0,0,37472,37473,37474,37475,37476,37477,37440,37440,37441,37442,37443,37444,37445,37446,
0,0,0,0,0,0,0,0,0,0,0,0,0,0,0,0,0,0,0,0,0,0,0,0,0,0,0,0,0,0,0,0,0,0,0,0,0,0,0,0,0,0,0,0,0,0,0,0,0,0,0,0,0,0,0,0,0,0,0,0,0,0,0,0,0,0,37488,37489,37490,37491,37492,37493,37456,37456,37457,37458,37459,37460,37461,37462,
0,0,0,0,0,0,0,0,0,0,0,0,0,0,0,0,0,0,0,0,0,0,0,0,0,0,0,0,0,0,0,0,0,0,0,0,0,0,0,0,0,0,0,0,0,0,0,0,0,0,0,0,0,0,0,0,0,37424,37425,37426,37427,37428,37429,37430,37431,37432,37429,37430,37431,37432,37440,37441,37472,37472,37473,37474,37475,37476,37477,37478,
0,0,0,0,0,0,0,0,0,0,0,0,0,0,0,0,0,0,0,0,0,0,0,0,0,0,0,0,0,0,0,0,0,0,0,0,0,0,0,0,0,0,0,0,0,0,0,0,0,0,0,0,0,37424,37425,37426,37427,37428,37429,37430,37431,37432,37445,37446,37447,37448,37445,37446,37447,37448,37456,37457,37488,37488,37489,37490,37491,37492,37493,37494,
0,0,0,0,0,0,0,0,0,0,0,0,0,0,0,0,0,0,0,0,0,0,0,0,0,0,0,0,0,0,0,0,0,0,0,0,0,0,0,0,0,0,0,0,0,0,0,0,0,0,0,0,0,37440,37441,37442,37443,37444,37445,37446,37447,37448,37461,37462,37463,37464,37461,37462,37424,37425,37426,37427,37428,37429,37430,37431,37432,37479,37480,0,
0,0,0,0,0,0,0,0,0,0,0,0,0,0,0,0,0,0,0,0,0,0,0,0,0,0,0,0,0,0,0,0,0,0,0,0,0,0,0,0,0,0,0,0,0,0,0,0,0,0,0,0,0,37456,37457,37458,37459,37460,37461,37462,37463,37464,37477,37478,37479,37480,37477,37478,37440,37441,37442,37443,37444,37445,37446,37447,37448,37429,37430,37431,
0,0,0,0,0,0,0,0,0,0,0,0,0,0,0,0,0,0,0,0,0,0,0,0,0,0,0,0,0,0,0,0,0,0,0,0,0,0,0,0,0,0,0,0,0,0,0,0,0,0,0,0,0,37472,37473,37474,37475,37476,37477,37478,37479,37480,37493,37494,37495,37496,37493,37494,37456,37457,37458,37459,37460,37461,37462,37463,37464,37445,37446,37447,
0,0,0,0,0,0,0,0,0,0,0,0,0,0,0,0,0,0,0,0,0,0,0,0,0,0,0,0,0,0,0,0,0,0,0,0,0,0,0,0,0,0,0,0,0,0,0,0,0,0,0,0,0,37488,37489,37490,37491,37492,37493,37494,37495,37496,0,0,0,0,0,0,37472,37473,37474,37475,37476,37477,37478,37479,37480,37461,37462,37463,
0,0,0,0,0,0,0,0,0,0,0,0,0,0,0,0,0,0,0,0,0,0,0,0,0,0,0,0,0,0,0,0,0,0,0,0,0,0,0,0,0,0,0,0,0,0,0,0,0,0,0,0,0,0,0,0,0,0,0,0,0,0,0,0,37551,37552,37553,37554,37555,37556,37557,37558,37559,37560,37561,37562,37563,37564,37565,37566,
0,0,0,0,0,0,0,0,0,0,0,0,0,0,0,0,0,0,0,0,0,0,0,0,0,0,0,0,0,0,0,0,0,0,0,0,0,0,0,0,0,0,0,0,0,0,0,0,0,0,0,0,0,0,0,0,0,0,0,0,0,0,0,0,37567,37568,37569,37570,37571,37572,37573,37574,37575,37576,37577,37578,37579,37580,37581,37582,
0,0,0,0,0,0,0,0,0,0,0,0,0,0,0,0,0,0,0,0,0,0,0,0,0,0,0,0,0,0,0,0,0,0,0,0,0,0,0,0,0,0,0,0,0,0,0,0,0,0,0,0,0,0,0,0,0,0,0,0,0,0,0,0,37583,37584,37585,37586,37587,37588,37589,37590,37591,37592,37593,37594,37595,37596,37597,37598,
0,0,0,0,0,0,0,0,0,0,0,0,0,0,0,0,0,0,0,0,0,0,0,0,0,0,0,0,0,0,0,0,0,0,0,0,0,0,0,0,0,0,0,0,0,0,0,0,0,0,0,0,0,0,0,0,0,0,0,0,0,0,0,0,37599,37600,37601,37602,37603,37604,37605,37606,37607,37608,37609,37610,37611,37612,37613,37614,
35531,35532,0,0,0,0,0,0,0,35559,35560,35560,35560,35560,35560,35560,35560,35560,35560,35560,35560,35560,35560,35560,35560,35560,35560,35560,35560,35560,35560,35560,35560,35560,35560,35560,35560,35560,35560,35560,35560,35560,35560,35560,35560,35560,35560,35560,35560,35560,35560,35560,35560,35560,35560,35560,35560,35560,35560,35560,35560,35560,35560,35560,35560,35560,35560,35560,35560,35561,35571,0,0,0,0,0,0,0,0,0,
35535,35536,0,0,0,0,0,0,0,35563,35564,35564,35564,35564,35564,35564,35564,35564,35564,35564,35564,35564,35564,35564,35564,35564,35564,35564,35564,35564,35564,35564,35564,35564,35564,35564,35564,35564,35564,35564,35564,35564,35564,35564,35564,35564,35564,35564,35564,35564,35564,35564,35564,35564,35564,35564,35564,35564,35564,35564,35564,35564,35564,35564,35564,35564,35564,35564,35564,35561,35562,0,0,0,0,0,0,0,0,0,
0,0,0,0,35939,35940,35940,35941,0,35563,35564,35564,35564,35564,35564,35564,35564,35564,35564,35564,35564,35564,35564,35564,35564,35564,35564,35564,35564,35564,35564,35564,35564,35564,35564,35564,35564,35564,35564,35564,35564,35564,35564,35564,35564,35564,35564,35564,35564,35564,35564,35564,35564,35564,35564,35564,35564,35564,35564,35564,35564,35564,35564,35564,35564,35564,35564,35564,35564,0,35566,0,0,0,0,0,0,0,0,0,
0,0,0,0,35943,35944,35944,35945,0,35563,35564,35564,35564,35564,35564,35564,35564,35564,35564,35564,35564,35564,35564,35564,35564,35564,35564,35564,35564,35564,35564,35564,35564,35564,35564,35564,35564,35564,35564,35564,35564,35564,35564,35564,35564,35564,35564,35564,35564,35564,35564,35564,35564,35564,35564,35564,35564,35564,35564,35564,35564,35564,35564,35564,35564,35564,35564,35564,35564,0,35566,0,0,0,0,0,0,0,0,0,
0,0,0,0,35947,35948,35949,35949,0,35563,35564,35564,35564,35564,35564,35564,35564,35564,35564,35564,35564,35564,35564,35564,35564,35564,35564,35564,35564,35564,35564,35564,35564,35564,35564,35564,35564,35564,35564,35564,35564,35564,35564,35564,35564,35564,35564,35564,35564,35564,35564,35564,35564,35564,35564,35564,35564,35564,35564,35564,35564,35564,35564,35564,35564,35564,35564,35564,35564,0,35566,0,0,0,0,0,0,0,0,0,
0,0,0,0,0,0,0,0,0,35563,35564,35564,35564,35564,35564,35564,35564,35564,35564,35564,35564,35564,35564,35564,35564,35564,35564,35564,35564,35564,35564,35564,35564,35564,35564,35564,35564,35564,35564,35564,35564,35564,35564,35564,35564,35564,35564,35564,35564,35564,35564,35995,35996,35564,35564,35564,35564,35564,35564,35564,35564,35564,35564,35564,35564,35564,35564,35564,35564,0,35566,0,0,0,0,0,0,0,0,0,
0,0,0,0,0,0,0,0,0,35563,35564,35564,35564,35564,35564,35564,35564,35564,35564,35564,35564,35564,35564,35564,35564,35564,35564,35564,35564,35564,35564,35564,35564,35564,35564,35564,35564,35564,35564,35564,35564,35564,35564,35564,35564,35564,35564,35564,35564,35564,35564,35999,36000,35564,35564,35564,35564,35564,35564,35564,35564,35564,35564,35564,35564,35564,35564,35564,35564,0,35566,0,0,0,0,0,0,0,0,0,
0,0,0,0,0,0,0,0,0,35563,35564,35564,35564,35564,35564,35564,35564,35564,35564,35564,35564,35564,35564,35564,35564,35564,35564,35564,35564,35564,35564,35564,35564,35564,35564,35564,35564,35564,35564,35564,35564,35564,35564,35564,35564,35564,35564,35564,35564,35564,35564,35564,35564,35564,35564,35564,35564,35564,35564,35564,35564,35564,35564,35564,35564,35564,35564,35564,35564,0,35566,0,0,0,0,0,0,0,0,0,
0,0,0,0,0,0,0,0,0,35563,35564,35564,35564,35564,35564,35564,35564,35564,35564,35564,35564,35564,35564,35564,35564,35564,35564,35564,35564,35564,35564,35564,35564,35564,35564,35564,35564,35564,35564,35564,35564,35564,35564,35564,35564,35564,35564,35564,35564,35564,35564,35564,35564,35564,35564,35564,35564,35564,35564,35564,35564,35564,35564,35564,35564,35564,35564,35564,35564,0,35566,0,0,0,0,0,0,0,0,0,
0,0,0,0,0,0,0,0,0,35563,35564,35564,35564,35564,35564,35564,35564,35564,35564,35564,35564,35564,35564,35564,35564,35564,35564,35564,35564,35564,35564,35564,35564,35564,35564,35564,35564,35564,35564,35564,35564,35564,35564,35564,35564,35564,35564,35564,35564,35564,35564,35564,35564,35564,35564,35564,35564,35564,35564,35564,35564,35564,35564,35564,35564,35564,35564,35564,35564,0,35566,0,0,0,0,0,0,0,0,0,
0,0,0,0,0,0,0,0,0,35563,35564,35564,35564,35564,35564,35564,35564,35564,35564,35564,35564,35564,35564,35564,35564,35564,35564,35564,35564,35564,35564,35564,35564,35564,35564,35564,35564,35564,35564,35564,35564,35564,35564,35564,35564,35564,35564,35564,35564,35564,35564,35564,35564,35564,35564,35564,35564,35564,35564,35564,35564,35564,35564,35564,35564,35564,35564,35564,35564,0,35566,0,0,0,0,0,0,0,0,0,
0,0,0,0,0,0,0,0,0,35563,35564,35564,35564,35564,35564,35564,35564,35564,35564,35564,35564,35564,35564,35564,35564,35564,35564,35564,35564,35564,35564,35564,35564,35564,35564,35564,35564,35564,35564,35564,35564,35564,35564,35564,35564,35564,35564,35564,35564,35564,35564,35564,35564,35564,35564,35564,35564,35564,35564,35564,35564,35564,35564,35564,35564,35564,35564,35564,35564,0,35566,0,0,0,0,0,0,0,0,0,
0,0,0,0,0,0,0,0,0,35563,35564,35564,35564,35564,35564,35564,35564,35564,35564,35564,35564,35564,35564,35564,35564,35564,35564,35564,35564,35564,35564,35564,35564,35564,35564,35564,35564,35564,35564,35564,35564,35564,35564,35564,35564,35564,35564,35564,35564,35564,35564,35564,35564,35564,35564,35564,35564,35564,35564,35564,35564,35564,35564,35564,35564,35564,35564,35564,35564,0,35566,0,0,0,0,0,0,0,0,0,
0,0,0,0,0,0,0,0,0,35563,35564,35564,35564,35564,35564,35564,35564,35564,35564,35564,35564,35564,35564,35564,35564,35564,35564,35564,35564,35564,35564,35564,35564,35564,35564,35564,35564,35564,35564,35564,35564,35564,35564,35564,35564,35564,35564,35564,35564,35564,35564,35564,35564,35564,35564,35564,35564,35564,35564,35564,35564,35564,35564,35564,35564,35564,35564,35564,35564,0,35566,0,0,0,0,0,0,0,0,0,
0,0,0,0,0,0,0,0,0,35563,35564,35564,35564,35564,35564,35564,35564,35564,35564,35564,35564,35564,35564,35564,35564,35564,35564,35564,35564,35564,35564,35564,35564,35564,35564,35564,35564,35564,35564,35564,35564,35564,35564,35564,35564,35564,35564,35564,35564,35564,35564,35564,35564,35564,35564,35564,35564,35564,35564,35564,35564,35564,35564,35564,35564,35564,35564,35564,35564,0,35566,0,0,0,0,0,0,0,0,0,
0,0,0,0,0,0,0,0,0,35563,35564,35564,35564,35564,35564,35564,35564,35564,35564,35564,35564,35564,35564,35564,35564,35564,35564,35564,35564,35564,35564,35564,35564,35564,35564,35564,35564,35564,35564,35564,35564,35564,35564,35564,35564,35564,35564,35564,35564,35564,35564,35564,35564,35564,35564,35564,35564,35564,35564,35564,35564,35564,35564,35564,35564,35564,35564,35564,35564,0,35566,0,0,0,0,0,0,0,0,0,
0,0,0,0,0,0,0,0,0,35563,35564,35564,35564,35564,35564,35564,35564,35564,35564,35564,35564,35564,35564,35564,35564,35564,35564,35564,35564,35564,35564,35564,35564,35564,35564,35564,35564,35564,35564,35564,35564,35564,35564,35564,35564,35564,35564,35564,35564,35564,35564,35564,35564,35564,35564,35564,35564,35564,35564,35564,35564,35564,35564,35564,35564,35564,35564,35564,35564,0,35566,0,0,0,0,0,0,0,0,0,
0,0,0,0,0,0,0,0,0,35563,35564,35564,35564,35564,35564,35564,35564,35564,35564,35564,35564,35564,35564,35564,35564,35564,35564,35564,35564,35564,35564,35564,35564,35564,35564,35564,35564,35564,35564,35564,35564,35564,35564,35564,35564,35564,35564,35564,35564,35564,35564,35564,35564,35564,35564,35564,35564,35564,35564,35564,35564,35564,35564,35564,35564,35564,35564,35564,35564,0,35566,0,0,0,0,0,0,0,0,0,
0,0,0,0,0,0,0,0,0,35563,35564,35564,35564,35564,35564,35564,35564,35564,35564,35564,35564,35564,35564,35564,35564,35564,35564,35564,35564,35564,35564,35564,35564,35564,35564,35564,35564,35564,35564,35564,35564,35564,35564,35564,35564,35564,35564,35564,35564,35564,35564,35564,35564,35564,35564,35564,35564,35564,35564,35564,35564,35564,35564,35564,35564,35564,35564,35564,35564,0,35566,0,0,0,0,0,0,0,0,0,
0,0,0,0,0,0,0,0,0,35563,35564,35564,35564,35564,35564,35564,35564,35564,35564,35564,35564,35564,35564,35564,35564,35564,35564,35564,35564,35564,35564,35564,35564,35564,35564,35564,35564,35564,35564,35564,35564,35564,35564,35564,35564,35564,35564,35564,35564,35564,35564,35564,35564,35564,35564,35564,35564,35564,35564,35564,35564,35564,35564,35564,35564,35564,35564,35564,35564,0,35566,0,0,0,0,0,0,0,0,0,
0,0,0,0,0,0,0,0,0,35563,35564,35564,35564,35564,35564,35564,35564,35564,35564,35564,35564,35564,35564,35564,35564,35564,35564,35564,35564,35564,35564,35564,35564,35564,35564,35564,35564,35564,35564,35564,35564,35564,35564,35564,35564,35564,35564,35564,35564,35564,35564,35564,35564,35564,35564,35564,35564,35564,35564,35564,35564,35564,35564,35564,35564,35564,35564,35564,35564,0,35566,0,0,0,0,0,0,0,0,0,
0,0,0,0,0,0,0,0,0,35563,35564,35564,35564,35564,35564,35564,35564,35564,35564,35564,35564,35564,35564,35564,35564,35564,35564,35564,35564,35564,35564,35564,35564,35564,35564,35564,35564,35564,35564,35564,35564,35564,35564,35564,35564,35564,35564,35564,35564,35564,35564,35564,35564,35564,35564,35564,35564,35564,35564,35564,35564,35564,35564,35564,35564,35564,35564,35564,35564,0,35566,0,0,0,0,0,0,0,0,0,
0,0,0,0,0,0,0,0,0,35563,35564,35564,35564,35564,35564,35564,35564,35564,35564,35564,35564,35564,35564,35564,35564,35564,35564,35564,35564,35564,35564,35564,35564,35564,35564,35564,35564,35564,35564,35564,35564,35564,35564,35564,35564,35564,35564,35564,35564,35564,35564,35564,35564,35564,35564,35564,35564,35564,35564,35564,35564,35564,35564,35564,35564,35564,35564,35564,35564,0,35566,0,0,0,0,0,0,0,0,0,
0,0,0,0,0,0,0,0,0,35563,35564,35564,35564,35564,35564,35564,35564,35564,35564,35564,35564,35564,35564,35564,35564,35564,35564,35564,35564,35564,35564,35564,35564,35564,35564,35564,35564,35564,35564,35564,35564,35564,35564,35564,35564,35564,35564,35564,35564,35564,35564,35564,35564,35564,35564,35564,35564,35564,35564,35564,35564,35564,35564,35564,35564,35564,35564,35564,35564,0,35566,0,0,0,0,0,0,0,0,0,
0,0,0,0,0,0,0,0,0,35563,35564,35564,35564,35564,35564,35564,35564,35564,35564,35564,35564,35564,35564,35564,35564,35564,35564,35564,35564,35564,35564,35564,35564,35564,35564,35564,35564,35564,35564,35564,35564,35564,35564,35564,35564,35564,35564,35564,35564,35564,35564,35564,35564,35564,35564,35564,35564,35564,35564,35564,35564,35564,35564,35564,35564,35564,35564,35564,35564,0,35566,0,0,0,0,0,0,0,0,0,
0,0,0,0,0,0,0,0,0,35563,35564,35564,35564,35564,35564,35564,35564,35564,35564,35564,35564,35564,35564,35564,35564,35564,35564,35564,35564,35564,35564,35564,35564,35564,35564,35564,35564,35564,35564,35564,35564,35564,35564,35564,35564,35564,35564,35564,35564,35564,35564,35564,35564,35564,35564,35564,35564,35564,35564,35564,35564,35564,35564,35564,35564,35564,35564,35564,35564,0,35566,0,0,0,0,0,0,0,0,0,
0,0,0,0,0,0,0,0,0,35563,35564,35564,35564,35564,35564,35564,35564,35564,35564,35564,35564,35564,35564,35564,35564,35564,35564,35564,35564,35564,35564,35564,35564,35564,35564,35564,35564,35564,35564,35564,35564,35564,35564,35564,35564,35564,35564,35564,35564,35564,35564,35564,35564,35564,35564,35564,35564,35564,35564,35564,35564,35564,35564,35564,35564,35564,35564,35564,35564,0,35566,0,0,0,0,0,0,0,0,0,
0,0,0,0,0,0,0,0,0,35563,35564,35564,35564,35564,35564,35564,35564,35564,35564,35564,35564,35564,35564,35564,35564,35564,35564,35564,35564,35564,35564,35564,35564,35564,35564,35564,35564,35564,35564,35564,35564,35564,35564,35564,35564,35564,35564,35564,35564,35564,35564,35564,35564,35564,35564,35564,35564,35564,35564,35564,35564,35564,35564,35564,35564,35564,35564,35564,35564,0,35566,0,0,0,0,0,0,0,0,0,
0,0,0,0,0,0,0,0,0,35563,35564,35564,35564,35564,35564,35564,35564,35564,35564,35564,35564,35564,35564,35564,35564,35564,35564,35564,35564,35564,35564,35564,35564,35564,35564,35564,35564,35564,35564,35564,35564,35564,35564,35564,35564,35564,35564,35564,35564,35564,35564,35564,35564,35564,35564,35564,35564,35564,35564,35564,35564,35564,35564,35564,35564,35564,35564,35564,35564,0,35566,0,0,0,0,0,0,0,0,0,
0,0,0,0,0,0,0,0,0,35563,35564,35564,35564,35564,35564,35564,35564,35564,35564,35564,35564,35564,35564,35564,35564,35564,35564,35564,35564,35564,35564,35564,35564,35564,35564,35564,35564,35564,35564,35564,35564,35564,35564,35564,35564,35564,35564,35564,35564,35564,35564,35564,35564,35564,35564,35564,35564,35564,35564,35564,35564,35564,35564,35564,35564,35564,35564,35564,35564,0,35566,0,0,0,0,0,0,0,0,0,
0,0,0,0,0,0,0,0,0,35563,35564,35564,35564,35564,35564,35564,35564,35564,35564,35564,35564,35564,35564,35564,35564,35564,35564,35564,35564,35564,35564,35564,35564,35564,35564,35564,35564,35564,35564,35564,35564,35564,35564,35564,35564,35564,35564,35564,35564,35564,35564,35564,35564,35564,35564,35564,35564,35564,35564,35564,35564,35564,35564,35564,35564,35564,35564,35564,35564,0,35566,0,0,0,0,0,0,0,0,0,
0,0,0,0,0,0,0,0,0,35563,35564,35564,35564,35564,35564,35564,35564,35564,35564,35564,35564,35564,35564,35564,35564,35564,35564,35564,35564,35564,35564,35564,35564,35564,35564,35564,35564,35564,35564,35564,35564,35564,35564,35564,35564,35564,35564,35564,35564,35564,35564,35564,35564,35564,35564,35564,35564,35564,35564,35564,35564,35564,35564,35564,35564,35564,35564,35564,35564,0,35566,0,0,0,0,0,0,0,0,0,
0,0,0,0,0,0,0,0,0,35563,35564,35564,35564,35564,35564,35564,35564,35564,35564,35564,35564,35564,35564,35564,35564,35564,35564,35564,35564,35564,35564,35564,35564,35564,35564,35564,35564,35564,35564,35564,35564,35564,35564,35564,35564,35564,35564,35564,35564,35564,35564,35564,35564,35564,35564,35564,35564,35564,35564,35564,35564,35564,35564,35564,35564,35564,35564,35564,35564,0,35566,0,0,0,0,0,0,0,0,0,
0,0,0,0,0,0,0,0,0,35563,35564,35564,35564,35564,35564,35564,35564,35564,35564,35564,35564,35564,35564,35564,35564,35564,35564,35564,35564,35564,35564,35564,35564,35564,35564,35564,35564,35564,35564,35564,35564,35564,35564,35564,35564,35564,35564,35564,35564,35564,35564,35564,35564,35564,35564,35564,35564,35564,35564,35564,35564,35564,35564,35564,35564,35564,35564,35564,35564,0,35566,0,0,0,0,0,0,0,0,0,
0,0,0,0,0,0,0,0,0,35563,35564,35564,35564,35564,35564,35564,35564,35564,35564,35564,35564,35564,35564,35564,35564,35564,35564,35564,35564,35564,35564,35564,35564,35564,35564,35564,35564,35564,35564,35564,35564,35564,35564,35564,35564,35564,35564,35564,35564,35564,35564,35564,35564,35564,35564,35564,35564,35564,35564,35564,35564,35564,35564,35564,35564,35564,35564,35564,35564,0,35566,0,0,0,0,0,0,0,0,0,
0,0,0,0,0,0,0,0,0,35563,35564,35564,35564,35564,35564,35564,35564,35564,35564,35564,35564,35564,35564,35564,35564,35564,35564,35564,35564,35564,35564,35564,35564,35564,35564,35564,35564,35564,35564,35564,35564,35564,35564,35564,35564,35564,35564,35564,35564,35564,35564,35564,35564,35564,35564,35564,35564,35564,35564,35564,35564,35564,35564,35564,35564,35564,35564,35564,35564,0,35566,0,0,0,0,0,0,0,0,0,
0,0,0,0,0,0,0,0,0,35563,35564,35564,35564,35564,35564,35564,35564,35564,35564,35564,35564,35564,35564,35564,35564,35564,35564,35564,35564,35564,35564,35564,35564,35564,35564,35564,35564,35564,35564,35564,35564,35564,35564,35564,35564,35564,35564,35564,35564,35564,35564,35564,35564,35564,35564,35564,35564,35564,35564,35564,35564,35564,35564,35564,35564,35564,35564,35564,35564,0,35566,0,0,0,0,0,0,0,0,0,
0,0,0,0,0,0,0,0,0,35563,35564,35564,35564,35564,35564,35564,35564,35564,35564,35564,35564,35564,35564,35564,35564,35564,35564,35564,35564,35564,35564,35564,35564,35564,35564,35564,35564,35564,35564,35564,35564,35564,35564,35564,35564,35564,35564,35564,35564,35564,35564,35564,35564,35564,35564,35564,35564,35564,35564,35564,35564,35564,35564,35564,35564,35564,35564,35564,35564,0,35566,0,0,0,0,0,0,0,0,0,
0,0,0,0,0,0,0,0,0,35563,35564,35564,35564,35564,35564,35564,35564,35564,35564,35564,35564,35564,35564,35564,35564,35564,35564,35564,35564,35564,35564,35564,35564,35564,35564,35564,35564,35564,35564,35564,35564,35564,35564,35564,35564,35564,35564,35564,35564,35564,35564,35564,35564,35564,35564,35564,35564,35564,35564,35564,35564,35564,35564,35564,35564,35564,35564,35564,35564,0,35566,0,0,0,0,0,0,0,0,0,
0,0,0,0,0,0,0,0,0,35563,35564,35564,35564,35564,35564,35564,35564,35564,35564,35564,35564,35564,35564,35564,35564,35564,35564,35564,35564,35564,35564,35564,35564,35564,35564,35564,35564,35564,35564,35564,35564,35564,35564,35564,35564,35564,35564,35564,35564,35564,35564,35564,35564,35564,35564,35564,35564,35564,35564,35564,35564,35564,35564,35564,35564,35564,35564,35564,35564,0,35566,0,0,0,0,0,0,0,0,0,
0,0,0,0,0,0,0,0,0,35563,35564,35564,35564,35564,35564,35564,35564,35564,35564,35564,35564,35564,35564,35564,35564,35564,35564,35564,35564,35564,35564,35564,35564,35564,35564,35564,35564,35564,35564,35564,35564,35564,35564,35564,35564,35564,35564,35564,35564,35564,35564,35564,35564,35564,35564,35564,35564,35564,35564,35564,35564,35564,35564,0,0,0,0,0,0,0,35566,0,0,0,0,0,0,0,0,0,
0,0,0,0,0,0,0,0,0,35567,35568,35568,35568,35568,35568,35568,35568,35568,35568,35568,35568,35568,35568,35568,0,0,0,0,0,0,0,0,0,0,0,0,0,0,0,0,0,0,0,0,0,0,0,0,0,0,0,0,0,0,0,0,0,0,0,0,0,0,0,0,0,0,0,0,0,0,35570,0,0,0,0,0,0,0,0,0
</data>
 </layer>
 <layer id="22" name="shadow" width="80" height="60" opacity="0.2">
  <data encoding="csv">
0,0,0,0,0,0,0,0,0,0,0,0,0,0,0,0,0,0,0,0,0,0,0,0,0,0,0,0,0,0,0,0,0,0,0,0,0,0,0,0,0,0,0,0,0,0,0,0,0,0,0,0,0,0,0,0,0,0,0,0,0,0,0,0,0,0,0,0,0,0,0,0,0,0,0,0,0,0,0,0,
0,0,0,0,0,0,0,0,0,0,0,0,0,0,0,0,0,0,0,0,0,0,0,0,0,0,0,0,0,0,0,0,0,0,0,0,0,0,0,0,0,0,0,0,0,0,0,0,0,0,0,0,0,0,0,0,0,0,0,0,0,0,0,0,0,0,0,0,0,0,0,0,0,0,0,0,0,0,0,0,
0,0,0,0,0,0,0,0,0,0,0,0,0,0,0,0,0,0,0,0,0,0,0,0,0,0,0,0,0,0,0,0,0,0,0,0,0,0,0,0,0,0,0,0,0,0,0,0,0,0,0,0,0,0,0,0,0,0,0,0,0,0,0,0,0,0,0,0,0,0,0,0,0,0,0,0,0,0,0,0,
0,0,0,0,0,0,0,0,0,0,0,0,0,0,0,0,0,0,0,0,0,0,0,0,0,0,0,0,0,0,0,0,0,0,0,0,0,0,0,0,0,0,0,0,0,0,0,0,0,0,0,0,0,0,0,0,0,0,0,0,0,0,0,0,0,0,0,0,0,0,0,0,0,0,0,0,0,0,0,0,
0,0,0,0,0,0,0,0,0,0,0,0,0,0,0,0,0,0,0,0,0,0,0,0,0,0,0,0,0,0,0,0,0,0,0,0,0,0,0,0,0,0,0,0,0,0,0,0,0,0,0,0,0,0,0,0,0,0,0,0,0,0,0,0,0,0,0,0,0,0,0,0,0,0,0,0,0,0,0,0,
0,0,0,0,0,0,0,0,0,0,0,0,0,0,0,0,0,0,0,0,0,0,0,0,0,0,0,0,0,0,0,0,0,0,0,0,0,0,0,0,0,0,0,0,0,0,0,0,0,0,0,0,0,0,0,0,0,0,0,0,0,0,0,0,0,0,0,0,0,0,0,0,0,0,0,0,0,0,0,0,
0,0,0,0,0,0,0,0,0,0,0,0,0,0,0,0,0,0,0,0,0,0,0,0,0,0,0,0,0,0,0,0,0,0,0,0,0,0,0,0,0,0,0,0,0,0,0,0,0,0,0,0,0,0,0,0,0,0,0,0,0,0,0,0,0,0,0,0,0,0,0,0,0,0,0,0,0,0,0,0,
0,0,0,0,0,0,0,0,0,0,0,0,0,0,0,0,0,0,0,0,0,0,0,0,0,0,0,0,0,0,0,0,0,0,0,0,0,0,0,0,0,0,0,0,0,0,0,0,0,0,0,0,0,0,0,0,0,0,0,0,0,0,0,0,0,0,0,0,0,0,0,0,0,0,0,0,0,0,0,0,
0,0,0,0,0,0,0,0,0,0,0,0,0,0,0,0,0,0,0,0,0,0,0,0,0,0,0,0,0,0,0,0,0,0,0,0,0,0,0,0,0,0,0,0,0,0,0,0,0,0,0,0,0,0,0,0,0,0,0,0,0,0,0,0,0,0,0,0,0,0,0,0,0,0,0,0,0,0,0,0,
0,0,0,0,0,0,0,0,0,0,0,0,0,0,0,0,0,0,0,0,0,0,0,0,0,0,0,0,0,0,0,0,0,0,0,0,0,0,0,0,0,0,0,0,0,0,0,0,0,0,0,0,0,0,0,0,0,0,0,0,0,0,0,0,0,0,0,0,0,0,0,0,0,0,0,0,0,0,0,0,
0,0,0,0,0,0,0,0,0,0,0,0,0,0,0,0,0,0,0,0,0,0,0,0,0,0,0,0,0,0,0,0,0,0,0,0,0,0,0,0,0,0,0,0,0,0,0,0,0,0,0,0,0,0,0,0,0,0,0,0,0,0,0,0,0,0,0,0,0,0,0,0,0,0,0,0,0,0,0,0,
0,0,0,0,0,0,0,0,0,0,0,0,0,0,0,0,0,0,0,0,0,0,0,0,0,0,0,0,0,0,0,0,0,0,0,0,0,0,0,0,0,0,0,0,0,0,0,0,0,0,0,0,0,0,0,0,0,0,0,0,0,0,0,0,0,0,0,0,0,0,0,0,0,0,0,0,0,0,0,0,
0,0,0,0,0,0,0,0,0,0,0,0,0,0,0,0,0,0,0,0,0,0,0,0,0,0,0,0,0,0,0,0,0,0,0,0,0,0,0,0,0,0,0,0,0,0,0,0,0,0,0,0,0,0,0,0,0,0,0,0,0,0,0,0,0,0,0,0,0,0,0,0,0,0,0,0,0,0,0,0,
0,0,0,0,0,0,0,0,0,0,0,0,0,0,0,0,0,0,0,0,0,0,0,0,0,0,0,0,0,0,0,0,0,0,0,0,0,0,0,0,0,0,0,0,0,0,0,0,0,0,0,0,0,0,0,0,0,0,0,0,0,0,0,0,0,0,0,0,0,0,0,0,0,0,0,0,0,0,0,0,
0,0,0,0,0,0,0,0,0,0,0,0,0,0,0,0,0,0,0,0,0,0,0,0,0,0,0,0,0,0,0,0,0,0,0,0,0,0,0,0,0,0,0,0,0,0,0,0,0,0,0,0,0,0,0,0,0,0,0,0,0,0,0,0,0,0,0,0,0,0,0,0,0,0,0,0,0,0,0,0,
0,0,0,0,0,0,0,0,0,0,0,0,0,0,0,0,0,0,0,0,0,0,0,0,0,0,0,0,0,0,0,0,0,0,0,0,0,0,0,0,0,0,0,0,0,0,0,0,0,0,0,0,0,0,0,0,0,0,0,0,0,0,0,0,0,0,0,0,0,0,0,0,0,0,0,0,0,0,0,0,
0,0,0,0,0,0,0,0,0,0,0,0,0,0,0,0,0,0,0,0,0,0,0,0,0,0,0,0,0,0,0,0,0,0,0,0,0,0,0,0,0,0,0,0,0,0,0,0,0,0,0,0,0,0,0,0,0,0,0,0,0,0,0,0,0,0,0,0,0,0,0,0,0,0,0,0,0,0,0,0,
0,0,0,0,0,0,0,0,0,0,0,0,0,0,0,0,0,0,0,0,0,0,0,0,0,0,0,0,0,0,0,0,0,0,0,0,0,0,0,0,0,0,0,0,0,0,0,0,0,0,0,0,0,0,0,0,0,0,0,0,0,0,0,0,0,0,0,0,0,0,0,0,0,0,0,0,0,0,0,0,
0,0,0,0,0,0,0,0,0,0,0,0,0,0,0,0,0,0,0,0,0,0,0,0,0,0,0,0,0,0,0,0,0,0,0,0,0,0,0,0,0,0,0,0,0,0,0,0,0,0,0,0,0,0,0,0,0,0,0,0,0,0,0,0,0,0,0,0,0,0,0,0,0,0,0,0,0,0,0,0,
0,0,0,0,0,0,0,0,0,0,0,0,0,0,0,0,0,0,0,0,0,0,0,0,0,0,0,0,0,0,0,0,0,0,0,0,0,0,0,0,0,0,0,0,0,0,0,0,0,0,0,0,0,0,0,0,0,0,0,0,0,0,0,0,0,0,0,0,0,0,0,0,0,0,0,0,0,0,0,0,
0,0,0,0,0,0,0,0,0,0,0,0,0,0,0,0,0,0,0,0,0,0,0,0,0,0,0,0,0,0,0,0,0,0,0,0,0,0,0,0,0,0,0,0,0,0,0,0,0,0,0,0,0,0,0,0,0,0,0,0,0,0,0,0,0,0,0,0,0,0,0,0,0,0,0,0,0,0,0,0,
0,0,0,0,0,0,0,0,0,0,0,0,0,0,0,0,0,0,0,0,0,0,0,0,0,0,0,0,0,0,0,0,0,0,0,0,0,0,0,0,0,0,0,0,0,0,0,0,0,0,0,0,0,0,0,0,0,0,0,0,0,0,0,0,0,0,0,0,0,0,0,0,0,0,0,0,0,0,0,0,
0,0,0,0,0,0,0,0,0,0,0,0,0,0,0,0,0,0,0,0,0,0,0,0,0,0,0,0,0,0,0,0,0,0,0,0,0,0,0,0,0,0,0,0,0,0,0,0,0,0,0,0,0,0,0,0,0,0,0,0,0,0,0,0,0,0,0,0,0,0,0,0,0,0,0,0,0,0,0,0,
0,0,0,0,0,0,0,0,0,0,0,0,0,0,0,0,0,0,0,0,0,0,0,0,0,0,0,0,0,0,0,0,0,0,0,0,0,0,0,0,0,0,0,0,0,0,0,0,36315,36315,36315,0,0,0,0,0,0,0,0,0,0,0,0,0,0,0,0,0,0,0,0,0,0,0,0,0,0,0,0,0,
0,0,0,0,0,0,0,0,0,0,0,0,0,0,0,0,0,0,0,0,0,0,0,0,0,0,0,0,0,0,0,0,0,0,0,0,0,0,0,0,0,36315,36315,36315,36315,36315,36315,36315,0,0,0,0,0,0,0,0,0,0,0,0,0,0,0,0,0,0,0,0,0,0,0,0,0,0,0,0,0,0,0,0,
0,0,0,0,0,0,0,0,0,0,0,0,0,0,0,0,0,0,0,0,0,0,0,36315,0,0,0,0,0,0,0,0,0,36315,36315,36315,36315,36315,36315,36315,36315,0,0,0,0,0,0,0,0,0,0,0,0,0,0,0,0,0,0,0,0,0,0,0,0,0,0,0,0,0,0,0,0,0,0,0,0,0,0,0,
0,0,0,0,0,0,0,0,0,0,0,0,0,0,0,0,0,0,0,0,0,0,0,36315,0,0,0,36315,36315,36315,36315,36315,36315,0,0,0,0,0,0,0,0,0,0,0,0,0,0,0,0,0,0,0,0,36315,0,0,0,0,0,0,0,0,0,0,0,0,0,0,0,0,0,0,0,0,0,0,0,0,0,0,
0,0,0,0,0,0,0,0,0,0,0,0,0,0,0,0,0,0,0,0,0,0,0,36315,36315,36315,36315,36315,36315,36315,36315,36315,36315,36315,36315,36315,36315,36315,36315,36315,36315,36315,36315,36315,36315,36315,36315,36315,36315,36315,36315,36315,36315,0,0,0,0,0,0,0,0,0,0,0,0,0,0,0,0,0,0,0,0,0,0,0,0,0,0,0,
0,0,0,0,0,0,0,0,0,0,0,0,0,0,0,0,0,0,0,0,0,0,0,36315,36315,36315,36315,36315,36315,36315,36315,36315,36315,36315,36315,36315,36315,36315,36315,36315,36315,36315,36315,36315,36315,36315,36315,36315,36315,36315,36315,36315,36315,0,0,0,0,0,0,0,0,0,0,0,0,0,0,0,0,0,0,0,0,0,0,0,0,0,0,0,
0,0,0,0,0,0,0,0,0,0,0,0,0,0,0,0,0,0,0,0,0,0,0,0,0,0,0,0,0,0,0,0,0,0,0,0,0,0,0,0,0,0,0,0,0,0,0,0,0,0,0,0,0,0,0,0,0,0,0,0,0,0,0,0,0,0,0,0,0,0,0,0,0,0,0,0,0,0,0,0,
0,0,0,0,0,0,0,0,0,0,0,0,0,0,0,0,0,0,0,0,0,0,0,0,0,0,0,0,0,0,0,0,0,0,0,0,0,0,0,0,0,0,0,0,0,0,0,0,0,0,0,0,0,0,0,0,0,0,0,0,0,0,0,0,0,0,0,0,0,0,0,0,0,0,0,0,0,0,0,0,
0,0,0,0,0,0,0,0,0,0,0,0,0,0,0,0,0,0,0,0,0,0,0,0,0,0,0,0,0,0,0,0,0,0,0,0,0,0,0,0,0,0,0,0,0,0,0,0,0,0,0,0,0,0,0,0,0,0,0,0,0,0,0,0,0,0,0,0,0,0,0,0,0,0,0,0,0,0,0,0,
0,0,0,0,0,0,0,0,0,0,0,0,0,0,0,0,0,0,0,0,0,0,0,0,0,0,0,0,0,0,0,0,0,0,0,0,0,0,0,0,0,0,0,0,0,0,0,0,0,0,0,0,0,0,0,0,0,0,0,0,0,0,0,0,0,0,0,0,0,0,0,0,0,0,0,0,0,0,0,0,
0,0,0,0,0,0,0,0,0,0,0,0,0,0,0,0,0,0,0,0,0,0,0,0,0,0,0,0,0,0,0,0,0,0,0,0,0,0,0,0,0,0,0,0,0,0,0,0,0,0,0,0,0,0,0,0,0,0,0,0,0,0,0,0,0,0,0,0,0,0,0,0,0,0,0,0,0,0,0,0,
0,0,0,0,0,0,0,0,0,0,0,0,0,0,0,0,0,0,0,0,0,0,0,0,0,0,0,0,0,0,0,0,0,0,0,0,0,0,0,0,0,0,0,0,0,0,0,0,0,0,0,0,0,0,0,0,0,0,0,0,0,0,0,0,0,0,0,0,0,0,0,0,0,0,0,0,0,0,0,0,
0,0,0,0,0,0,0,0,0,0,0,0,0,0,0,0,0,0,0,0,0,0,0,0,0,0,0,0,0,0,0,0,0,0,0,0,0,0,0,0,0,0,0,0,0,0,0,0,0,0,0,0,0,0,0,0,0,0,0,0,0,0,0,0,0,0,0,0,0,0,0,0,0,0,0,0,0,0,0,0,
0,0,0,0,0,0,0,0,0,0,0,0,0,0,0,0,0,0,0,0,0,0,0,0,0,0,0,0,0,0,0,0,0,0,0,0,0,0,0,0,0,0,0,0,0,0,0,0,0,0,0,0,0,0,0,0,0,0,0,0,0,0,0,0,0,0,0,0,0,0,0,0,0,0,0,0,0,0,0,0,
0,0,0,0,0,0,0,0,0,0,0,0,0,0,0,0,0,0,0,0,0,0,0,0,0,0,0,0,0,0,0,0,0,0,0,0,0,0,0,0,0,0,0,0,0,0,0,0,0,0,0,0,0,0,0,0,0,0,0,0,0,0,0,0,0,0,0,0,0,0,0,0,0,0,0,0,0,0,0,0,
0,0,0,0,0,0,0,0,0,0,0,0,0,0,0,0,0,0,0,0,0,0,0,0,0,0,0,0,0,0,0,0,0,0,0,0,0,0,0,0,0,0,0,0,0,0,0,0,0,0,0,0,0,0,0,0,0,0,0,0,0,0,0,0,0,0,0,0,0,0,0,0,0,0,0,0,0,0,0,0,
0,0,0,0,0,0,0,0,0,0,0,0,0,0,0,0,0,0,0,0,0,0,0,0,0,0,0,0,0,0,0,0,0,0,0,0,0,0,0,0,0,0,0,0,0,0,0,0,0,0,0,0,0,0,0,0,0,0,0,0,0,0,0,0,0,0,0,0,0,0,0,0,0,0,0,0,0,0,0,0,
0,0,0,0,0,0,0,0,0,0,0,0,0,0,0,0,0,0,0,0,0,0,0,0,0,0,0,0,0,0,0,0,0,0,0,0,0,0,0,0,0,0,0,0,0,0,0,0,0,0,0,0,0,0,0,0,0,0,0,0,0,0,0,0,0,0,0,0,0,0,0,0,0,0,0,0,0,0,0,0,
0,0,0,0,0,0,0,0,0,0,0,0,0,0,0,0,0,0,0,0,0,0,0,0,0,0,0,0,0,0,0,0,0,0,0,0,0,0,0,0,0,0,0,0,0,0,0,0,0,0,0,0,0,0,0,0,0,0,0,0,0,0,0,0,0,0,0,0,0,0,0,0,0,0,0,0,0,0,0,0,
0,0,0,0,0,0,0,0,0,0,0,0,0,0,0,0,0,0,0,0,0,0,0,0,0,0,0,0,0,0,0,0,0,0,0,0,0,0,0,0,0,0,0,0,0,0,0,0,0,0,0,0,0,0,0,0,0,0,0,0,0,0,0,0,0,0,0,0,0,0,0,0,0,0,0,0,0,0,0,0,
0,0,0,0,0,0,0,0,0,0,0,0,0,0,0,0,0,0,0,0,0,0,0,0,0,0,0,0,0,0,0,0,0,0,0,0,0,0,0,0,0,0,0,0,0,0,0,0,0,0,0,0,0,0,0,0,0,0,0,0,0,0,0,0,0,0,0,0,0,0,0,0,0,0,0,0,0,0,0,0,
0,0,0,0,0,0,0,0,0,0,0,0,0,0,0,0,0,0,0,0,0,0,0,0,0,0,0,0,0,0,0,0,0,0,0,0,0,0,0,0,0,0,0,0,0,0,0,0,0,0,0,0,0,0,0,0,0,0,0,0,0,0,0,0,0,0,0,0,0,0,0,0,0,0,0,0,0,0,0,0,
0,0,0,0,0,0,0,0,0,0,0,0,0,0,0,0,0,0,0,0,0,0,0,0,0,0,0,0,0,0,0,0,0,0,0,0,0,0,0,0,0,0,0,0,0,0,0,0,0,0,0,0,0,0,0,0,0,0,0,0,0,0,0,0,0,0,0,0,0,0,0,0,0,0,0,0,0,0,0,0,
0,0,0,0,0,0,0,0,0,0,0,0,0,0,0,0,0,0,0,0,0,0,0,0,0,0,0,0,0,0,0,0,0,0,0,0,0,0,0,0,0,0,0,0,0,0,0,0,0,0,0,0,0,0,0,0,0,0,0,0,0,0,0,0,0,0,0,0,0,0,0,0,0,0,0,0,0,0,0,0,
0,0,0,0,0,0,0,0,0,0,0,0,0,0,0,0,0,0,0,0,0,0,0,0,0,0,0,0,0,0,0,0,0,0,0,0,0,0,0,0,0,0,0,0,0,0,0,0,0,0,0,0,0,0,0,0,0,0,0,0,0,0,0,0,0,0,0,0,0,0,0,0,0,0,0,0,0,0,0,0,
0,0,0,0,0,0,0,0,0,0,0,0,0,0,0,0,0,0,0,0,0,0,0,0,0,0,0,0,0,0,0,0,0,0,0,0,0,0,0,0,0,0,0,0,0,0,0,0,0,0,0,0,0,0,0,0,0,0,0,0,0,0,0,0,0,0,0,0,0,0,0,0,0,0,0,0,0,0,0,0,
0,0,0,0,0,0,0,0,0,0,0,0,0,0,0,0,0,0,0,0,0,0,0,0,0,0,0,0,0,0,0,0,0,0,0,0,0,0,0,0,0,0,0,0,0,0,0,0,0,0,0,0,0,0,0,0,0,0,0,0,0,0,0,0,0,0,0,0,0,0,0,0,0,0,0,0,0,0,0,0,
0,0,0,0,0,0,0,0,0,0,0,0,0,0,0,0,0,0,0,0,0,0,0,0,0,0,0,0,0,0,0,0,0,0,0,0,0,0,0,0,0,0,0,0,0,0,0,0,0,0,0,0,0,0,0,0,0,0,0,0,0,0,0,0,0,0,0,0,0,0,0,0,0,0,0,0,0,0,0,0,
0,0,0,0,0,0,0,0,0,0,0,0,0,0,0,0,0,0,0,0,0,0,0,0,0,0,0,0,0,0,0,0,0,0,0,0,0,0,0,0,0,0,0,0,0,0,0,0,0,0,0,0,0,0,0,0,0,0,0,0,0,0,0,0,0,0,0,0,0,0,0,0,0,0,0,0,0,0,0,0,
0,0,0,0,0,0,0,0,0,0,0,0,0,0,0,0,0,0,0,0,0,0,0,0,0,0,0,0,0,0,0,0,0,0,0,0,0,0,0,0,0,0,0,0,0,0,0,0,0,0,0,0,0,0,0,0,0,0,0,0,0,0,0,0,0,0,0,0,0,0,0,0,0,0,0,0,0,0,0,0,
0,0,0,0,0,0,0,0,0,0,0,0,0,0,0,0,0,0,0,0,0,0,0,0,0,0,0,0,0,0,0,0,0,0,0,0,0,0,0,0,0,0,0,0,0,0,0,0,0,0,0,0,0,0,0,0,0,0,0,0,0,0,0,0,0,0,0,0,0,0,0,0,0,0,0,0,0,0,0,0,
0,0,0,0,0,0,0,0,0,0,0,0,0,0,0,0,0,0,0,0,0,0,0,0,0,0,0,0,0,0,0,0,0,0,0,0,0,0,0,0,0,0,0,0,0,0,0,0,0,0,0,0,0,0,0,0,0,0,0,0,0,0,0,0,0,0,0,0,0,0,0,0,0,0,0,0,0,0,0,0,
0,0,0,0,0,0,0,0,0,0,0,0,0,0,0,0,0,0,0,0,0,0,0,0,0,0,0,0,0,0,0,0,0,0,0,0,0,0,0,0,0,0,0,0,0,0,0,0,0,0,0,0,0,0,0,0,0,0,0,0,0,0,0,0,0,0,0,0,0,0,0,0,0,0,0,0,0,0,0,0,
0,0,0,0,0,0,0,0,0,0,0,0,0,0,0,0,0,0,0,0,0,0,0,0,0,0,0,0,0,0,0,0,0,0,0,0,0,0,0,0,0,0,0,0,0,0,0,0,0,0,0,0,0,0,0,0,0,0,0,0,0,0,0,0,0,0,0,0,0,0,0,0,0,0,0,0,0,0,0,0,
0,0,0,0,0,0,0,0,0,0,0,0,0,0,0,0,0,0,0,0,0,0,0,0,0,0,0,0,0,0,0,0,0,0,0,0,0,0,0,0,0,0,0,0,0,0,0,0,0,0,0,0,0,0,0,0,0,0,0,0,0,0,0,0,0,0,0,0,0,0,0,0,0,0,0,0,0,0,0,0,
0,0,0,0,0,0,0,0,0,0,0,0,0,0,0,0,0,0,0,0,0,0,0,0,0,0,0,0,0,0,0,0,0,0,0,0,0,0,0,0,0,0,0,0,0,0,0,0,0,0,0,0,0,0,0,0,0,0,0,0,0,0,0,0,0,0,0,0,0,0,0,0,0,0,0,0,0,0,0,0,
0,0,0,0,0,0,0,0,0,0,0,0,0,0,0,0,0,0,0,0,0,0,0,0,0,0,0,0,0,0,0,0,0,0,0,0,0,0,0,0,0,0,0,0,0,0,0,0,0,0,0,0,0,0,0,0,0,0,0,0,0,0,0,0,0,0,0,0,0,0,0,0,0,0,0,0,0,0,0,0
</data>
 </layer>
 <layer id="17" name="scote" width="80" height="60" offsetx="-1" offsety="2">
  <data encoding="csv">
0,0,0,0,0,0,0,0,0,0,0,0,0,0,0,0,0,0,0,0,0,0,0,0,0,0,0,0,0,0,0,0,0,0,0,0,0,0,0,0,0,0,0,0,0,0,0,0,0,0,0,0,0,0,0,0,0,0,0,0,0,0,0,0,0,0,0,0,0,0,0,0,0,0,0,0,0,0,0,0,
0,0,0,0,0,0,0,0,0,0,0,0,0,0,0,0,0,0,0,0,0,0,0,0,0,0,0,0,0,0,0,0,0,0,0,0,0,0,0,0,0,0,0,0,0,0,0,0,0,0,0,0,0,0,0,0,0,0,0,0,0,0,0,0,0,0,0,0,0,0,0,0,0,0,0,0,0,0,0,0,
0,0,0,0,0,0,0,0,0,0,0,0,0,0,0,0,0,0,0,0,0,0,0,36579,36580,36581,36582,36583,36584,36585,36586,36587,36588,36589,36590,36591,36592,36593,36594,36595,36596,36597,36598,36599,36600,36601,36602,36603,36604,36605,36606,36607,36608,0,0,0,0,0,0,0,0,0,0,0,0,0,0,0,0,0,0,0,0,0,0,0,0,0,0,0,
0,0,0,0,0,0,0,0,0,0,0,0,0,0,0,0,0,0,0,0,0,0,0,36609,36610,36611,36612,36613,36614,36615,36616,36617,36618,36619,36620,36621,36622,36623,36624,36625,36626,36627,36628,36629,36630,36631,36632,36633,36634,36635,36636,36637,36638,0,0,0,0,0,0,0,0,0,0,0,0,0,0,0,0,0,0,0,0,0,0,0,0,0,0,0,
0,0,0,0,0,0,0,0,0,0,0,0,0,0,0,0,0,0,0,0,0,0,0,36639,36640,36641,36642,36643,36644,36645,36646,36647,36648,36649,36650,36651,36652,36653,36654,36655,36656,36657,36658,36659,36660,36661,36662,36663,36664,36665,36666,36667,36668,0,0,0,0,0,0,0,0,0,0,0,0,0,0,0,0,0,0,0,0,0,0,0,0,0,0,0,
0,0,0,0,0,0,0,0,0,0,0,0,0,0,0,0,0,0,0,0,0,0,0,36669,36670,36671,36672,36673,36674,36675,36676,36677,36678,36679,36680,36681,36682,36683,36684,36685,36686,36687,36688,36689,36690,36691,36692,36693,36694,36695,36696,36697,36698,0,0,0,0,0,0,0,0,0,0,0,0,0,0,0,0,0,0,0,0,0,0,0,0,0,0,0,
0,0,0,0,0,0,0,0,0,0,0,0,0,0,0,0,0,0,0,0,0,0,0,36699,36700,36701,36702,36703,36704,36705,36706,36707,36708,36709,36710,36711,36712,36713,36714,36715,36716,36717,36718,36719,36720,36721,36722,36723,36724,36725,36726,36727,36728,0,0,0,0,0,0,0,0,0,0,0,0,0,0,0,0,0,0,0,0,0,0,0,0,0,0,0,
0,0,0,0,0,0,0,0,0,0,0,0,0,0,0,0,0,0,0,0,0,0,0,36729,36730,36731,36732,36733,36734,36735,36736,36737,36738,36739,36740,36741,36742,36743,36744,36745,36746,36747,36748,36749,36750,36751,36752,36753,36754,36755,36756,36757,36758,0,0,0,0,0,0,0,0,0,0,0,0,0,0,0,0,0,0,0,0,0,0,0,0,0,0,0,
0,0,0,0,0,0,0,0,0,0,0,0,0,0,0,0,0,0,0,0,0,0,0,36759,36760,36761,36762,36763,36764,36765,36766,36767,36768,36769,36770,36771,36772,36773,36774,36775,36776,36777,36778,36779,36780,36781,36782,36783,36784,36785,36786,36787,36788,0,0,0,0,0,0,0,0,0,0,0,0,0,0,0,0,0,0,0,0,0,0,0,0,0,0,0,
0,0,0,0,0,0,0,0,0,0,0,0,0,0,0,0,0,0,0,0,0,0,0,36789,36790,36791,36792,36793,36794,36795,36796,36797,36798,36799,36800,36801,36802,36803,36804,36805,36806,36807,36808,36809,36810,36811,36812,36813,36814,36815,36816,36817,36818,0,0,0,0,0,0,0,0,0,0,0,0,0,0,0,0,0,0,0,0,0,0,0,0,0,0,0,
0,0,0,0,0,0,0,0,0,0,0,0,0,0,0,0,0,0,0,0,0,0,0,36819,36820,36821,36822,36823,36824,36825,36826,36827,36828,36829,36830,36831,36832,36833,36834,36835,36836,36837,36838,36839,36840,36841,36842,36843,36844,36845,36846,36847,36848,0,0,0,0,0,0,0,0,0,0,0,0,0,0,0,0,0,0,0,0,0,0,0,0,0,0,0,
0,0,0,0,0,0,0,0,0,0,0,0,0,0,0,0,0,0,0,0,0,0,0,36849,36850,36851,36852,36853,36854,36855,36856,36857,36858,36859,36860,36861,36862,36863,36864,36865,36866,36867,36868,36869,36870,36871,36872,36873,36874,36875,36876,36877,36878,0,0,0,0,0,0,0,0,0,0,0,0,0,0,0,0,0,0,0,0,0,0,0,0,0,0,0,
0,0,0,0,0,0,0,0,0,0,0,0,0,0,0,0,0,0,0,0,0,0,0,36879,36880,36881,36882,36883,36884,36885,36886,36887,36888,36889,36890,36891,36892,36893,36894,36895,36896,36897,36898,36899,36900,36901,36902,36903,36904,36905,36906,36907,36908,0,0,0,0,0,0,0,0,0,0,0,0,0,0,0,0,0,0,0,0,0,0,0,0,0,0,0,
0,0,0,0,0,0,0,0,0,0,0,0,0,0,0,0,0,0,0,0,0,0,0,36909,36910,36911,36912,36913,36914,36915,36916,36917,36918,36919,36920,36921,36922,36923,36924,36925,36926,36927,36928,36929,36930,36931,36932,36933,36934,36935,36936,36937,36938,0,0,0,0,0,0,0,0,0,0,0,0,0,0,0,0,0,0,0,0,0,0,0,0,0,0,0,
0,0,0,0,0,0,0,0,0,0,0,0,0,0,0,0,0,0,0,0,0,0,0,36939,36940,36941,36942,36943,36944,36945,36946,36947,36948,36949,36950,36951,36952,36953,36954,36955,36956,36957,36958,36959,36960,36961,36962,36963,36964,36965,36966,36967,36968,0,0,0,0,0,0,0,0,0,0,0,0,0,0,0,0,0,0,0,0,0,0,0,0,0,0,0,
0,0,0,0,0,0,0,0,0,0,0,0,0,0,0,0,0,0,0,0,0,0,0,36969,36970,36971,36972,36973,36974,36975,36976,36977,36978,36979,36980,36981,36982,36983,36984,36985,36986,36987,36988,36989,36990,36991,36992,36993,36994,36995,36996,36997,36998,0,0,0,0,0,0,0,0,0,0,0,0,0,0,0,0,0,0,0,0,0,0,0,0,0,0,0,
0,0,0,0,0,0,0,0,0,0,0,0,0,0,0,0,0,0,0,0,0,0,0,36999,37000,37001,37002,37003,37004,37005,37006,37007,37008,37009,37010,37011,37012,37013,37014,37015,37016,37017,37018,37019,37020,37021,37022,37023,37024,37025,37026,37027,37028,0,0,0,0,0,0,0,0,0,0,0,0,0,0,35519,35520,35521,0,0,0,0,0,0,0,0,0,0,
0,0,0,0,0,0,0,0,0,0,0,0,0,0,0,0,0,0,0,0,0,0,0,37029,37030,37031,37032,37033,37034,37035,37036,37037,37038,37039,37040,37041,37042,37043,37044,37045,37046,37047,37048,37049,37050,37051,37052,37053,37054,37055,37056,37057,37058,0,0,0,0,0,0,0,0,0,0,0,0,0,0,35523,35524,35525,0,0,0,0,0,0,0,0,0,0,
0,0,0,0,0,0,0,35533,35534,35563,0,0,0,0,0,0,0,0,0,0,0,0,0,37059,37060,37061,37062,37063,37064,37065,37066,37067,37068,37069,37070,37071,37072,37073,37074,37075,37076,37077,37078,37079,37080,37081,37082,37083,37084,37085,37086,37087,37088,0,0,0,0,0,0,0,0,0,0,0,0,0,0,35527,35528,35529,0,0,0,0,0,0,0,0,0,0,
0,35533,35534,0,0,0,0,35537,35538,35563,0,0,0,0,0,0,0,0,0,0,0,0,0,37089,37090,37091,37092,37093,37094,37095,37096,37097,37098,37099,37100,37101,37102,37103,37104,37105,37106,37107,37108,37109,37110,37111,37112,37113,37114,37115,37116,37117,37118,0,0,0,0,0,0,0,0,0,0,0,0,0,0,0,0,35565,35558,0,0,0,0,0,0,0,0,0,
0,35537,35538,0,0,35526,35546,0,0,35563,0,0,0,0,0,0,0,0,0,0,0,0,0,37119,37120,37121,37122,37123,37124,37125,37126,37127,37128,37129,37130,37131,37132,37133,37134,37135,37136,37137,37138,37139,37140,37141,37142,37143,37144,37145,37146,37147,37148,0,0,0,0,0,0,0,0,0,0,0,0,0,0,0,0,35565,0,0,0,0,0,0,0,0,0,0,
0,0,0,0,0,35530,35550,0,0,35563,0,0,0,0,0,0,0,0,0,0,0,0,0,37149,37150,37151,37152,37153,37154,37155,37156,37157,37158,37159,37160,37161,37162,37163,37164,37165,37166,37167,37168,37169,37170,37171,37172,37173,37174,37175,37176,37177,37178,0,0,0,0,0,0,0,0,0,0,0,0,0,0,0,0,35565,0,0,0,0,0,0,0,0,0,0,
0,0,0,0,0,0,0,0,0,35563,0,0,0,0,0,0,0,0,0,0,0,0,0,37179,37180,37181,37182,37183,37184,37185,37186,37187,37188,37189,37190,37191,37192,37193,37194,37195,37196,37197,37198,37199,37200,37201,37202,37203,37204,37205,37206,37207,37208,0,0,0,0,0,0,0,0,0,0,0,0,0,0,0,0,35565,0,0,0,0,0,0,0,0,0,0,
0,0,0,0,0,0,0,0,0,35563,0,0,0,0,0,0,0,0,0,0,0,0,0,37209,37210,37211,37212,37213,37214,37215,37216,37217,37218,37219,37220,37221,37222,37223,37224,37225,37226,37227,37228,37229,37230,37231,37232,37233,37234,37235,37236,37237,37238,0,0,0,0,0,0,0,0,0,0,0,0,0,0,0,0,35565,0,0,0,0,0,0,0,0,0,0,
0,0,0,0,0,0,0,0,0,35563,0,0,0,0,0,0,0,0,0,0,0,0,0,37239,37240,37241,37242,37243,37244,37245,37246,37247,37248,37249,37250,37251,37252,37253,37254,37255,37256,37257,37258,37259,37260,37261,37262,37263,37264,37265,37266,37267,37268,0,0,0,0,0,0,0,0,0,0,0,0,0,0,0,0,35565,0,0,0,0,0,0,0,0,0,0,
0,0,0,0,0,0,0,0,0,35563,0,0,0,0,0,0,0,0,0,0,0,0,0,37269,37270,37271,37272,37273,37274,37275,37276,37277,37278,37279,37280,37281,37282,37283,37284,37285,37286,37287,37288,37289,37290,37291,37292,37293,37294,37295,37296,37297,37298,0,0,0,0,0,0,0,0,0,0,0,0,0,0,0,0,35565,0,0,0,0,0,0,0,0,0,0,
0,0,0,0,0,0,0,0,0,35563,0,0,0,0,0,0,0,0,0,0,0,0,0,37299,37300,37301,37302,37303,37304,37305,37306,37307,37308,37309,37310,37311,37312,37313,37314,37315,37316,37317,37318,37319,37320,37321,37322,37323,37324,37325,37326,37327,37328,0,0,0,0,0,0,0,0,0,0,0,0,0,0,0,0,35565,0,0,0,0,0,0,0,0,0,0,
0,0,0,0,0,0,0,0,0,35563,0,0,0,0,0,0,0,0,0,0,0,0,0,37329,37330,37331,37332,37333,37334,37335,37336,37337,37338,37339,37340,37341,37342,37343,37344,37345,37346,37347,37348,37349,37350,37351,37352,37353,37354,37355,37356,37357,37358,0,0,0,0,0,0,0,0,0,0,0,0,0,0,0,0,35565,0,0,0,0,0,0,0,0,0,0,
0,0,0,0,0,0,0,0,0,35563,0,0,0,0,0,0,0,0,0,0,0,0,0,0,0,0,0,0,0,0,0,0,0,0,0,0,0,0,0,0,0,0,0,0,0,0,0,0,0,0,0,0,0,0,0,0,0,0,0,0,0,0,0,0,0,0,0,0,0,35565,0,0,0,0,0,0,0,0,0,0,
0,0,0,0,0,0,0,0,0,35563,0,0,0,0,0,0,0,0,0,0,0,0,0,0,0,0,0,0,0,0,0,0,0,0,0,0,0,0,0,0,0,0,0,0,0,0,0,0,0,0,0,0,0,0,0,0,0,0,0,0,0,0,0,0,0,0,0,0,0,35565,0,0,0,0,0,0,0,0,0,0,
0,0,0,0,0,0,0,0,0,35563,0,0,0,0,0,0,0,0,0,0,0,0,0,0,0,0,0,0,0,0,0,0,0,0,0,0,0,0,0,0,0,0,0,0,0,0,0,0,0,0,0,0,0,0,0,0,0,0,0,0,0,0,0,0,0,0,0,0,0,35565,0,0,0,0,0,0,0,0,0,0,
0,0,0,0,0,0,0,0,0,35563,0,0,0,0,0,0,0,0,0,0,0,0,0,0,0,0,0,0,0,0,0,0,0,0,0,0,0,0,0,0,0,0,0,0,0,0,0,0,0,0,0,0,0,0,0,0,0,0,0,0,0,0,0,0,0,0,0,0,0,35565,0,0,0,0,0,0,0,0,0,0,
0,0,0,0,0,0,0,0,0,35563,0,0,0,0,0,0,0,0,0,0,0,0,0,0,0,0,0,0,0,0,0,0,0,0,0,0,0,0,0,0,0,0,0,0,0,0,0,0,0,0,0,0,0,0,0,0,0,0,0,0,0,0,0,0,0,0,0,0,0,35565,0,0,0,0,0,0,0,0,0,0,
0,0,0,0,0,0,0,0,0,35563,0,0,0,0,0,0,0,0,0,0,0,0,0,0,0,0,0,0,0,0,0,0,0,0,0,0,0,0,0,0,0,0,0,0,0,0,0,0,0,0,0,0,0,0,0,0,0,0,0,0,0,0,0,0,0,0,0,0,0,35565,0,0,0,0,0,0,0,0,0,0,
0,0,0,0,0,0,0,0,0,35563,0,0,0,0,0,0,0,0,0,0,0,0,0,0,0,0,0,0,0,0,0,0,0,0,0,0,0,0,0,0,0,0,0,0,0,0,0,0,0,0,0,0,0,0,0,0,0,0,0,0,0,0,0,0,0,0,0,0,0,35565,0,0,0,0,0,0,0,0,0,0,
0,0,0,0,0,0,0,0,0,35563,0,0,0,0,0,0,0,0,0,0,0,0,0,0,0,0,0,0,0,0,0,0,0,0,0,0,0,0,0,0,0,0,0,0,0,0,0,0,0,0,0,0,0,0,0,0,0,0,0,0,0,0,0,0,0,0,0,0,0,35565,0,0,0,0,0,0,0,0,0,0,
0,0,0,0,0,0,0,0,0,35563,0,0,0,0,0,0,0,0,0,0,0,0,0,0,0,0,0,0,0,0,0,0,0,0,0,0,0,0,0,0,0,0,0,0,0,0,0,0,0,0,0,0,0,0,0,0,0,0,0,0,0,0,0,0,0,0,0,0,0,35565,0,0,0,0,0,0,0,0,0,0,
0,0,0,0,0,0,0,0,0,35563,0,0,0,0,0,0,0,0,0,0,0,0,0,0,0,0,0,0,0,0,0,0,0,0,0,0,0,0,0,0,0,0,0,0,0,0,0,0,0,0,0,0,0,0,0,0,0,0,0,0,0,0,0,0,0,0,0,0,0,35565,0,0,0,0,0,0,0,0,0,0,
0,0,0,0,0,0,0,0,0,35563,0,0,0,0,0,0,0,0,0,0,0,0,0,0,0,0,0,0,0,0,0,0,0,0,0,0,0,0,0,0,0,0,0,0,0,0,0,0,0,0,0,0,0,0,0,0,0,0,0,0,0,0,0,0,0,0,0,0,0,35565,0,0,0,0,0,0,0,0,0,0,
0,0,0,0,0,0,0,0,0,35563,0,0,0,0,0,0,0,0,0,0,0,0,0,0,0,0,0,0,0,0,0,0,0,0,0,0,0,0,0,0,0,0,0,0,0,0,0,0,0,0,0,0,0,0,0,0,0,0,0,0,0,0,0,0,0,0,0,0,0,35565,0,0,0,0,0,0,0,0,0,0,
0,0,0,0,0,0,0,0,0,35563,0,0,0,0,0,0,0,0,0,0,0,0,0,0,0,0,0,0,0,0,0,0,0,0,0,0,0,0,0,0,0,0,0,0,0,0,0,0,0,0,0,0,0,0,0,0,0,0,0,0,0,0,0,0,0,0,0,0,0,35565,0,0,0,0,0,0,0,0,0,0,
0,0,0,0,0,0,0,0,0,35563,0,0,0,0,0,0,0,0,0,0,0,0,0,0,0,0,0,0,0,0,0,0,0,0,0,0,0,0,0,0,0,0,0,0,0,0,0,0,0,0,0,0,0,0,0,0,0,0,0,0,0,0,0,0,0,0,0,0,0,35565,0,0,0,0,0,0,0,0,0,0,
0,0,0,0,0,0,0,0,0,35563,0,0,0,0,0,0,0,0,0,0,0,0,0,0,0,0,0,0,0,0,0,0,0,0,0,0,0,0,0,0,0,0,0,0,0,0,0,0,0,0,0,0,0,0,0,0,0,0,0,0,0,0,0,0,0,0,0,0,0,35565,0,0,0,0,0,0,0,0,0,0,
0,0,0,0,0,0,0,0,0,35563,0,0,0,0,0,0,0,0,0,0,0,0,0,0,0,0,0,0,0,0,0,0,0,0,0,0,0,0,0,0,0,0,0,0,0,0,0,0,0,0,0,0,0,0,0,0,0,0,0,0,0,0,0,0,0,0,0,0,0,35565,0,0,0,0,0,0,0,0,0,0,
0,0,0,0,0,0,0,0,0,35563,0,0,0,0,0,0,0,0,0,0,0,0,0,0,0,0,0,0,0,0,0,0,0,0,0,0,0,0,0,0,0,0,0,0,0,0,0,0,0,0,0,0,0,0,0,0,0,0,0,0,0,0,0,0,0,0,0,0,0,35565,0,0,0,0,0,0,0,0,0,0,
0,0,0,0,0,0,0,0,0,35563,0,0,0,0,0,0,0,0,0,0,0,0,0,0,0,0,0,0,0,0,0,0,0,0,0,0,0,0,0,0,0,0,0,0,0,0,0,0,0,0,0,0,0,0,0,0,0,0,0,0,0,0,0,0,0,0,0,0,0,35565,0,0,0,0,0,0,0,0,0,0,
0,0,0,0,0,0,0,0,0,35563,0,0,0,0,0,0,0,0,0,0,0,0,0,0,0,0,0,0,0,0,0,0,0,0,0,0,0,0,0,0,0,0,0,0,0,0,0,0,0,0,0,0,0,0,0,0,0,0,0,0,0,0,0,0,0,0,0,0,0,35565,0,0,0,0,0,0,0,0,0,0,
0,0,0,0,0,0,0,0,0,35563,0,0,0,0,0,0,0,0,0,0,0,0,0,0,0,0,0,0,0,0,0,0,0,0,0,0,0,0,0,0,0,0,0,0,0,0,0,0,0,0,0,0,0,0,0,0,0,0,0,0,0,0,0,0,0,0,0,0,0,35565,0,0,0,0,0,0,0,0,0,0,
0,0,0,0,0,0,0,0,0,35563,0,0,0,0,0,0,0,0,0,0,0,0,0,0,0,0,0,0,0,0,0,0,0,0,0,0,0,0,0,0,0,0,0,0,0,0,0,0,0,0,0,0,0,0,0,0,0,0,0,0,0,0,0,0,0,0,0,0,0,35565,0,0,0,0,0,0,0,0,0,0,
0,0,0,0,0,0,0,0,0,35563,0,0,0,0,0,0,0,0,0,0,0,0,0,0,0,0,0,0,0,0,0,0,0,0,0,0,0,0,0,0,0,0,0,0,0,0,0,0,0,0,0,0,0,0,0,0,0,0,0,0,0,0,0,0,0,0,0,0,0,35565,0,0,0,0,0,0,0,0,0,0,
0,0,0,0,0,0,0,0,0,35563,0,0,0,0,0,0,0,0,0,0,0,0,0,0,0,0,0,0,0,0,0,0,0,0,0,0,0,0,0,0,0,0,0,0,0,0,0,0,0,0,0,0,0,0,0,0,0,0,0,0,0,0,0,0,0,0,0,0,0,35565,0,0,0,0,0,0,0,0,0,0,
0,0,0,0,0,0,0,0,0,35563,0,0,0,0,0,0,0,0,0,0,0,0,0,0,0,0,0,0,0,0,0,0,0,0,0,0,0,0,0,0,0,0,0,0,0,0,0,0,0,0,0,0,0,0,0,0,0,0,0,0,0,0,0,0,0,0,0,0,0,35565,0,0,0,0,0,0,0,0,0,0,
0,0,0,0,0,0,0,0,0,35563,0,0,0,0,0,0,0,0,0,0,0,0,0,0,0,0,0,0,0,0,0,0,0,0,0,0,0,0,0,0,0,0,0,0,0,0,0,0,0,0,0,0,0,0,0,0,0,0,0,0,0,0,0,0,0,0,0,0,0,35565,0,0,0,0,0,0,0,0,0,0,
0,0,0,0,0,0,0,0,0,35563,0,0,0,0,0,0,0,0,0,0,0,0,0,0,0,0,0,0,0,0,0,0,0,0,0,0,0,0,0,0,0,0,0,0,0,0,0,0,0,0,0,0,0,0,0,0,0,0,0,0,0,0,0,0,0,0,0,0,0,35565,0,0,0,0,0,0,0,0,0,0,
0,0,0,0,0,0,0,0,0,35563,0,0,0,0,0,0,0,0,0,0,0,0,0,0,0,0,0,0,0,0,0,0,0,0,0,0,0,0,0,0,0,0,0,0,0,0,0,0,0,0,0,0,0,0,0,0,0,0,0,0,0,0,0,0,0,0,0,0,0,35565,0,0,0,0,0,0,0,0,0,0,
0,0,0,0,0,0,0,0,0,35563,0,0,0,0,0,0,0,0,0,0,0,0,0,0,0,0,0,0,0,0,0,0,0,0,0,0,0,0,0,0,0,0,0,0,0,0,0,0,0,0,0,0,0,0,0,0,0,0,0,0,0,0,0,0,0,0,0,0,0,35565,0,0,0,0,0,0,0,0,0,0,
0,0,0,0,0,0,0,0,0,35563,0,0,0,0,0,0,0,0,0,0,0,0,0,0,0,0,0,0,0,0,0,0,0,0,0,0,0,0,0,0,0,0,0,0,0,0,0,0,0,0,0,0,0,0,0,0,0,0,0,0,0,0,0,0,0,0,0,0,0,35565,0,0,0,0,0,0,0,0,0,0,
0,0,0,0,0,0,0,0,0,35563,0,0,0,0,0,0,0,0,0,0,0,0,0,0,0,0,0,0,0,0,0,0,0,0,0,0,0,0,0,0,0,0,0,0,0,0,0,0,0,0,0,0,0,0,0,0,0,0,0,0,0,0,0,0,0,0,0,0,0,35565,0,0,0,0,0,0,0,0,0,0,
0,0,0,0,0,0,0,0,0,35563,0,0,0,0,0,0,0,0,0,0,35568,0,0,0,0,0,0,0,0,0,0,0,0,0,0,0,0,0,0,0,0,0,0,0,0,0,0,0,0,0,0,0,0,0,0,0,0,0,0,0,0,0,35564,35564,35564,35564,35564,35564,35564,35565,0,0,0,0,0,0,0,0,0,0,
0,0,0,0,0,0,0,0,0,35567,35568,35568,35568,35568,35568,35568,35568,35568,35568,35568,35568,35568,35568,35568,35568,35568,35568,35568,35568,35568,35568,35568,35568,35568,35568,35568,35568,35568,35568,35568,35568,35568,35568,35568,35568,35568,35568,35568,35568,35568,35568,35568,35568,35568,35568,35568,35568,35568,35568,35568,35568,35568,35568,35568,35568,35568,35568,35568,35568,35569,0,0,0,0,0,0,0,0,0,0
</data>
 </layer>
 <layer id="21" name="3" width="80" height="60">
  <data encoding="csv">
0,0,0,0,0,0,0,0,0,0,0,0,0,0,0,0,0,0,0,0,0,0,0,0,0,0,0,0,0,0,0,0,0,0,0,0,0,0,0,0,0,0,0,0,0,0,0,0,0,0,0,0,0,0,0,0,0,0,0,0,0,0,0,0,0,0,0,0,0,0,0,0,0,0,0,0,0,0,0,0,
0,0,0,0,0,0,0,0,0,0,0,0,0,0,0,0,0,0,0,0,0,0,0,0,0,0,0,0,0,0,0,0,0,0,0,0,0,0,0,0,0,0,0,0,0,0,0,0,0,0,0,0,0,0,0,0,0,0,0,0,0,0,0,0,0,0,0,0,0,0,0,0,0,0,0,0,0,0,0,0,
0,0,0,0,0,0,0,0,0,0,0,0,0,0,0,0,0,0,0,0,0,0,0,0,0,0,0,0,0,0,0,0,0,0,0,0,0,0,0,0,0,0,0,0,0,0,0,0,0,0,0,0,0,0,0,0,0,0,0,0,0,0,0,0,0,0,0,0,0,0,0,0,0,0,0,0,0,0,0,0,
0,0,0,0,0,0,0,0,0,0,0,0,0,0,0,0,0,0,0,0,0,0,0,0,0,0,0,0,0,0,0,0,0,0,0,0,0,0,0,0,0,0,0,0,0,0,0,0,0,0,0,0,0,0,0,0,0,0,0,0,0,0,0,0,0,0,0,0,0,0,0,0,0,0,0,0,0,0,0,0,
0,0,0,0,0,0,0,0,0,0,0,0,0,0,0,0,0,0,0,0,0,0,0,0,0,0,0,0,0,0,0,0,0,0,0,0,0,0,0,0,0,0,0,0,0,0,0,0,0,0,0,0,0,0,0,0,0,0,0,0,0,0,0,0,0,0,0,0,0,0,0,0,0,0,0,0,0,0,0,0,
0,0,0,0,0,0,0,0,0,0,0,0,0,0,0,0,0,0,0,0,0,0,0,0,0,0,0,0,0,0,0,0,0,0,0,0,0,0,0,0,0,0,0,0,0,0,0,0,0,0,0,0,0,0,0,0,0,0,0,0,0,0,0,0,0,0,0,0,0,0,0,0,0,0,0,0,0,0,0,0,
0,0,0,0,0,0,0,0,0,0,0,0,0,0,0,0,0,0,0,0,0,0,0,0,0,0,0,0,0,0,0,0,0,0,0,0,0,0,0,0,0,0,0,0,0,0,0,0,0,0,0,0,0,0,0,0,0,0,0,0,0,0,0,0,0,0,0,0,0,0,0,0,0,0,0,0,0,0,0,0,
0,0,0,0,0,0,0,0,0,0,0,0,0,0,0,0,0,0,0,0,0,0,0,0,0,0,0,0,0,0,0,0,0,0,0,0,0,0,0,0,0,0,0,0,0,0,0,0,0,0,0,0,0,0,0,0,0,0,0,0,0,0,0,0,0,0,0,0,0,0,0,0,0,0,0,0,0,0,0,0,
0,0,0,0,0,0,0,0,0,0,0,0,0,0,0,0,0,0,0,0,0,0,0,0,0,0,0,0,0,0,0,0,0,0,0,0,0,0,0,0,0,0,0,0,0,0,0,0,0,0,0,0,0,0,0,0,0,0,0,0,0,0,0,0,0,0,0,0,0,0,0,0,0,0,0,0,0,0,0,0,
0,0,0,0,0,0,0,0,0,0,0,0,0,0,0,0,0,0,0,0,0,0,0,0,0,0,0,0,0,0,0,0,0,0,0,0,0,0,0,0,0,0,0,0,0,0,0,0,0,0,0,0,0,0,0,0,0,0,0,0,0,0,0,0,0,0,0,0,0,0,0,0,0,0,0,0,0,0,0,0,
0,0,0,0,0,0,0,0,0,0,0,0,0,0,0,0,0,0,0,0,0,0,0,0,0,0,0,0,0,0,0,0,0,0,0,0,0,0,0,0,0,0,0,0,0,0,0,0,0,0,0,0,0,0,0,0,0,0,0,0,0,0,0,0,0,0,0,0,0,0,0,0,0,0,0,0,0,0,0,0,
0,0,0,0,0,0,0,0,0,0,0,0,0,0,0,0,0,0,0,0,0,0,0,0,0,0,0,0,0,0,0,0,0,0,0,0,0,0,0,0,0,0,0,0,0,0,0,0,0,0,0,0,0,0,0,0,0,0,0,0,0,0,0,0,0,0,0,0,0,0,0,0,0,0,0,0,0,0,0,0,
0,0,0,0,0,0,0,0,0,0,0,0,0,0,0,0,0,0,0,0,0,0,0,0,0,0,0,0,0,0,0,0,0,0,0,0,0,0,0,0,0,0,0,0,0,0,0,0,0,0,0,0,0,0,0,0,0,0,0,0,0,0,0,0,0,0,0,0,0,0,0,0,0,0,0,0,0,0,0,0,
0,0,0,0,0,0,0,0,0,0,0,0,0,0,0,0,0,0,0,0,0,0,0,0,0,0,0,0,0,0,0,0,0,0,0,0,0,0,0,0,0,0,0,0,0,0,0,0,0,0,0,0,0,0,0,0,0,0,0,0,0,0,0,0,0,0,0,0,0,0,0,0,0,0,0,0,0,0,0,0,
0,0,0,0,0,0,0,0,0,0,0,0,0,0,0,0,0,0,0,0,0,0,0,0,0,0,0,0,0,0,0,0,0,0,0,0,0,0,0,0,0,0,0,0,0,0,0,0,0,0,0,0,0,0,0,0,0,0,0,0,0,0,0,0,0,0,0,0,0,0,0,0,0,0,0,0,0,0,0,0,
0,0,0,0,0,0,0,0,0,0,0,0,0,0,0,0,0,0,0,0,0,0,0,0,0,0,0,0,0,0,0,0,0,0,0,0,0,0,0,0,0,0,0,0,0,0,0,0,0,0,0,0,0,0,0,0,0,0,0,0,0,0,0,0,0,0,0,0,0,0,0,0,0,0,0,0,0,0,0,0,
0,0,0,0,0,0,0,0,0,0,0,0,0,0,0,0,0,0,0,0,0,0,0,0,0,0,0,0,0,0,0,0,0,0,0,0,0,0,0,0,0,0,0,0,0,0,0,0,0,0,0,0,0,0,0,0,0,0,0,0,0,0,0,0,0,0,0,0,0,0,0,0,0,0,0,0,0,0,0,0,
0,0,0,0,0,0,0,0,0,0,0,0,0,0,0,0,0,0,0,0,0,0,0,0,0,0,0,0,0,0,0,0,0,0,0,0,0,0,0,0,0,0,0,0,0,0,0,0,0,0,0,0,0,0,0,0,0,0,0,0,0,0,0,0,0,0,0,0,0,0,0,0,0,0,0,0,0,0,0,0,
0,0,0,0,0,0,0,0,0,0,0,0,0,0,0,0,0,0,0,0,0,0,0,0,0,0,0,0,0,0,0,0,0,0,0,0,0,0,0,0,0,0,0,0,0,0,0,0,0,0,0,0,0,0,0,0,0,0,0,0,0,0,0,0,0,0,0,0,0,0,0,0,0,0,0,0,0,0,0,0,
0,0,0,0,0,0,0,0,0,0,0,0,0,0,0,0,0,0,0,0,0,0,0,0,0,0,0,0,0,0,0,0,0,0,0,0,0,0,0,0,0,0,0,0,0,0,0,0,0,0,0,0,0,0,0,0,0,0,0,0,0,0,0,0,0,0,0,0,0,0,0,0,0,0,0,0,0,0,0,0,
0,0,0,0,0,0,0,0,0,0,0,0,0,0,0,0,0,0,0,0,0,0,0,0,0,0,0,0,0,0,0,0,0,0,0,0,0,0,0,0,0,0,0,0,0,0,0,0,0,0,0,0,0,0,0,0,0,0,0,0,0,0,0,0,0,0,0,0,0,0,0,0,0,0,0,0,0,0,0,0,
0,0,0,0,0,0,0,0,0,0,0,0,0,0,0,0,0,0,0,0,0,0,0,0,0,0,0,0,0,0,0,0,0,0,0,0,0,0,0,0,0,0,0,0,0,0,0,0,0,0,0,0,0,0,0,0,0,0,0,0,0,0,0,0,0,0,0,0,0,0,0,0,0,0,0,0,0,0,0,0,
0,0,0,0,0,0,0,0,0,0,0,0,0,0,0,0,0,0,0,0,0,0,0,0,0,0,0,0,0,0,0,0,0,0,0,0,0,0,0,0,0,0,0,0,0,0,0,0,0,0,0,0,0,0,0,0,0,0,0,0,0,0,0,0,0,0,0,0,0,0,0,0,0,0,0,0,0,0,0,0,
0,0,0,0,0,0,0,0,0,0,0,0,0,0,0,0,0,0,0,0,0,0,0,0,0,0,0,0,0,0,0,0,0,0,0,0,0,0,0,0,0,0,0,0,0,0,0,0,0,0,0,0,0,0,0,0,0,0,0,0,0,0,0,0,0,0,0,0,0,0,0,0,0,0,0,0,0,0,0,0,
0,0,0,0,0,0,0,0,0,0,0,0,0,0,0,0,0,0,0,0,0,0,0,0,0,0,0,0,0,0,0,0,0,0,0,0,0,0,0,0,0,0,0,0,0,0,0,0,0,0,0,0,0,0,0,0,0,0,0,0,0,0,0,0,0,0,0,0,0,0,0,0,0,0,0,0,0,0,0,0,
0,0,0,0,0,0,0,0,0,0,0,0,0,0,0,0,0,0,0,0,0,0,0,0,0,0,0,0,0,0,0,0,0,0,0,0,0,0,0,0,0,0,0,0,0,0,0,0,0,0,0,0,0,0,0,0,0,0,0,0,0,0,0,0,0,0,0,0,0,0,0,0,0,0,0,0,0,0,0,0,
0,0,0,0,0,0,0,0,0,0,0,0,0,0,0,0,0,0,0,0,0,0,0,0,0,0,0,0,0,0,0,0,0,0,0,0,0,0,0,0,0,0,0,0,0,0,0,0,0,0,0,0,0,0,0,0,0,0,0,0,0,0,0,0,0,0,0,0,0,0,0,0,0,0,0,0,0,0,0,0,
0,0,0,0,0,0,0,0,0,0,0,0,0,0,0,0,0,0,0,0,0,0,0,0,0,0,0,0,0,0,0,0,0,0,0,0,0,0,0,0,0,0,0,0,0,0,0,0,0,0,0,0,0,0,0,0,0,0,0,0,0,0,0,0,0,0,0,0,0,0,0,0,0,0,0,0,0,0,0,0,
0,0,0,0,0,0,0,0,0,0,0,0,0,0,0,0,0,0,0,0,0,0,0,0,0,0,0,0,0,0,0,0,0,0,0,0,0,0,0,0,0,0,0,0,0,0,0,0,0,0,0,0,0,0,0,0,0,0,0,0,0,0,0,0,0,0,0,0,0,0,0,0,0,0,0,0,0,0,0,0,
0,0,0,0,0,0,0,0,0,0,0,0,0,0,0,0,0,0,0,0,0,0,0,0,0,0,0,0,0,0,0,0,0,0,0,0,0,0,0,0,0,0,0,0,0,0,0,0,0,0,0,0,0,0,0,0,0,0,0,0,0,0,0,0,0,0,0,0,0,0,0,0,0,0,0,0,0,0,0,0,
0,0,0,0,0,0,0,0,0,0,0,0,0,0,0,0,0,0,0,0,0,0,0,0,0,0,0,0,0,0,0,0,0,0,0,0,0,0,0,0,0,0,0,0,0,0,0,0,0,0,0,0,0,0,0,0,0,0,0,0,0,0,0,0,0,0,0,0,0,0,0,0,0,0,0,0,0,0,0,0,
0,0,0,0,0,0,0,0,0,0,0,0,0,0,0,0,0,0,0,0,0,0,0,0,0,0,0,0,0,0,0,0,0,0,0,0,0,0,0,0,0,0,0,0,0,0,0,0,0,0,0,0,0,0,0,0,0,0,0,0,0,0,0,0,0,0,0,0,0,0,0,0,0,0,0,0,0,0,0,0,
0,0,0,0,0,0,0,0,0,0,0,0,0,0,0,0,0,0,0,0,0,0,0,0,0,0,0,0,0,0,0,0,0,0,0,0,0,0,0,0,0,0,0,0,0,0,0,0,0,0,0,0,0,0,0,0,0,0,0,0,0,0,0,0,0,0,0,0,0,0,0,0,0,0,0,0,0,0,0,0,
0,0,0,0,0,0,0,0,0,0,0,0,0,0,0,0,0,0,0,0,0,0,0,0,0,0,0,0,0,0,0,0,0,0,0,0,0,0,0,0,0,0,0,0,0,0,0,0,0,0,0,0,0,0,0,0,0,0,0,0,0,0,0,0,0,0,0,0,0,0,0,0,0,0,0,0,0,0,0,0,
0,0,0,0,0,0,0,0,0,0,0,0,0,0,0,0,0,0,0,0,0,0,0,0,0,0,0,0,0,0,0,0,0,0,0,0,0,0,0,0,0,0,0,0,0,0,0,0,0,0,0,0,0,0,0,0,0,0,0,0,0,0,0,0,0,0,0,0,0,0,0,0,0,0,0,0,0,0,0,0,
0,0,0,0,0,0,0,0,0,0,0,0,0,0,0,0,0,0,0,0,0,0,0,0,0,0,0,0,0,0,0,0,0,0,0,0,0,0,0,0,0,0,0,0,0,0,0,0,0,0,0,0,0,0,0,0,0,0,0,0,0,0,0,0,0,0,0,0,0,0,0,0,0,0,0,0,0,0,0,0,
0,0,0,0,0,0,0,0,0,0,0,0,0,0,0,0,0,0,0,0,0,0,0,0,0,0,0,0,0,0,0,0,0,0,0,0,0,0,0,0,0,0,0,0,0,0,0,0,0,0,0,0,0,0,0,0,0,0,0,0,0,0,0,0,0,0,0,0,0,0,0,0,0,0,0,0,0,0,0,0,
0,0,0,0,0,0,0,0,0,0,0,0,0,0,0,0,0,0,0,0,0,0,0,0,0,0,0,0,0,0,0,0,0,0,0,0,0,0,0,0,0,0,0,0,0,0,0,0,0,0,0,0,0,0,0,0,0,0,0,0,0,0,0,0,0,0,0,0,0,0,0,0,0,0,0,0,0,0,0,0,
0,0,0,0,0,0,0,0,0,0,0,0,0,0,0,0,0,0,0,0,0,0,0,0,0,0,0,0,0,0,0,0,0,0,0,0,0,0,0,0,0,0,0,0,0,0,0,0,0,0,0,0,0,0,0,0,0,0,0,0,0,0,0,0,0,0,0,0,0,0,0,0,0,0,0,0,0,0,0,0,
0,0,0,0,0,0,0,0,0,0,0,0,0,0,0,0,0,0,0,0,0,0,0,0,0,0,0,0,0,0,0,0,0,0,0,0,0,0,0,0,0,0,0,0,0,0,0,0,0,0,0,0,0,0,0,0,0,0,0,0,0,0,0,0,0,0,0,0,0,0,0,0,0,0,0,0,0,0,0,0,
0,0,0,0,0,0,0,0,0,0,0,0,0,0,0,0,0,0,0,0,0,0,0,0,0,0,0,0,0,0,0,0,0,0,0,0,0,0,0,0,0,0,0,0,0,0,0,0,0,0,0,0,0,0,0,0,0,0,0,0,0,0,0,0,0,0,0,0,0,0,0,0,0,0,0,0,0,0,0,0,
0,0,0,0,0,0,0,0,0,0,0,0,0,0,0,0,0,0,0,0,0,0,0,0,0,0,0,0,0,0,0,0,0,0,0,0,0,0,0,0,0,0,0,0,0,0,0,0,0,0,0,0,0,0,0,0,0,0,0,0,0,0,0,0,0,0,0,0,0,0,0,0,0,0,0,0,0,0,0,0,
0,0,0,0,0,0,0,0,0,0,0,0,0,0,0,0,0,0,0,0,0,0,0,0,0,0,0,0,0,0,0,0,0,0,0,0,0,0,0,0,0,0,0,0,0,0,0,0,0,0,0,0,0,0,0,0,0,0,0,0,0,0,0,0,0,0,0,0,0,0,0,0,0,0,0,0,0,0,0,0,
0,0,0,0,0,0,0,0,0,0,0,0,0,0,0,0,0,0,0,0,0,0,0,0,0,0,0,0,0,0,0,0,0,0,0,0,0,0,0,0,0,0,0,0,0,0,0,0,0,0,0,0,0,0,0,0,0,0,0,0,0,0,0,0,0,0,0,0,0,0,0,0,0,0,0,0,0,0,0,0,
0,0,0,0,0,0,0,0,0,0,0,0,0,0,0,0,0,0,0,0,0,0,0,0,0,0,0,0,0,0,0,0,0,0,0,0,0,0,0,0,0,0,0,0,0,0,0,0,0,0,0,0,0,0,0,0,0,0,0,0,0,0,0,0,0,0,0,0,0,0,0,0,0,0,0,0,0,0,0,0,
0,0,0,0,0,0,0,0,0,0,0,0,0,0,0,0,0,0,0,0,0,0,0,0,0,0,0,0,0,0,0,0,0,0,0,0,0,0,0,0,0,0,0,0,0,0,0,0,0,0,0,0,0,0,0,0,0,0,0,0,0,0,0,0,0,0,0,0,0,0,0,0,0,0,0,0,0,0,0,0,
0,0,0,0,0,0,0,0,0,0,0,0,0,0,0,0,0,0,0,0,0,0,0,0,0,0,0,0,0,0,0,0,0,0,0,0,0,0,0,0,0,0,0,0,0,0,0,0,0,0,0,0,0,0,0,0,0,0,0,0,0,0,0,0,0,0,0,0,0,0,0,0,0,0,0,0,0,0,0,0,
0,0,0,0,0,0,0,0,0,0,0,0,0,0,0,0,0,0,0,0,0,0,0,0,0,0,0,0,0,0,0,0,0,0,0,0,0,0,0,0,0,0,0,0,0,0,0,0,0,0,0,0,0,0,0,0,0,0,0,0,0,0,0,0,0,0,0,0,0,0,0,0,0,0,0,0,0,0,0,0,
0,0,0,0,0,0,0,0,0,0,0,0,0,0,0,0,0,0,0,0,0,0,0,0,0,0,0,0,0,0,0,0,0,0,0,0,0,0,0,0,0,0,0,0,0,0,0,0,0,0,0,0,0,0,0,0,0,0,0,0,0,0,0,0,0,0,0,0,0,0,0,0,0,0,0,0,0,0,0,0,
0,0,0,0,0,0,0,0,0,0,0,0,0,0,0,0,0,0,0,0,0,0,0,0,0,0,0,0,0,0,0,0,0,0,0,0,0,0,0,0,0,0,0,0,0,0,0,0,0,0,0,0,0,0,0,0,0,0,0,0,0,0,0,0,0,0,0,0,0,0,0,0,0,0,0,0,0,0,0,0,
0,0,0,0,0,0,0,0,0,0,0,0,0,0,0,0,0,0,0,0,0,0,0,0,0,0,0,0,0,0,0,0,0,0,0,0,0,0,0,0,0,0,0,0,0,0,0,0,0,0,0,0,0,0,0,0,0,0,0,0,0,0,0,0,0,0,0,0,0,0,0,0,0,0,0,0,0,0,0,0,
0,0,0,0,0,0,0,0,0,0,0,0,0,0,0,0,0,0,0,0,0,0,0,0,0,0,0,0,0,0,0,0,0,0,0,0,0,0,0,0,0,0,0,0,0,0,0,0,0,0,0,0,0,0,0,0,0,0,0,0,0,0,0,0,0,0,0,0,0,0,0,0,0,0,0,0,0,0,0,0,
0,0,0,0,0,0,0,0,0,0,0,0,0,0,0,0,0,0,0,0,0,0,0,0,0,0,0,0,0,0,0,0,0,0,0,0,0,0,0,0,0,0,0,0,0,0,0,0,0,0,0,0,0,0,0,0,0,0,0,0,0,0,0,0,0,0,0,0,0,0,0,0,0,0,0,0,0,0,0,0,
0,0,0,0,0,0,0,0,0,0,0,0,0,0,0,0,0,0,0,0,0,0,0,0,0,0,0,0,0,0,0,0,0,0,0,0,0,0,0,0,0,0,0,0,0,0,0,0,0,0,0,0,0,0,0,0,0,0,0,0,0,0,0,0,0,0,0,0,0,0,0,0,0,0,0,0,0,0,0,0,
0,0,0,0,0,0,0,0,0,0,0,0,0,0,0,0,0,0,0,0,0,0,0,0,0,0,0,0,0,0,0,0,0,0,0,0,0,0,0,0,0,0,0,0,0,0,0,0,0,0,0,0,0,0,0,0,0,0,0,0,0,0,0,0,0,0,0,0,0,0,0,0,0,0,0,0,0,0,0,0,
0,0,0,0,0,0,0,0,0,0,0,0,0,0,0,0,0,0,0,0,0,0,0,0,0,0,0,0,0,0,0,0,0,0,0,0,0,0,0,0,0,0,0,0,0,0,0,0,0,0,0,0,0,0,0,0,0,0,0,0,0,0,0,0,0,0,0,0,0,0,0,0,0,0,0,0,0,0,0,0,
0,0,0,0,0,0,0,0,0,0,0,0,0,0,0,0,0,0,0,0,0,0,0,0,0,0,0,0,0,0,0,0,0,0,0,0,0,0,0,0,0,0,0,0,0,0,0,0,0,0,0,0,0,0,0,0,0,0,0,0,0,0,0,0,0,0,0,0,0,0,0,0,0,0,0,0,0,0,0,0,
0,0,0,0,0,0,0,0,0,0,0,0,0,0,0,0,0,0,0,0,0,0,0,0,0,0,0,0,0,0,0,0,0,0,0,0,0,0,0,0,0,0,0,0,0,0,0,0,0,0,0,0,0,0,0,0,0,0,0,0,0,0,0,0,0,0,0,0,0,0,0,0,0,0,0,0,0,0,0,0,
0,0,0,0,0,0,0,0,0,0,0,0,0,0,0,0,0,0,0,0,0,0,0,0,0,0,0,0,0,0,0,0,0,0,0,0,0,0,0,0,0,0,0,0,0,0,0,0,0,0,0,0,0,0,0,0,0,0,0,0,0,0,0,0,0,0,0,0,0,0,0,0,0,0,0,0,0,0,0,0,
0,0,0,0,0,0,0,0,0,0,0,0,0,0,0,0,0,0,0,0,0,0,0,0,0,0,0,0,0,0,0,0,0,0,0,0,0,0,0,0,0,0,0,0,0,0,0,0,0,0,0,0,0,0,0,0,0,0,0,0,0,0,0,0,0,0,0,0,0,0,0,0,0,0,0,0,0,0,0,0
</data>
 </layer>
 <objectgroup id="6" name="Entities" offsetx="6" offsety="454">
  <object id="1" name="spawn_street" type="PlayerSpawn" x="1216" y="768" width="32" height="32">
   <properties>
    <property name="spawnId" value="Entities"/>
   </properties>
  </object>
  <object id="2" name="npc.reporter" type="NPC" x="1024" y="704" width="32" height="32">
   <properties>
    <property name="characterId" value="npc.reporter"/>
    <property name="name" value="Court Reporter"/>
    <property name="sprite" value="npc.reporter"/>
    <property name="storyKnot" value="reporter_intro"/>
   </properties>
  </object>
  <object id="3" name="npc.tourist" type="NPC" x="1472" y="640" width="32" height="32">
   <properties>
    <property name="characterId" value="npc.tourist"/>
    <property name="name" value="Excited Tourist"/>
    <property name="sprite" value="npc.tourist"/>
    <property name="storyKnot" value="tourist_intro"/>
   </properties>
  </object>
  <object id="4" name="lamp_left" type="Prop" x="928" y="736" width="32" height="32">
   <properties>
    <property name="sprite" value="lamp_post"/>
   </properties>
  </object>
  <object id="5" name="lamp_right" type="Prop" x="1536" y="736" width="32" height="32">
   <properties>
    <property name="sprite" value="lamp_post"/>
   </properties>
  </object>
  <object id="6" name="tree_left" type="Prop" x="896" y="608" width="32" height="32">
   <properties>
    <property name="collision" type="bool" value="false"/>
    <property name="sprite" value="prop.lpc_tree_11"/>
   </properties>
  </object>
  <object id="7" name="tree_left_mid" type="Prop" x="1024" y="576" width="32" height="32">
   <properties>
    <property name="collision" type="bool" value="false"/>
    <property name="sprite" value="prop.lpc_tree_05"/>
   </properties>
  </object>
  <object id="8" name="tree_right_mid" type="Prop" x="1440" y="576" width="32" height="32">
   <properties>
    <property name="collision" type="bool" value="false"/>
    <property name="sprite" value="prop.lpc_tree_07"/>
   </properties>
  </object>
  <object id="9" name="tree_right" type="Prop" x="1568" y="608" width="32" height="32">
   <properties>
    <property name="collision" type="bool" value="false"/>
    <property name="sprite" value="prop.lpc_tree_13"/>
   </properties>
  </object>
  <object id="10" name="bench_left" type="Prop" x="960" y="768" width="32" height="32">
   <properties>
    <property name="sprite" value="bench"/>
   </properties>
  </object>
  <object id="11" name="bench_right" type="Prop" x="1504" y="768" width="32" height="32">
   <properties>
    <property name="sprite" value="bench"/>
   </properties>
  </object>
  <object id="13" name="door_lobby" type="Door" x="1195" y="280" width="72" height="50">
   <properties>
    <property name="targetLevel" value="scotus_lobby"/>
    <property name="toMap" value="scotus_lobby"/>
    <property name="toSpawn" value="default"/>
   </properties>
  </object>
  <object id="14" name="door_library_side" type="Door" x="928" y="480" width="32" height="32">
   <properties>
    <property name="targetLevel" value="library"/>
    <property name="toMap" value="library"/>
    <property name="toSpawn" value="default"/>
   </properties>
  </object>
  <object id="15" name="door_records_side" type="Door" x="1536" y="480" width="32" height="32">
   <properties>
    <property name="targetLevel" value="records_vault"/>
    <property name="toMap" value="records_vault"/>
    <property name="toSpawn" value="default"/>
   </properties>
  </object>
  <object id="17" name="prop_lpc_tree_11__trees__2" type="Prop" x="896" y="608" width="32" height="32">
   <properties>
    <property name="collision" type="bool" value="false"/>
    <property name="propId" value="prop.lpc_tree_11"/>
    <property name="sprite" value="prop.lpc_tree_11"/>
   </properties>
  </object>
  <object id="18" name="prop_lpc_tree_05__trees__3" type="Prop" x="1024" y="576" width="32" height="32">
   <properties>
    <property name="collision" type="bool" value="false"/>
    <property name="propId" value="prop.lpc_tree_05"/>
    <property name="sprite" value="prop.lpc_tree_05"/>
   </properties>
  </object>
  <object id="19" name="prop_lpc_tree_07__trees__4" type="Prop" x="1440" y="576" width="32" height="32" visible="0">
   <properties>
    <property name="collision" type="bool" value="false"/>
    <property name="propId" value="prop.lpc_tree_07"/>
    <property name="sprite" value="prop.lpc_tree_07"/>
   </properties>
  </object>
  <object id="20" name="prop_lpc_tree_13__trees__5" type="Prop" x="1568" y="608" width="32" height="32">
   <properties>
    <property name="collision" type="bool" value="false"/>
    <property name="propId" value="prop.lpc_tree_13"/>
    <property name="sprite" value="prop.lpc_tree_13"/>
   </properties>
  </object>
  <object id="24" x="658" y="62" width="1342" height="852"/>
 </objectgroup>
</map>
