<?xml version="1.0" encoding="UTF-8"?>
<map version="1.10" tiledversion="1.11.2" orientation="orthogonal" renderorder="right-down" width="30" height="20" tilewidth="32" tileheight="32" infinite="0" nextlayerid="7" nextobjectid="11">
 <tileset firstgid="1" source="../tilesets/scotus_floors.tsx"/>
 <tileset firstgid="33" source="../tilesets/scotus_structures.tsx"/>
 <tileset firstgid="81" source="../tilesets/scotus_decor.tsx"/>
 <tileset firstgid="97" source="../tilesets/collision.tsx"/>
 <layer id="1" name="Floor" width="30" height="20">
  <data encoding="csv">
1610612754,17,17,17,17,17,17,17,17,17,17,17,17,17,17,17,17,17,17,17,17,17,17,17,17,17,17,17,17,18,
1610612753,13,13,7,8,9,10,11,12,13,14,15,16,16,8,5,13,2,11,11,10,11,8,5,11,9,2,2,8,2684354577,
1610612753,5,13,13,8,9,10,11,12,13,14,15,16,13,10,13,12,10,5,1,15,10,3,16,1,5,8,16,1,2684354577,
1610612753,13,13,13,4,8,13,13,13,13,13,13,13,56,56,56,56,13,3,3,12,10,11,14,14,16,10,3,16,2684354577,
1610612753,13,2,10,12,13,4,1,12,3,1,5,12,9,14,12,4,12,1,16,10,11,8,10,1,8,15,14,2,2684354577,
1610612753,10,10,5,2,11,10,5,15,15,4,10,2,11,4,2,4,9,4,12,1,1,8,13,1,12,14,13,3,2684354577,
1610612753,16,9,9,16,16,12,3,3,15,5,11,5,11,11,8,2,3,3,11,8,16,5,4,2,10,3,1,12,2684354577,
1610612753,12,14,2,1,9,14,13,16,9,3,14,3,4,13,11,13,1,1,16,14,2,1,5,5,5,16,8,16,2684354577,
1610612753,15,5,11,13,16,8,13,3,2,8,13,12,10,1,11,11,4,5,15,9,2,10,15,3,12,13,11,13,2684354577,
1610612753,12,8,16,9,10,1,2,8,8,15,4,12,14,13,16,5,9,12,8,14,15,12,4,15,2,16,1,16,2684354577,
1610612753,9,8,3,4,11,4,12,10,14,5,13,2,12,2,2,2,4,1,11,4,14,13,3,16,14,11,1,16,2684354577,
1610612753,3,10,12,16,12,11,5,13,1,10,16,11,2,3,10,14,9,13,3,15,13,12,2,10,1,1,1,4,2684354577,
1610612753,3,3,9,10,13,12,16,2,16,13,10,16,4,9,9,9,9,12,14,10,9,14,11,3,1,3,14,12,2684354577,
1610612753,5,4,8,16,9,5,13,15,10,9,16,13,4,13,2,16,11,16,13,14,1,1,1,13,1,9,16,1,2684354577,
1610612753,2,4,14,12,3,11,9,11,12,5,16,16,1,16,12,12,4,3,9,10,3,1,1,14,13,3,1,9,2684354577,
1610612753,16,3,16,9,3,16,5,8,13,13,4,15,9,8,11,13,13,3,8,8,11,3,16,3,12,8,14,15,2684354577,
1610612753,16,14,8,9,13,11,5,2,14,9,3,11,11,4,3,12,8,12,10,1,1,1,11,9,11,3,15,11,2684354577,
1610612753,13,16,1,2,15,1,14,16,11,9,8,3,13,2,5,4,5,8,9,14,8,13,12,11,13,4,4,14,2684354577,
1610612753,8,9,12,8,16,9,11,14,14,5,12,3,5,3,12,3,4,16,13,8,5,10,9,14,9,12,9,8,2684354577,
3221225490,3221225489,3221225489,3221225489,3221225489,3221225489,3221225489,3221225489,3221225489,3221225489,3221225489,3221225489,3221225489,3221225489,3221225489,3221225489,3221225489,3221225489,3221225489,3221225489,3221225489,3221225489,3221225489,3221225489,3221225489,3221225489,3221225489,3221225489,3221225489,2684354578
</data>
 </layer>
 <layer id="2" name="Walls" width="30" height="20">
  <data encoding="csv">
0,0,0,0,0,0,0,0,0,0,0,0,0,0,0,0,0,0,0,0,0,0,0,0,0,0,0,0,0,0,
0,0,0,0,0,0,0,0,0,0,0,1610612794,56,56,56,56,56,58,0,0,0,0,0,0,0,0,0,0,0,0,
0,0,0,0,0,0,0,0,0,0,0,2684354616,0,0,0,0,0,2684354616,0,0,0,0,0,0,0,0,0,0,0,0,
0,0,0,0,0,0,0,0,0,0,0,3221225530,56,0,0,0,0,2684354618,0,0,0,0,0,0,0,0,0,0,0,0,
0,0,0,0,0,0,0,0,0,0,0,0,0,0,0,0,0,0,0,0,0,0,0,0,0,0,0,0,0,0,
0,0,0,0,0,0,0,0,0,0,0,0,0,0,0,0,0,0,0,0,0,0,0,0,0,0,0,0,0,0,
0,0,0,0,0,0,0,0,0,0,0,0,0,0,0,0,0,0,0,0,0,0,0,0,0,0,0,0,0,0,
0,0,0,0,0,0,0,0,0,0,0,0,0,0,0,0,0,0,0,0,0,0,0,0,0,0,0,0,0,0,
0,0,0,0,0,0,0,0,0,0,0,0,0,0,0,0,0,0,0,0,0,0,0,0,0,0,0,0,0,0,
0,0,0,0,0,0,0,0,0,0,0,0,0,0,0,0,0,0,0,0,0,0,0,0,0,0,0,0,0,0,
0,0,0,0,0,0,0,0,0,0,0,0,0,0,0,0,0,0,0,0,0,0,0,0,0,0,0,0,0,0,
0,0,0,0,0,0,0,0,0,0,0,0,0,0,0,0,0,0,0,0,0,0,0,0,0,0,0,0,0,0,
0,0,0,0,0,0,0,0,0,0,0,0,0,0,0,0,0,0,0,0,0,0,0,0,0,0,0,0,0,0,
0,0,0,0,0,0,0,0,0,0,0,0,0,0,0,0,0,0,0,0,0,0,0,0,0,0,0,0,0,0,
0,0,0,0,0,0,0,0,0,0,0,0,0,0,0,0,0,0,0,0,0,0,0,0,0,0,0,0,0,0,
0,0,0,0,0,0,0,0,0,0,0,0,0,0,0,0,0,0,0,0,0,0,0,0,0,0,0,0,0,0,
0,0,0,0,0,0,0,0,0,0,0,0,0,0,0,0,0,0,0,0,0,0,0,0,0,0,0,0,0,0,
0,0,0,0,0,0,0,0,0,0,0,0,0,0,0,0,0,0,0,0,0,0,0,0,0,0,0,0,0,0,
0,0,0,0,0,0,0,0,0,0,0,0,0,0,0,0,0,0,0,0,0,0,0,0,0,0,0,0,0,0,
0,0,0,0,0,0,0,0,0,0,0,0,0,0,0,0,0,0,0,0,0,0,0,0,0,0,0,0,0,0
</data>
 </layer>
 <layer id="3" name="Trim" width="30" height="20">
  <data encoding="csv">
0,0,0,0,0,0,0,0,0,0,0,0,0,0,0,0,0,0,0,0,0,0,0,0,0,0,0,0,0,0,
0,0,0,0,0,0,0,0,0,0,0,0,0,0,0,0,0,0,0,0,0,0,0,0,0,0,0,0,0,0,
0,0,0,0,0,0,0,0,0,0,0,0,0,0,0,0,0,0,0,0,0,0,0,0,0,0,0,0,0,0,
0,0,0,0,0,0,0,0,0,0,0,0,0,0,0,0,0,0,0,0,0,0,0,0,0,0,0,0,0,0,
0,0,0,0,0,0,0,0,0,0,0,0,0,0,0,0,0,0,0,0,0,0,0,0,0,0,0,0,0,0,
0,0,0,0,0,0,0,0,0,0,0,0,0,0,0,0,0,0,0,0,0,0,0,0,0,0,0,0,0,0,
0,0,0,0,0,0,0,0,0,0,0,0,0,0,0,0,0,0,0,0,0,0,0,0,0,0,0,0,0,0,
0,0,0,0,0,0,0,0,0,0,0,0,0,0,0,0,0,0,0,0,0,0,0,0,0,0,0,0,0,0,
0,0,0,0,0,0,0,0,0,0,0,0,0,0,0,0,0,0,0,0,0,0,0,0,0,0,0,0,0,0,
0,0,0,0,0,0,0,0,0,0,0,0,0,0,0,0,0,0,0,0,0,0,0,0,0,0,0,0,0,0,
0,0,0,0,0,0,0,0,0,0,0,0,0,0,0,0,0,0,0,0,0,0,0,0,0,0,0,0,0,0,
0,0,0,0,0,0,0,0,0,0,0,0,0,0,0,0,0,0,0,0,0,0,0,0,0,0,0,0,0,0,
0,0,0,0,0,0,0,0,0,0,0,0,0,0,0,0,0,0,0,0,0,0,0,0,0,0,0,0,0,0,
0,0,0,0,0,0,0,0,0,0,0,0,0,0,0,0,0,0,0,0,0,0,0,0,0,0,0,0,0,0,
0,0,0,0,0,0,0,0,0,0,0,0,0,0,0,0,0,0,0,0,0,0,0,0,0,0,0,0,0,0,
0,0,0,0,0,0,0,0,0,0,0,0,0,0,0,0,0,0,0,0,0,0,0,0,0,0,0,0,0,0,
0,0,0,0,0,0,0,0,0,0,0,0,0,0,0,0,0,0,0,0,0,0,0,0,0,0,0,0,0,0,
0,0,0,0,0,0,0,0,0,0,0,0,0,0,0,0,0,0,0,0,0,0,0,0,0,0,0,0,0,0,
0,0,0,0,0,0,0,0,0,0,0,0,0,0,0,0,0,0,0,0,0,0,0,0,0,0,0,0,0,0,
0,0,0,0,0,0,0,0,0,0,0,0,0,0,0,0,0,0,0,0,0,0,0,0,0,0,0,0,0,0
</data>
 </layer>
 <layer id="4" name="Overlays" width="30" height="20">
  <data encoding="csv">
0,0,0,0,0,0,0,0,0,0,0,0,0,0,0,0,0,0,0,0,0,0,0,0,0,0,0,0,0,0,
0,0,0,0,0,0,0,0,0,0,0,0,0,0,0,0,0,0,0,0,0,0,0,0,0,0,0,0,0,0,
0,0,0,0,0,0,0,0,0,0,0,0,0,0,0,0,0,0,0,0,0,0,0,0,0,0,0,0,0,0,
0,0,0,0,0,0,0,0,0,0,0,0,0,0,0,0,0,0,0,0,0,0,0,0,0,0,0,0,0,0,
0,0,0,0,0,0,0,0,0,0,0,0,0,0,0,0,0,0,0,0,0,0,0,0,0,0,0,0,0,0,
0,0,0,0,0,0,0,0,0,0,0,0,0,0,0,0,0,0,0,0,0,0,0,0,0,0,0,0,0,0,
0,0,0,0,0,0,0,0,0,0,0,0,0,0,0,0,0,0,0,0,0,0,0,0,0,0,0,0,0,0,
0,0,0,0,0,0,0,0,0,0,0,0,0,0,0,0,0,0,0,0,0,0,0,0,0,0,0,0,0,0,
0,0,0,0,0,0,0,0,0,0,0,0,0,0,0,0,0,0,0,0,0,0,0,0,0,0,0,0,0,0,
0,0,0,0,0,0,0,0,0,0,0,0,0,0,0,0,0,0,0,0,0,0,0,0,0,0,0,0,0,0,
0,0,0,0,0,0,0,0,0,0,0,0,0,0,0,0,0,0,0,0,0,0,0,0,0,0,0,0,0,0,
0,0,0,0,0,0,0,0,0,0,0,0,0,0,0,0,0,0,0,0,0,0,0,0,0,0,0,0,0,0,
0,0,0,0,0,0,0,0,0,0,0,0,0,0,0,0,0,0,0,0,0,0,0,0,0,0,0,0,0,0,
0,0,0,0,0,0,0,0,0,0,0,0,0,0,0,0,0,0,0,0,0,0,0,0,0,0,0,0,0,0,
0,0,0,0,0,0,0,0,0,0,0,0,0,0,0,0,0,0,0,0,0,0,0,0,0,0,0,0,0,0,
0,0,0,0,0,0,0,0,0,0,0,0,0,0,0,0,0,0,0,0,0,0,0,0,0,0,0,0,0,0,
0,0,0,0,0,0,0,0,0,0,0,0,0,0,0,0,0,0,0,0,0,0,0,0,0,0,0,0,0,0,
0,0,0,0,0,0,0,0,0,0,0,0,0,0,0,0,0,0,0,0,0,0,0,0,0,0,0,0,0,0,
0,0,0,0,0,0,0,0,0,0,0,0,0,0,0,0,0,0,0,0,0,0,0,0,0,0,0,0,0,0,
0,0,0,0,0,0,0,0,0,0,0,0,0,0,0,0,0,0,0,0,0,0,0,0,0,0,0,0,0,0
</data>
 </layer>
 <layer id="5" name="Collision" width="30" height="20">
  <data encoding="csv">
0,0,0,0,0,0,0,0,0,0,0,0,0,0,0,0,0,0,0,0,0,0,0,0,0,0,0,0,0,0,
0,0,0,0,0,0,0,0,0,0,0,0,0,0,0,0,0,0,0,0,0,0,0,0,0,0,0,0,0,0,
0,0,0,0,0,0,0,0,0,0,0,0,0,0,0,0,0,0,0,0,0,0,0,0,0,0,0,0,0,0,
0,0,0,0,0,0,0,0,0,0,0,0,0,0,0,0,0,0,0,0,0,0,0,0,0,0,0,0,0,0,
0,0,0,0,0,0,0,0,0,0,0,0,0,0,0,0,0,0,0,0,0,0,0,0,0,0,0,0,0,0,
0,0,0,0,0,0,0,0,0,0,0,0,0,0,0,0,0,0,0,0,0,0,0,0,0,0,0,0,0,0,
0,0,0,0,0,0,0,0,0,0,0,0,0,0,0,0,0,0,0,0,0,0,0,0,0,0,0,0,0,0,
0,0,0,0,0,0,0,0,0,0,0,0,0,0,0,0,0,0,0,0,0,0,0,0,0,0,0,0,0,0,
0,0,0,0,0,0,0,0,0,0,0,0,0,0,0,0,0,0,0,0,0,0,0,0,0,0,0,0,0,0,
0,0,0,0,0,0,0,0,0,0,0,0,0,0,0,0,0,0,0,0,0,0,0,0,0,0,0,0,0,0,
0,0,0,0,0,0,0,0,0,0,0,0,0,0,0,0,0,0,0,0,0,0,0,0,0,0,0,0,0,0,
0,0,0,0,0,0,0,0,0,0,0,0,0,0,0,0,0,0,0,0,0,0,0,0,0,0,0,0,0,0,
0,0,0,0,0,0,0,0,0,0,0,0,0,0,0,0,0,0,0,0,0,0,0,0,0,0,0,0,0,0,
0,0,0,0,0,0,0,0,0,0,0,0,0,0,0,0,0,0,0,0,0,0,0,0,0,0,0,0,0,0,
0,0,0,0,0,0,0,0,0,0,0,0,0,0,0,0,0,0,0,0,0,0,0,0,0,0,0,0,0,0,
0,0,0,0,0,0,0,0,0,0,0,0,0,0,0,0,0,0,0,0,0,0,0,0,0,0,0,0,0,0,
0,0,0,0,0,0,0,0,0,0,0,0,0,0,0,0,0,0,0,0,0,0,0,0,0,0,0,0,0,0,
0,0,0,0,0,0,0,0,0,0,0,0,0,0,0,0,0,0,0,0,0,0,0,0,0,0,0,0,0,0,
0,0,0,0,0,0,0,0,0,0,0,0,0,0,0,0,0,0,0,0,0,0,0,0,0,0,0,0,0,0,
0,0,0,0,0,0,0,0,0,0,0,0,0,0,0,0,0,0,0,0,0,0,0,0,0,0,0,0,0,0
</data>
 </layer>
 <objectgroup id="6" name="Entities">
  <object id="1" name="spawn_main" type="PlayerSpawn" x="480" y="576" width="32" height="32">
   <properties>
    <property name="spawnId" value="Entities"/>
   </properties>
  </object>
  <object id="2" name="npc_roberts" type="NPC" x="480" y="160" width="32" height="32">
   <properties>
    <property name="characterId" value="npc.justice_roberts"/>
    <property name="name" value="Chief Justice Roberts"/>
    <property name="storyKnot" value="justice_roberts_intro"/>
   </properties>
  </object>
  <object id="3" name="npc_bailiff" type="NPC" x="160" y="320" width="32" height="32">
   <properties>
    <property name="characterId" value="npc.bailiff"/>
    <property name="name" value="Bailiff"/>
    <property name="storyKnot" value="bailiff_intro"/>
   </properties>
  </object>
  <object id="4" name="door_lobby" type="Door" x="480" y="608" width="32" height="32">
   <properties>
    <property name="targetLevel" value="scotus_lobby"/>
    <property name="toMap" value="scotus_lobby"/>
    <property name="toSpawn" value="default"/>
   </properties>
  </object>
  <object id="5" name="prop_counsel_chair_proc__counsel_left__1" type="Prop" x="256" y="352" width="32" height="32">
   <properties>
    <property name="collision" type="bool" value="true"/>
    <property name="propId" value="prop.counsel_chair"/>
    <property name="sprite" value="prop.counsel_chair"/>
   </properties>
  </object>
  <object id="6" name="prop_counsel_chair_proc__counsel_right__2" type="Prop" x="704" y="352" width="32" height="32">
   <properties>
    <property name="collision" type="bool" value="true"/>
    <property name="propId" value="prop.counsel_chair"/>
    <property name="sprite" value="prop.counsel_chair"/>
   </properties>
  </object>
  <object id="7" name="prop_counsel_table_proc__counsel_left__3" type="Prop" x="224" y="352" width="32" height="32">
   <properties>
    <property name="collision" type="bool" value="true"/>
    <property name="propId" value="prop.counsel_table"/>
    <property name="sprite" value="prop.counsel_table"/>
   </properties>
  </object>
  <object id="8" name="prop_counsel_table_proc__counsel_right__4" type="Prop" x="672" y="352" width="32" height="32">
   <properties>
    <property name="collision" type="bool" value="true"/>
    <property name="propId" value="prop.counsel_table"/>
    <property name="sprite" value="prop.counsel_table"/>
   </properties>
  </object>
  <object id="9" name="prop_judge_bench_proc__dais__5" type="Prop" x="448" y="96" width="32" height="32">
   <properties>
    <property name="collision" type="bool" value="true"/>
    <property name="propId" value="prop.judge_bench"/>
    <property name="sprite" value="prop.judge_bench"/>
   </properties>
  </object>
  <object id="10" name="prop_jury_box_proc__jury_box__6" type="Prop" x="160" y="224" width="32" height="32">
   <properties>
    <property name="collision" type="bool" value="true"/>
    <property name="propId" value="prop.jury_box"/>
    <property name="sprite" value="prop.jury_box"/>
   </properties>
  </object>
 </objectgroup>
</map>
