<?xml version="1.0" encoding="UTF-8"?>
<map version="1.10" tiledversion="1.11.2" orientation="orthogonal" renderorder="right-down" width="80" height="60" tilewidth="32" tileheight="32" infinite="0" nextlayerid="23" nextobjectid="25">
 <tileset firstgid="1" source="../tilesets/scotus_floors.tsx"/>
 <tileset firstgid="33" source="../tilesets/scotus_structures.tsx"/>
 <tileset firstgid="81" source="../tilesets/scotus_decor.tsx"/>
 <tileset firstgid="97" source="../tilesets/collision.tsx"/>
 <tileset firstgid="164" source="../tilesets/terrain.tsx"/>
 <tileset firstgid="15827" source="../tilesets/castle.tsx"/>
 <tileset firstgid="15979" source="../tilesets/ProjectUtumno_full.tsx"/>
 <tileset firstgid="22059" source="../tilesets/tile2map32.tsx"/>
 <tileset firstgid="23379" source="../tilesets/scomp.tsx"/>
 <tileset firstgid="24159" source="../tilesets/scotus_exterior.tsx"/>
 <layer id="7" name="Floor" width="80" height="60">
  <data encoding="csv">
24159,24160,24161,24162,24163,24164,24165,24159,24160,24161,24162,24163,24164,24165,24166,24167,24168,24169,24170,24171,24172,24173,24174,24173,24174,24159,24160,24161,24162,24163,24164,24165,24166,24167,24168,24169,24170,24171,24172,24173,24174,24162,24163,24164,24165,24166,24167,24168,24169,24170,24171,24172,24173,24174,24175,24176,24177,24178,24179,24180,24181,24182,24183,24184,24185,24186,24160,24161,24162,24163,24164,24165,24166,24167,24168,24169,24170,24171,24172,24173,
24175,24176,24177,24178,24179,24180,24181,24175,24176,24177,24178,24179,24180,24181,24182,24183,24184,24185,24186,24187,24188,24189,24190,24205,24206,24175,24176,24177,24178,24179,24180,24181,24182,24183,24184,24185,24186,24187,24188,24189,24190,24194,24195,24196,24197,24198,24199,24200,24201,24202,24203,24204,24205,24206,24207,24208,24209,24210,24211,24212,24213,24214,24215,24216,24217,24218,24192,24193,24194,24195,24196,24197,24198,24199,24200,24201,24202,24203,24204,24205,
24191,24192,24193,24194,24195,24196,24197,24191,24192,24193,24194,24195,24196,24197,24198,24199,24200,24201,24202,24203,24204,24205,24206,24237,24238,24191,24192,24193,24194,24195,24196,24197,24198,24199,24200,24201,24202,24203,24204,24205,24206,24226,24227,24228,24229,24230,24231,24232,24233,24234,24235,24236,24237,24238,24239,24240,24241,24242,24243,24244,24245,24246,24247,24248,24249,24250,24224,24225,24226,24227,24228,24229,24230,24231,24232,24233,24234,24235,24236,24237,
24227,24228,24229,24230,24231,24232,24233,24234,24235,24236,24237,24238,24223,24259,24260,24261,24262,24263,24264,24265,24266,24267,24268,24269,24270,24271,24272,24273,24274,24275,24276,24277,24278,24279,24280,24281,24282,24283,24255,24256,24257,24258,24259,24260,24261,24262,24263,24264,24265,24266,24267,24268,24269,24270,24271,24272,24273,24274,24275,24276,24277,24278,24279,24280,24281,24282,24256,24257,24258,24259,24260,24261,24262,24263,24264,24265,24266,24267,24268,24269,
24243,24244,24245,24246,24247,24248,24249,24250,24251,24252,24253,24254,24239,24291,24292,24293,24294,24295,24296,24297,24298,24299,24300,24301,24302,24303,24304,24305,24306,24307,24308,24309,24310,24311,24312,24313,24314,24315,24287,24288,24289,24290,24291,24292,24293,24294,24295,24296,24297,24298,24299,24300,24301,24302,24303,24304,24305,24306,24307,24308,24309,24310,24311,24312,24313,24314,24288,24289,24290,24291,24292,24293,24294,24295,24296,24297,24298,24299,24300,24301,
24259,24260,24261,24262,24263,24264,24265,24266,24267,24268,24269,24270,24255,24323,24324,24325,24326,24327,24328,24329,24330,24331,24332,24333,24334,24335,24336,24337,24338,24339,24340,24341,24342,24343,24344,24345,24346,24347,24319,24320,24321,24322,24323,24324,24325,24326,24327,24328,24329,24330,24331,24332,24333,24334,24335,24336,24337,24338,24339,24340,24341,24342,24343,24344,24345,24346,24328,24329,24330,24331,24332,24333,24334,24335,24336,24337,24338,24339,24340,0,
24275,24276,24277,24278,24279,24280,24281,24282,24283,24284,24285,24286,24271,24192,24193,24194,24195,24196,24197,24198,24199,24200,24201,24202,24203,24204,24205,24206,24207,24208,24209,24210,24276,24277,24278,24279,24280,24281,24282,24283,24284,24285,24286,24255,24256,24257,24258,24259,24260,24261,24262,24263,24264,24265,24266,24267,24268,24269,24270,24271,24272,24273,24274,24275,24276,24277,24278,24279,24280,24281,0,0,0,0,0,0,0,0,0,0,
24291,24292,24293,24294,24295,24296,24297,24298,24299,24300,24301,24302,24287,24224,24225,24226,24227,24228,24229,24230,24231,24232,24233,24234,24235,24236,24237,24238,24239,24240,24241,24242,24308,24309,24310,24311,24312,24313,24314,24315,24316,24317,24318,24287,24288,24289,24290,24291,24292,24293,24294,24295,24296,24297,24298,24299,24300,24301,24302,24303,24304,24305,24306,24307,24308,24309,24310,24311,24312,24313,0,0,0,0,0,0,0,0,0,0,
24307,24308,24309,24310,24311,24312,24313,24314,24315,24316,24317,24318,24303,24195,24196,24197,24198,24199,24200,24201,24202,24203,24204,24205,24332,24333,24334,24335,24336,24337,24338,24339,24340,24341,24342,24343,24344,24345,24346,24347,24348,24349,24350,24319,24320,24321,24322,24323,24324,24325,24326,24327,24328,24329,24330,24331,24332,24333,24334,24335,24336,24337,24338,24339,24340,24341,24342,24343,24344,24345,0,0,0,0,0,0,0,0,0,0,
24323,24324,24325,24326,24327,24328,24329,24330,24331,24332,24333,24334,24319,24227,24228,24229,24230,24231,24232,24233,24234,24235,24236,24237,24364,24365,24366,24367,24368,24369,24370,24371,24372,24373,24374,24375,24376,24377,24378,24379,24380,24381,24382,24351,24352,24353,24354,24355,24356,24357,24358,24359,24360,24361,24362,24363,24364,24365,24366,24367,24368,24369,24370,24371,24372,24373,24374,24375,24376,24377,0,0,0,0,0,0,0,0,0,0,
24339,24340,24341,24342,24343,24344,24345,24346,24347,24348,24349,24350,24335,24259,24260,24261,24262,24263,24264,24265,24266,24267,24268,24269,24204,24205,24206,24207,24208,24209,24210,24211,24212,24213,24214,24215,24216,24217,24218,24219,24220,24221,24222,24191,24192,24193,24194,24195,24196,24197,24198,24199,24200,24201,24202,24203,24204,24205,24206,24207,24208,24209,24210,24211,24212,24213,24214,24215,24216,24217,0,0,0,0,0,0,0,0,0,0,
24355,24356,24357,24358,24359,24360,24361,24362,24363,24364,24365,24366,24351,24291,24292,24293,24294,24295,24296,24297,24298,24299,24300,24301,24236,24237,24238,24239,24240,24241,24242,24243,24244,24245,24246,24247,24248,24249,24250,24251,24252,24253,24254,24223,24224,24225,24226,24227,24228,24229,24230,24231,24232,24233,24234,24235,24236,24237,24238,24239,24240,24241,24242,24243,24244,24245,24246,24247,24248,24249,0,0,0,0,0,0,0,0,0,0,
24211,24212,24213,24214,24215,24216,24217,24218,24219,24220,24221,24222,24207,24323,24324,24325,24326,24327,24328,24329,24330,24331,24332,24333,24238,24239,24240,24241,24242,24243,24244,24245,24246,24247,24248,24249,24250,24251,24223,24224,24225,24226,24227,24228,24229,24230,24231,24232,24233,24234,24235,24236,24237,24238,24367,24368,24241,24242,24243,24244,24245,24246,24247,24248,24249,24250,24251,24252,24253,24254,0,0,0,0,0,0,0,0,0,0,
24276,24277,24278,24279,24280,24281,24277,24278,24279,24280,24281,24238,24367,24259,24260,24261,24262,24263,24264,24265,24266,24267,24268,24269,24270,24271,24272,24273,24274,24275,24276,24277,24278,24279,24280,24281,24282,24283,24255,24256,24257,24258,24259,24260,24261,24262,24263,24264,24265,24266,24267,24268,24269,24270,24383,24384,24273,24274,24275,24276,24277,24278,24279,24280,24281,24282,24283,24284,24285,24286,0,0,0,0,0,0,0,0,0,0,
24292,24293,24294,24295,24296,24297,24293,24294,24295,24296,24297,24254,24239,24291,24292,24293,24294,24295,24296,24297,24298,24299,24300,24301,24302,24303,24304,24305,24306,24307,24308,24309,24310,24311,24312,24313,24314,24315,24287,24288,24289,24290,24291,24292,24293,24294,24295,24296,24297,24298,24299,24300,24301,24302,24303,24304,24305,24306,24307,24308,24309,24310,24311,24312,24313,24314,24315,24316,24317,24318,0,0,0,0,0,0,0,0,0,0,
24368,24369,24370,24371,24372,24373,24374,24375,24376,24377,24378,24379,24380,24367,24368,24369,24370,24371,24372,24373,24374,24375,24376,24377,24378,24379,24380,24381,24382,24339,24340,24341,24342,24343,24344,24345,24346,24347,24319,24320,24321,24322,24323,24324,24325,24326,24327,24367,24368,24369,24370,24371,24372,24373,24374,24375,24376,24377,24378,24379,24380,24381,24382,24375,24376,24377,24378,24379,24380,24381,24382,24371,24372,24373,24374,24375,24376,24377,24378,24379,
24384,24385,24386,24387,24388,24389,24390,24391,24392,24393,24394,24395,24396,24383,24384,24385,24386,24387,24388,24389,24390,24391,24392,24393,24394,24395,24396,24397,24398,24371,24372,24373,24374,24375,24376,24377,24378,24379,24351,24352,24353,24354,24355,24356,24357,24358,24359,24383,24384,24385,24386,24387,24388,24389,24390,24391,24392,24393,24394,24395,24396,24397,24398,24391,24392,24393,24394,24395,24396,24397,24398,24387,24388,24389,24390,24391,24392,24393,24394,24395,
24400,24401,24402,24403,24404,24405,24406,24407,24408,24409,24410,24411,24412,24399,24400,24401,24402,24403,24404,24405,24406,24407,24408,24409,24410,24411,24412,24413,24414,24403,24404,24405,24406,24407,24408,24409,24410,24411,24383,24384,24385,24386,24387,24388,24389,24390,24391,24399,24400,24401,24402,24403,24404,24405,24406,24407,24408,24409,24410,24411,24412,24413,24414,24407,24408,24409,24410,24411,24412,24413,24414,24403,24404,24405,24406,24407,22371,22371,22371,24411,
22371,22371,22371,22371,22371,22371,22371,22371,22371,24408,24409,24410,24411,24412,24413,24414,15822,172,15826,15825,164,15824,15822,15826,165,15826,15824,15823,15823,15823,15821,15821,165,172,169,172,15826,15822,15826,15826,15821,169,164,15824,15824,15825,164,164,172,15823,15821,164,15824,15825,24399,24400,24401,24402,24403,24404,24405,24406,24407,24408,24399,24400,24401,24402,24403,24404,22371,22371,22371,22371,22371,22371,22371,22371,22371,22371,
22315,22413,22417,22315,22417,22416,22316,22417,22416,15826,15824,169,15826,164,172,15822,164,15821,165,169,15823,165,15822,15824,165,165,15821,15825,172,15823,15821,172,169,169,15822,15824,15826,15822,164,164,165,15823,172,15825,15823,15822,165,169,15823,15822,164,169,15821,172,172,169,15821,15826,15823,15824,15824,15826,15821,165,164,165,15826,15824,164,22412,22307,22416,22311,22315,22315,22416,22412,22417,22417,22417,
22413,22413,22413,22307,22307,22316,22417,22316,22316,165,15826,164,15826,15822,164,165,15822,172,15822,15825,15824,15825,15823,165,172,15823,15824,15825,164,15824,15821,165,15824,172,15826,164,15821,15825,164,15823,15825,15826,15825,15821,169,15822,15823,165,165,164,172,15823,15825,169,164,15823,15821,164,169,169,164,165,15822,15826,15824,172,15823,164,15821,22416,22307,22412,22316,22307,22315,22312,22412,22307,22315,22417,
22307,22417,22311,22307,22311,22412,22412,22413,22315,15825,15826,164,172,15822,15825,165,165,165,15823,15823,15824,172,15821,172,172,165,15823,172,164,172,169,164,169,15825,165,172,15824,165,169,164,15824,15822,169,15824,15825,15823,15824,15826,15826,15822,15825,165,15825,165,165,165,164,15823,169,15822,15822,15821,15826,15826,15821,15825,15821,172,15821,22417,22416,22307,22315,22416,22307,22311,22307,22412,22307,22307,
22307,22417,22312,22311,22315,22416,22417,22416,22312,15826,15824,15826,165,164,172,15823,15824,15824,164,15826,172,15823,164,15826,169,169,165,15822,15823,15821,15821,172,15823,15823,169,172,169,15821,15821,15824,164,15826,15824,164,15825,15823,15822,15822,15826,15826,169,169,15825,15821,15824,15826,15824,172,172,15826,15821,172,172,169,15824,172,15824,164,15826,22307,22413,22416,22412,22412,22412,22307,22311,22316,22311,22307,
22412,22412,22311,22307,22315,22316,22417,22307,22307,169,164,15826,15824,15826,15825,15824,15824,15826,15821,165,15825,15821,15822,15823,169,172,165,15825,164,15825,15822,15825,15823,15823,165,164,172,15826,15824,15823,15824,15825,15822,164,172,172,165,165,15823,15821,169,172,164,15823,15821,169,165,15824,165,164,15826,164,165,169,172,15823,169,172,15825,22412,22315,22315,22311,22307,22315,22311,22315,22307,22413,22413,
22312,22315,22307,22413,22412,22417,22416,22316,22316,15822,15822,15822,15821,15825,172,15824,15824,169,15823,164,15825,15823,15823,15826,172,15824,15821,169,15823,165,164,172,15823,15821,165,164,172,169,172,15822,165,15824,165,15823,15823,15826,164,15826,15826,15823,15826,169,15824,15821,164,169,165,15825,169,15824,165,15821,15822,169,15826,15821,15825,15822,15824,22316,22311,22416,22315,22312,22413,22312,22315,22312,22413,22416,
22412,22307,22416,22307,22416,22316,22312,22416,22412,15824,15823,15822,15822,165,165,164,15822,15826,15824,172,165,15826,172,169,15824,164,15823,172,15826,15823,15822,15824,15822,15826,169,15823,15821,15821,15821,169,172,15821,169,15825,172,164,15825,15824,15825,15821,15821,172,169,164,165,15823,15825,169,15822,15823,15826,15822,15821,15825,15823,15825,15823,165,164,22412,22416,22412,22413,22315,22311,22416,22417,22312,22312,22312,
22417,22316,22311,22413,22316,22413,22307,22412,22412,15824,15824,15822,15825,169,15824,165,169,15821,15821,165,15825,15824,15825,15823,15823,165,15824,15824,172,164,169,15824,15823,15822,15826,169,164,15826,169,172,15822,15821,165,15824,15826,169,15821,169,172,15824,15823,169,15823,15824,15821,165,15826,15821,15826,15826,15822,15825,15823,165,15822,15826,165,15822,15825,22417,22413,22416,22413,22417,22315,22311,22417,22311,22312,22312,
22412,22413,22315,22311,22307,22307,22416,22416,22416,15825,15824,15822,169,164,15822,15823,15825,15821,15824,172,15822,172,15821,15826,165,15822,15821,172,15826,172,15823,15826,164,15821,15821,164,172,165,15821,172,169,15821,15826,15823,169,15823,172,172,15826,172,15824,15825,15823,15823,169,15822,165,164,15821,15826,15826,15825,15821,165,15822,169,15825,15821,15822,22312,22311,22412,22311,22413,22416,22417,22311,22417,22417,22416,
22417,22416,22311,22311,22316,22417,22416,22312,22413,172,169,165,165,15821,164,15825,15826,15822,172,172,165,15826,15823,169,169,172,169,15823,165,165,164,164,15826,172,15822,15823,15823,164,15821,172,172,15823,15823,164,15826,15823,172,169,15825,15821,15823,165,164,165,172,165,164,15822,165,15821,15825,172,15821,15826,15825,15826,164,172,165,22311,22316,22315,22315,22417,22312,22315,22311,22315,22316,22307,
22316,22413,22412,22315,22315,22315,22413,22413,22312,15823,15821,164,15822,169,15821,165,172,15824,169,15824,164,15821,15826,172,15825,165,169,165,172,15822,15826,165,165,164,15825,15822,15821,169,15826,15822,15821,15825,172,165,15821,15823,15825,15824,15822,164,15822,15825,15824,15826,172,169,15821,15822,169,15826,15826,172,15825,15821,15825,165,15823,172,15822,22311,22312,22307,22412,22412,22312,22413,22311,22307,22412,22311,
22316,22315,22311,22417,22416,22312,22311,22412,22315,164,165,165,172,15824,164,15822,15823,15821,15821,165,15822,165,172,15822,15825,15822,15824,15826,15822,15825,15824,15826,15821,15822,15823,15825,15823,165,15825,169,15823,172,164,15825,15823,169,15821,165,15825,15822,15823,15825,164,15821,15825,169,15822,169,165,15821,165,172,15825,15824,172,15823,15821,15826,15823,22412,22312,22417,22412,22307,22416,22315,22413,22417,22416,22417,
22416,22315,22307,22416,22412,22316,22315,22315,22417,172,15824,165,15824,15825,15824,165,15823,15821,15824,164,15824,169,15823,15824,15822,164,15823,15822,15825,15823,15824,164,172,15821,15822,169,164,15826,15823,15825,15823,15825,15824,15824,15826,15823,172,15826,172,165,15821,15825,172,15826,169,169,15823,15822,15823,15826,165,172,15821,165,172,165,15821,165,15826,22316,22412,22316,22311,22307,22311,22312,22311,22315,22312,22311,
22413,22413,22416,22316,22416,22413,22315,22416,22316,15824,165,15826,15823,164,169,172,15824,15821,15822,165,169,15825,15826,172,164,15824,172,15825,172,15821,15825,172,15823,165,15824,165,15821,15821,15821,164,172,15822,172,164,169,15823,15821,165,15823,15823,172,15823,15823,15825,169,15825,165,164,15825,15822,15824,165,15823,15821,169,15825,15821,164,164,22312,22315,22307,22416,22416,22417,22416,22416,22412,22315,22416,
22307,22315,22315,22413,22413,22416,22311,22315,22413,15825,15823,15821,15826,15826,15825,15825,15821,164,169,15821,15825,164,15822,165,15826,165,164,164,15824,172,165,15826,164,15824,164,15825,15823,15825,15824,15821,169,15826,169,172,164,15824,15824,15826,15826,15824,15826,172,15825,15822,15823,15825,172,15825,15826,165,15825,165,15824,164,169,165,172,15825,15823,22416,22416,22315,22316,22412,22412,22412,22311,22316,22307,22412,
22416,22316,22312,22315,22312,22417,22307,22311,22412,15825,169,15826,172,169,169,15824,169,15825,15822,15823,15823,172,164,169,15823,15822,169,169,164,15826,15822,15824,15822,15825,172,15823,15825,15822,164,165,172,164,15822,15825,172,15825,15822,15824,15823,15823,172,15823,15825,15822,165,15826,15823,169,15822,15822,15825,164,15821,15822,15825,15826,15825,15821,15824,22315,22316,22316,22412,22412,22413,22417,22413,22307,22413,22315,
22416,22307,22412,22307,22307,22413,22315,22413,22416,164,15823,15821,15824,172,15826,15822,15824,164,164,169,15826,15823,164,165,15826,15822,169,169,15821,172,169,15823,169,15821,15821,15821,164,15821,15821,164,15824,15824,15826,15825,15825,165,164,15823,15821,15823,15824,15821,15821,15826,15821,15824,172,15824,15821,169,15826,15822,15823,15821,15822,15826,15823,164,15825,22316,22311,22412,22416,22417,22412,22315,22417,22311,22416,22316,
22413,22416,22417,22315,22416,22307,22416,22416,22416,15823,15823,164,15821,15825,15822,15825,172,15826,15822,169,164,164,172,15823,169,15826,172,15824,15825,15823,15821,15826,15825,15822,165,15826,165,165,169,15824,15821,172,15823,169,165,15822,15824,165,169,169,15822,165,15825,172,172,15825,15821,15822,165,15824,15824,15825,172,164,15826,172,15823,165,169,22307,22412,22312,22315,22412,22315,22307,22412,22315,22316,22416,
22412,22417,22417,22413,22312,22412,22412,22417,22311,169,169,15822,169,15824,15823,15826,15823,164,15824,15825,15823,15826,172,15822,15826,15821,15821,15824,15826,15822,15821,15824,164,15824,15823,15826,169,169,15823,15825,15824,172,15826,165,15822,15823,165,164,15823,15826,15822,15823,15822,15826,172,15821,15822,15826,165,164,15825,165,15823,15826,15822,15824,15823,172,172,22315,22311,22413,22413,22316,22315,22413,22307,22312,22417,22312,
22315,22312,22417,22416,22316,22412,22416,22307,22413,15824,15823,15822,15823,15821,15822,15822,172,15821,15826,164,169,15821,165,15822,15824,172,15825,165,165,15821,15822,15825,15823,15823,164,15824,15825,165,15822,169,169,15826,15826,15826,15823,169,15821,172,172,169,15825,15822,15824,169,15822,15826,15826,15826,15823,15822,169,164,15824,172,15824,164,15824,169,15825,22312,22417,22417,22417,22417,22416,22412,22311,22307,22416,22311,
22307,22312,22416,22417,22315,22307,22307,22417,22311,15821,164,15824,15822,15825,15825,164,169,15826,15822,15824,172,15824,165,15821,169,15823,15824,15823,165,15821,15822,15824,15826,15826,15821,15823,15822,15826,169,165,15822,15824,15823,169,15824,15821,165,15822,172,164,15826,164,172,172,165,165,172,15826,169,172,15826,15825,172,15821,15822,164,169,15824,15822,22307,22315,22417,22311,22316,22311,22307,22315,22413,22312,22311,
22417,22413,22311,22316,22416,22315,22312,22416,22416,169,165,164,15826,165,15824,15823,169,172,15824,15823,22761,164,15825,15822,15823,15823,15822,15822,15825,15825,15824,15821,15821,15823,15823,169,15824,169,165,15823,15825,172,15821,172,15826,15825,15826,15822,15823,15822,15826,165,15821,15824,172,15824,15821,15823,15823,15824,15824,15823,15821,172,172,15826,15824,15821,15823,22316,22307,22315,22417,22412,22413,22311,22413,22312,22311,22315,
22315,22307,22412,22417,22412,22412,22413,22311,22312,164,164,15822,15825,164,15822,164,15825,165,22753,22756,22759,15822,165,15822,15823,164,15824,15826,15824,15824,15821,15825,172,169,15823,15821,15821,15823,169,169,15825,15821,172,169,15822,15822,165,165,15822,172,165,15825,15821,165,172,169,15823,15821,164,164,164,165,172,15824,165,172,15824,15826,15823,22311,22312,22315,22416,22307,22311,22311,22412,22416,22316,22316,
22315,22307,22412,22316,22413,22316,22315,22416,22416,15821,15823,165,15823,169,15825,169,15826,22761,22752,165,164,15825,15824,15826,165,172,165,169,15823,164,15826,164,164,164,164,15825,15825,15824,15823,165,164,164,172,172,165,165,15823,15826,15823,15825,15823,169,15822,15824,15826,15823,15821,15823,15826,15823,165,165,15821,164,15825,15822,15822,15821,15825,22316,22307,22307,22413,22312,22417,22312,22312,22316,22315,22316,
22311,22417,22316,22412,22416,22312,22417,22311,22316,165,15826,164,15826,15826,172,172,15821,22755,15825,165,172,15823,15824,172,15825,15823,15823,15823,15823,15825,15823,15826,172,164,164,15823,15822,15826,15826,15821,15826,15825,164,15822,15825,164,172,172,164,165,15823,169,164,164,172,15824,15821,15822,15821,15824,15822,15825,15822,15822,15821,172,15822,164,15825,22413,22312,22316,22413,22416,22412,22416,22413,22413,22316,22416,
22312,22412,22311,22413,22315,22412,22417,22312,22412,15825,164,165,15825,165,169,169,169,15822,15821,15824,15824,15823,15826,164,15824,172,15824,169,15826,15822,15824,15821,15826,172,165,164,165,164,165,15826,15826,15824,169,164,15826,15822,15821,169,15821,172,169,169,15823,15826,165,172,15824,15821,15826,15822,15822,15823,172,15824,15824,15823,15823,15826,164,22416,22412,22307,22307,22316,22416,22417,22307,22311,22316,22417,
22412,22307,22412,22416,22412,22417,22311,22416,22412,169,164,164,15824,165,15821,15824,15823,15823,15824,164,165,172,172,15826,15822,15822,15822,15821,15826,15821,15824,164,15823,15821,165,15822,169,15825,15826,15822,15825,15821,15824,15822,169,15823,15824,15825,165,15823,172,165,15823,15823,15822,15826,15822,15825,15822,15822,15823,15822,15823,164,15824,15826,172,164,15824,22311,22312,22413,22417,22413,22416,22311,22412,22416,22416,22315,
22412,22413,22316,22412,22413,22307,22412,22412,22413,15824,15822,15824,15826,15821,164,15823,15825,15822,165,15821,169,164,172,169,15824,15826,15826,15825,15825,169,15824,15824,172,15824,15826,15823,15826,15825,165,15824,172,172,164,15821,15826,15821,15826,15824,15826,164,15826,165,164,15821,164,169,15821,165,164,15823,164,164,15826,15824,15823,15826,15825,15822,164,22312,22316,22315,22315,22316,22416,22307,22307,22412,22413,22316,
22312,22416,22312,22312,22315,22412,22413,22311,22315,169,15824,165,15821,169,165,172,15826,172,15825,15821,15821,15826,15825,15824,15823,165,15824,164,15822,15822,15821,172,15821,15822,169,15821,15821,15822,15824,169,15822,15821,15823,172,169,169,172,15823,165,15825,15826,164,164,15821,15823,15821,172,15826,164,15822,165,15825,15822,15824,15821,172,15821,15823,15825,22307,22417,22307,22307,22416,22412,22416,22316,22413,22412,22417,
22307,22315,22307,22416,22416,22417,22307,22311,22417,15822,165,169,165,169,15825,15826,15826,165,165,165,169,15826,172,15825,15821,15826,15821,172,15823,15823,15822,165,164,164,15826,15822,164,15826,15825,172,15824,15824,15823,15821,15824,165,15825,15821,15825,169,15821,15822,15825,164,15822,165,164,15822,15826,15825,15824,15821,15822,15823,15823,15823,15826,15824,15821,22417,22312,22416,22412,22413,22413,22311,22417,22312,22417,22307,
22416,22413,22416,22316,22312,22413,22312,22412,22412,15822,172,172,15824,15822,15821,165,15825,169,15824,169,15823,172,15826,164,15826,15823,15823,169,15824,172,15822,15821,165,15821,15821,15824,15825,15824,15822,15824,15821,172,169,172,15824,172,15821,172,165,15826,172,15824,164,169,165,172,15822,164,165,172,165,15821,169,15824,15826,165,164,15826,15826,22416,22417,22416,22412,22413,22416,22307,22413,22307,22311,22416,
22416,22412,22417,22312,22416,22315,22412,22413,22413,15826,164,15826,172,15822,164,165,165,15822,15826,15826,15825,15824,15821,15824,15825,15822,15821,164,172,164,15826,15822,169,15825,164,172,165,15825,15822,165,15826,15823,15826,15825,15821,15825,15826,164,15825,15823,164,15823,164,15821,15822,15825,15826,15823,15824,169,165,15826,15822,15821,15822,164,15824,15822,15823,22412,22413,22417,22412,22312,22311,22315,22307,22417,22316,22311,
22316,22315,22413,22413,22417,22412,22316,22417,22307,15822,15824,15825,165,172,169,15826,172,15822,15822,15821,172,15824,15824,15824,169,15821,15823,15823,164,164,15825,15824,169,15825,172,15824,15822,164,15822,15824,15825,15822,172,15826,165,15823,15821,15826,15821,169,164,15822,164,15824,15824,15825,15823,15825,15823,172,15823,15822,164,15824,15826,15824,15822,15821,15823,22311,22417,22312,22417,22307,22413,22315,22312,22417,22416,22417,
22412,22417,22312,22307,22312,22311,22311,22416,22316,15822,15821,15823,172,15826,169,169,15823,15825,172,165,15822,15826,15826,15823,164,165,15824,15826,15826,15822,169,15826,15824,15825,164,15824,15824,15821,15822,169,172,15826,165,15822,164,15822,169,15823,15823,15826,15825,15825,15825,15824,15822,164,169,169,15826,15826,15821,169,164,15823,15823,15822,15826,15821,164,22413,22307,22311,22311,22416,22412,22307,22417,22315,22412,22416,
22413,22413,22413,22316,22312,22312,22312,22316,22413,15826,15821,15821,165,15824,15822,15822,172,172,15824,165,15821,172,15824,15824,15826,15822,165,15825,165,169,164,15826,15821,172,172,165,15821,15821,164,15823,169,165,169,169,165,172,164,15821,172,15822,15823,15826,15824,15822,15826,15826,15826,164,15821,164,15826,165,164,169,164,15826,164,169,15823,22416,22307,22311,22311,22417,22312,22315,22417,22312,22416,22417,
22417,22315,22311,22311,22312,22312,22413,22307,22413,15823,15824,15826,15825,165,15825,15824,164,15822,164,165,169,15821,169,164,15821,169,15822,15824,15822,15821,164,169,15826,15823,15826,15824,172,165,15822,15826,172,164,164,15823,15821,164,164,15821,15823,15823,15821,15826,164,164,165,15824,15826,15824,169,15821,165,169,165,15822,165,172,164,15824,165,22307,22316,22311,22417,22315,22416,22315,22412,22413,22416,22417,
22417,22416,22315,22311,22413,22316,22315,22412,22315,15825,165,15824,15823,15826,15821,15826,15824,15822,15825,15826,165,165,15823,165,169,169,165,15823,169,164,164,172,164,15822,15826,15825,15822,15822,15825,15825,172,15826,15822,15823,172,164,172,165,15821,15824,15826,15825,169,165,169,15823,172,15823,15825,15823,164,172,172,15821,15824,15825,164,15822,15825,22412,22316,22307,22413,22413,22416,22311,22315,22416,22316,22307,
22413,22416,22412,22316,22311,22312,22315,22307,22307,165,15823,15825,15825,164,169,169,15821,164,15826,169,15823,165,15823,15826,15821,169,15821,15825,172,164,15821,15821,15825,15825,15824,15824,15824,15822,165,165,15826,15821,164,15826,164,15823,164,165,15823,15822,15826,15825,165,15825,169,165,165,169,15825,165,15823,15826,15826,15824,15822,165,15825,172,165,22416,22316,22311,22311,22307,22413,22311,22307,22316,22412,22307,
22315,22311,22307,22315,22307,22417,22312,22412,22417,169,164,15826,164,15824,15826,15824,15822,172,15826,15821,169,164,15821,15825,165,169,164,164,15822,15826,15822,15826,15826,164,15826,15826,165,15824,15824,15825,15822,172,15824,165,15823,164,165,164,15825,15822,165,172,15825,172,15824,15826,15822,15822,15823,15822,15825,164,15823,15826,169,15825,15823,164,15824,22312,22316,22412,22413,22316,22307,22311,22307,22412,22315,22413,
22417,22307,22412,22311,22413,22311,22312,22413,22417,165,172,15826,15823,169,164,15826,15824,15824,15822,15826,165,164,15826,15821,15826,172,165,15824,15826,15821,164,169,15823,164,169,15821,165,15821,15821,169,15822,165,164,15823,15825,172,15822,15821,15824,172,172,15821,15826,15825,165,169,15822,169,15822,165,169,15826,15823,172,164,15823,15826,165,15822,22412,22311,22316,22311,22315,22416,22312,22417,22416,22417,22307,
22311,22316,22315,22412,22413,22417,22311,22311,22315,15823,15824,164,172,15824,165,165,172,15825,15823,169,15823,15826,15823,164,15825,15824,15821,15823,15822,15821,164,15824,165,169,15826,15826,15823,15821,172,15823,169,172,172,165,15821,169,15824,15824,169,15824,172,15823,164,172,164,172,15823,15821,165,169,169,169,15823,15825,15825,165,165,15825,15826,22312,22416,22413,22312,22312,22413,22315,22315,22307,22312,22416
</data>
 </layer>
 <layer id="20" name="Walls" width="80" height="60">
  <data encoding="csv">
0,0,0,0,0,0,0,0,0,0,0,0,0,0,0,0,0,0,0,0,0,0,0,0,0,0,0,0,24159,24160,24161,24162,24163,24164,24165,24166,24167,24168,24169,24170,24171,24172,24159,24160,24161,24162,24163,24164,24165,24166,24167,24168,24169,24170,24171,24172,24173,24159,24160,24161,24162,24163,24164,24165,24166,24159,24160,24161,24162,24163,24164,24165,24166,24167,24168,24169,24170,24171,24172,24173,
0,0,0,0,0,0,0,0,0,0,0,0,0,0,0,0,0,0,0,0,0,0,0,0,0,0,0,0,24175,24176,24177,24178,24179,24180,24181,24182,24183,24184,24185,24186,24187,24188,24175,24176,24177,24178,24179,24180,24181,24182,24183,24184,24185,24186,24187,24188,24189,24175,24176,24177,24178,24179,24180,24181,24182,24175,24176,24177,24178,24179,24180,24181,24182,24183,24184,24185,24186,24187,24188,24189,
0,0,0,0,0,0,0,0,0,0,0,0,0,0,0,0,0,0,0,0,0,0,0,0,0,0,0,0,24191,24192,24193,24194,24195,24196,24197,24198,24199,24200,24201,24202,24203,24204,24191,24192,24193,24194,24195,24196,24197,24198,24199,24200,24201,24202,24203,24204,24205,24191,24192,24193,24194,24195,24196,24197,24198,24191,24192,24193,24194,24195,24196,24197,24198,24199,24200,24201,24202,24203,24204,24205,
0,0,0,0,0,0,0,0,0,0,0,0,0,0,0,0,0,0,0,0,0,0,0,0,0,0,0,0,24207,24208,24209,24210,24211,24212,24213,24214,24215,24216,24217,24218,24219,24220,24207,24208,24209,24210,24211,24212,24213,24214,24215,24216,24217,24218,24219,24220,24221,24207,24208,24209,24210,24211,24212,24213,24214,24207,24224,24225,24226,24227,24228,24229,24230,24231,24232,24232,24218,24219,24220,24221,
0,0,0,0,0,0,0,0,0,0,0,0,0,0,0,0,0,0,0,0,0,0,0,0,0,0,0,0,24223,24224,24225,24226,24227,24228,24229,24230,24231,24232,24233,24234,24235,24236,24223,24224,24225,24226,24227,24228,24229,24230,24231,24232,24233,24234,24235,24236,24237,24223,24224,24225,24226,24227,24228,24229,24230,24223,24240,24241,24242,24243,24244,24245,24246,24247,24248,24248,24234,24235,24236,24237,
0,0,0,0,0,0,0,0,0,0,0,0,0,0,0,0,0,0,0,0,0,0,0,0,0,0,0,0,24239,24240,24241,24242,24243,24244,24245,24246,24247,24248,24249,24250,24251,24252,24239,24240,24241,24242,24243,24244,24245,24246,24247,24248,24249,24250,24251,24252,24253,24239,24240,24241,24242,24243,24244,24245,24246,24239,24256,24257,24258,24259,24260,24261,24224,24224,24225,24226,24227,24228,24229,24230,
0,0,0,0,0,0,0,0,0,0,0,0,0,0,0,0,0,0,0,0,0,0,0,0,0,0,0,0,0,0,0,0,0,0,0,0,0,0,0,0,0,0,0,0,0,0,0,0,0,0,0,0,0,0,0,0,0,0,0,0,0,0,0,0,0,0,24272,24273,24274,24275,24276,24277,24240,24240,24241,24242,24243,24244,24245,24246,
0,0,0,0,0,0,0,0,0,0,0,0,0,0,0,0,0,0,0,0,0,0,0,0,0,0,0,0,0,0,0,0,0,0,0,0,0,0,0,0,0,0,0,0,0,0,0,0,0,0,0,0,0,0,0,0,0,0,0,0,0,0,0,0,0,0,24288,24289,24290,24291,24292,24293,24256,24256,24257,24258,24259,24260,24261,24262,
0,0,0,0,0,0,0,0,0,0,0,0,0,0,0,0,0,0,0,0,0,0,0,0,0,0,0,0,0,0,0,0,0,0,0,0,0,0,0,0,0,0,0,0,0,0,0,0,0,0,0,0,0,0,0,0,0,24224,24225,24226,24227,24228,24229,24230,24231,24232,24229,24230,24231,24232,24240,24241,24272,24272,24273,24274,24275,24276,24277,24278,
0,0,0,0,0,0,0,0,0,0,0,0,0,0,0,0,0,0,0,0,0,0,0,0,0,0,0,0,0,0,0,0,0,0,0,0,0,0,0,0,0,0,0,0,0,0,0,0,0,0,0,0,0,24224,24225,24226,24227,24228,24229,24230,24231,24232,24245,24246,24247,24248,24245,24246,24247,24248,24256,24257,24288,24288,24289,24290,24291,24292,24293,24294,
0,0,0,0,0,0,0,0,0,0,0,0,0,0,0,0,0,0,0,0,0,0,0,0,0,0,0,0,0,0,0,0,0,0,0,0,0,0,0,0,0,0,0,0,0,0,0,0,0,0,0,0,0,24240,24241,24242,24243,24244,24245,24246,24247,24248,24261,24262,24263,24264,24261,24262,24224,24225,24226,24227,24228,24229,24230,24231,24232,24279,24280,0,
0,0,0,0,0,0,0,0,0,0,0,0,0,0,0,0,0,0,0,0,0,0,0,0,0,0,0,0,0,0,0,0,0,0,0,0,0,0,0,0,0,0,0,0,0,0,0,0,0,0,0,0,0,24256,24257,24258,24259,24260,24261,24262,24263,24264,24277,24278,24279,24280,24277,24278,24240,24241,24242,24243,24244,24245,24246,24247,24248,24229,24230,24231,
0,0,0,0,0,0,0,0,0,0,0,0,0,0,0,0,0,0,0,0,0,0,0,0,0,0,0,0,0,0,0,0,0,0,0,0,0,0,0,0,0,0,0,0,0,0,0,0,0,0,0,0,0,24272,24273,24274,24275,24276,24277,24278,24279,24280,24293,24294,24295,24296,24293,24294,24256,24257,24258,24259,24260,24261,24262,24263,24264,24245,24246,24247,
0,0,0,0,0,0,0,0,0,0,0,0,0,0,0,0,0,0,0,0,0,0,0,0,0,0,0,0,0,0,0,0,0,0,0,0,0,0,0,0,0,0,0,0,0,0,0,0,0,0,0,0,0,24288,24289,24290,24291,24292,24293,24294,24295,24296,0,0,0,0,0,0,24272,24273,24274,24275,24276,24277,24278,24279,24280,24261,24262,24263,
0,0,0,0,0,0,0,0,0,0,0,0,0,0,0,0,0,0,0,0,0,0,0,0,0,0,0,0,0,0,0,0,0,0,0,0,0,0,0,0,0,0,0,0,0,0,0,0,0,0,0,0,0,0,0,0,0,0,0,0,0,0,0,0,24351,24352,24353,24354,24355,24356,24357,24358,24359,24360,24361,24362,24363,24364,24365,24366,
0,0,0,0,0,0,0,0,0,0,0,0,0,0,0,0,0,0,0,0,0,0,0,0,0,0,0,0,0,0,0,0,0,0,0,0,0,0,0,0,0,0,0,0,0,0,0,0,0,0,0,0,0,0,0,0,0,0,0,0,0,0,0,0,24367,24368,24369,24370,24371,24372,24373,24374,24375,24376,24377,24378,24379,24380,24381,24382,
0,0,0,0,0,0,0,0,0,0,0,0,0,0,0,0,0,0,0,0,0,0,0,0,0,0,0,0,0,0,0,0,0,0,0,0,0,0,0,0,0,0,0,0,0,0,0,0,0,0,0,0,0,0,0,0,0,0,0,0,0,0,0,0,24383,24384,24385,24386,24387,24388,24389,24390,24391,24392,24393,24394,24395,24396,24397,24398,
0,0,0,0,0,0,0,0,0,0,0,0,0,0,0,0,0,0,0,0,0,0,0,0,0,0,0,0,0,0,0,0,0,0,0,0,0,0,0,0,0,0,0,0,0,0,0,0,0,0,0,0,0,0,0,0,0,0,0,0,0,0,0,0,24399,24400,24401,24402,24403,24404,24405,24406,24407,24408,24409,24410,24411,24412,24413,24414,
22331,22332,0,0,0,0,0,0,0,22359,22360,22360,22360,22360,22360,22360,22360,22360,22360,22360,22360,22360,22360,22360,22360,22360,22360,22360,22360,22360,22360,22360,22360,22360,22360,22360,22360,22360,22360,22360,22360,22360,22360,22360,22360,22360,22360,22360,22360,22360,22360,22360,22360,22360,22360,22360,22360,22360,22360,22360,22360,22360,22360,22360,22360,22360,22360,22360,22360,22361,22371,0,0,0,0,0,0,0,0,0,
22335,22336,0,0,0,0,0,0,0,22363,22364,22364,22364,22364,22364,22364,22364,22364,22364,22364,22364,22364,22364,22364,22364,22364,22364,22364,22364,22364,22364,22364,22364,22364,22364,22364,22364,22364,22364,22364,22364,22364,22364,22364,22364,22364,22364,22364,22364,22364,22364,22364,22364,22364,22364,22364,22364,22364,22364,22364,22364,22364,22364,22364,22364,22364,22364,22364,22364,22361,22362,0,0,0,0,0,0,0,0,0,
0,0,0,0,22739,22740,22740,22741,0,22363,22364,22364,22364,22364,22364,22364,22364,22364,22364,22364,22364,22364,22364,22364,22364,22364,22364,22364,22364,22364,22364,22364,22364,22364,22364,22364,22364,22364,22364,22364,22364,22364,22364,22364,22364,22364,22364,22364,22364,22364,22364,22364,22364,22364,22364,22364,22364,22364,22364,22364,22364,22364,22364,22364,22364,22364,22364,22364,22364,0,22366,0,0,0,0,0,0,0,0,0,
0,0,0,0,22743,22744,22744,22745,0,22363,22364,22364,22364,22364,22364,22364,22364,22364,22364,22364,22364,22364,22364,22364,22364,22364,22364,22364,22364,22364,22364,22364,22364,22364,22364,22364,22364,22364,22364,22364,22364,22364,22364,22364,22364,22364,22364,22364,22364,22364,22364,22364,22364,22364,22364,22364,22364,22364,22364,22364,22364,22364,22364,22364,22364,22364,22364,22364,22364,0,22366,0,0,0,0,0,0,0,0,0,
0,0,0,0,22747,22748,22749,22749,0,22363,22364,22364,22364,22364,22364,22364,22364,22364,22364,22364,22364,22364,22364,22364,22364,22364,22364,22364,22364,22364,22364,22364,22364,22364,22364,22364,22364,22364,22364,22364,22364,22364,22364,22364,22364,22364,22364,22364,22364,22364,22364,22364,22364,22364,22364,22364,22364,22364,22364,22364,22364,22364,22364,22364,22364,22364,22364,22364,22364,0,22366,0,0,0,0,0,0,0,0,0,
0,0,0,0,0,0,0,0,0,22363,22364,22364,22364,22364,22364,22364,22364,22364,22364,22364,22364,22364,22364,22364,22364,22364,22364,22364,22364,22364,22364,22364,22364,22364,22364,22364,22364,22364,22364,22364,22364,22364,22364,22364,22364,22364,22364,22364,22364,22364,22364,22795,22796,22364,22364,22364,22364,22364,22364,22364,22364,22364,22364,22364,22364,22364,22364,22364,22364,0,22366,0,0,0,0,0,0,0,0,0,
0,0,0,0,0,0,0,0,0,22363,22364,22364,22364,22364,22364,22364,22364,22364,22364,22364,22364,22364,22364,22364,22364,22364,22364,22364,22364,22364,22364,22364,22364,22364,22364,22364,22364,22364,22364,22364,22364,22364,22364,22364,22364,22364,22364,22364,22364,22364,22364,22799,22800,22364,22364,22364,22364,22364,22364,22364,22364,22364,22364,22364,22364,22364,22364,22364,22364,0,22366,0,0,0,0,0,0,0,0,0,
0,0,0,0,0,0,0,0,0,22363,22364,22364,22364,22364,22364,22364,22364,22364,22364,22364,22364,22364,22364,22364,22364,22364,22364,22364,22364,22364,22364,22364,22364,22364,22364,22364,22364,22364,22364,22364,22364,22364,22364,22364,22364,22364,22364,22364,22364,22364,22364,22364,22364,22364,22364,22364,22364,22364,22364,22364,22364,22364,22364,22364,22364,22364,22364,22364,22364,0,22366,0,0,0,0,0,0,0,0,0,
0,0,0,0,0,0,0,0,0,22363,22364,22364,22364,22364,22364,22364,22364,22364,22364,22364,22364,22364,22364,22364,22364,22364,22364,22364,22364,22364,22364,22364,22364,22364,22364,22364,22364,22364,22364,22364,22364,22364,22364,22364,22364,22364,22364,22364,22364,22364,22364,22364,22364,22364,22364,22364,22364,22364,22364,22364,22364,22364,22364,22364,22364,22364,22364,22364,22364,0,22366,0,0,0,0,0,0,0,0,0,
0,0,0,0,0,0,0,0,0,22363,22364,22364,22364,22364,22364,22364,22364,22364,22364,22364,22364,22364,22364,22364,22364,22364,22364,22364,22364,22364,22364,22364,22364,22364,22364,22364,22364,22364,22364,22364,22364,22364,22364,22364,22364,22364,22364,22364,22364,22364,22364,22364,22364,22364,22364,22364,22364,22364,22364,22364,22364,22364,22364,22364,22364,22364,22364,22364,22364,0,22366,0,0,0,0,0,0,0,0,0,
0,0,0,0,0,0,0,0,0,22363,22364,22364,22364,22364,22364,22364,22364,22364,22364,22364,22364,22364,22364,22364,22364,22364,22364,22364,22364,22364,22364,22364,22364,22364,22364,22364,22364,22364,22364,22364,22364,22364,22364,22364,22364,22364,22364,22364,22364,22364,22364,22364,22364,22364,22364,22364,22364,22364,22364,22364,22364,22364,22364,22364,22364,22364,22364,22364,22364,0,22366,0,0,0,0,0,0,0,0,0,
0,0,0,0,0,0,0,0,0,22363,22364,22364,22364,22364,22364,22364,22364,22364,22364,22364,22364,22364,22364,22364,22364,22364,22364,22364,22364,22364,22364,22364,22364,22364,22364,22364,22364,22364,22364,22364,22364,22364,22364,22364,22364,22364,22364,22364,22364,22364,22364,22364,22364,22364,22364,22364,22364,22364,22364,22364,22364,22364,22364,22364,22364,22364,22364,22364,22364,0,22366,0,0,0,0,0,0,0,0,0,
0,0,0,0,0,0,0,0,0,22363,22364,22364,22364,22364,22364,22364,22364,22364,22364,22364,22364,22364,22364,22364,22364,22364,22364,22364,22364,22364,22364,22364,22364,22364,22364,22364,22364,22364,22364,22364,22364,22364,22364,22364,22364,22364,22364,22364,22364,22364,22364,22364,22364,22364,22364,22364,22364,22364,22364,22364,22364,22364,22364,22364,22364,22364,22364,22364,22364,0,22366,0,0,0,0,0,0,0,0,0,
0,0,0,0,0,0,0,0,0,22363,22364,22364,22364,22364,22364,22364,22364,22364,22364,22364,22364,22364,22364,22364,22364,22364,22364,22364,22364,22364,22364,22364,22364,22364,22364,22364,22364,22364,22364,22364,22364,22364,22364,22364,22364,22364,22364,22364,22364,22364,22364,22364,22364,22364,22364,22364,22364,22364,22364,22364,22364,22364,22364,22364,22364,22364,22364,22364,22364,0,22366,0,0,0,0,0,0,0,0,0,
0,0,0,0,0,0,0,0,0,22363,22364,22364,22364,22364,22364,22364,22364,22364,22364,22364,22364,22364,22364,22364,22364,22364,22364,22364,22364,22364,22364,22364,22364,22364,22364,22364,22364,22364,22364,22364,22364,22364,22364,22364,22364,22364,22364,22364,22364,22364,22364,22364,22364,22364,22364,22364,22364,22364,22364,22364,22364,22364,22364,22364,22364,22364,22364,22364,22364,0,22366,0,0,0,0,0,0,0,0,0,
0,0,0,0,0,0,0,0,0,22363,22364,22364,22364,22364,22364,22364,22364,22364,22364,22364,22364,22364,22364,22364,22364,22364,22364,22364,22364,22364,22364,22364,22364,22364,22364,22364,22364,22364,22364,22364,22364,22364,22364,22364,22364,22364,22364,22364,22364,22364,22364,22364,22364,22364,22364,22364,22364,22364,22364,22364,22364,22364,22364,22364,22364,22364,22364,22364,22364,0,22366,0,0,0,0,0,0,0,0,0,
0,0,0,0,0,0,0,0,0,22363,22364,22364,22364,22364,22364,22364,22364,22364,22364,22364,22364,22364,22364,22364,22364,22364,22364,22364,22364,22364,22364,22364,22364,22364,22364,22364,22364,22364,22364,22364,22364,22364,22364,22364,22364,22364,22364,22364,22364,22364,22364,22364,22364,22364,22364,22364,22364,22364,22364,22364,22364,22364,22364,22364,22364,22364,22364,22364,22364,0,22366,0,0,0,0,0,0,0,0,0,
0,0,0,0,0,0,0,0,0,22363,22364,22364,22364,22364,22364,22364,22364,22364,22364,22364,22364,22364,22364,22364,22364,22364,22364,22364,22364,22364,22364,22364,22364,22364,22364,22364,22364,22364,22364,22364,22364,22364,22364,22364,22364,22364,22364,22364,22364,22364,22364,22364,22364,22364,22364,22364,22364,22364,22364,22364,22364,22364,22364,22364,22364,22364,22364,22364,22364,0,22366,0,0,0,0,0,0,0,0,0,
0,0,0,0,0,0,0,0,0,22363,22364,22364,22364,22364,22364,22364,22364,22364,22364,22364,22364,22364,22364,22364,22364,22364,22364,22364,22364,22364,22364,22364,22364,22364,22364,22364,22364,22364,22364,22364,22364,22364,22364,22364,22364,22364,22364,22364,22364,22364,22364,22364,22364,22364,22364,22364,22364,22364,22364,22364,22364,22364,22364,22364,22364,22364,22364,22364,22364,0,22366,0,0,0,0,0,0,0,0,0,
0,0,0,0,0,0,0,0,0,22363,22364,22364,22364,22364,22364,22364,22364,22364,22364,22364,22364,22364,22364,22364,22364,22364,22364,22364,22364,22364,22364,22364,22364,22364,22364,22364,22364,22364,22364,22364,22364,22364,22364,22364,22364,22364,22364,22364,22364,22364,22364,22364,22364,22364,22364,22364,22364,22364,22364,22364,22364,22364,22364,22364,22364,22364,22364,22364,22364,0,22366,0,0,0,0,0,0,0,0,0,
0,0,0,0,0,0,0,0,0,22363,22364,22364,22364,22364,22364,22364,22364,22364,22364,22364,22364,22364,22364,22364,22364,22364,22364,22364,22364,22364,22364,22364,22364,22364,22364,22364,22364,22364,22364,22364,22364,22364,22364,22364,22364,22364,22364,22364,22364,22364,22364,22364,22364,22364,22364,22364,22364,22364,22364,22364,22364,22364,22364,22364,22364,22364,22364,22364,22364,0,22366,0,0,0,0,0,0,0,0,0,
0,0,0,0,0,0,0,0,0,22363,22364,22364,22364,22364,22364,22364,22364,22364,22364,22364,22364,22364,22364,22364,22364,22364,22364,22364,22364,22364,22364,22364,22364,22364,22364,22364,22364,22364,22364,22364,22364,22364,22364,22364,22364,22364,22364,22364,22364,22364,22364,22364,22364,22364,22364,22364,22364,22364,22364,22364,22364,22364,22364,22364,22364,22364,22364,22364,22364,0,22366,0,0,0,0,0,0,0,0,0,
0,0,0,0,0,0,0,0,0,22363,22364,22364,22364,22364,22364,22364,22364,22364,22364,22364,22364,22364,22364,22364,22364,22364,22364,22364,22364,22364,22364,22364,22364,22364,22364,22364,22364,22364,22364,22364,22364,22364,22364,22364,22364,22364,22364,22364,22364,22364,22364,22364,22364,22364,22364,22364,22364,22364,22364,22364,22364,22364,22364,22364,22364,22364,22364,22364,22364,0,22366,0,0,0,0,0,0,0,0,0,
0,0,0,0,0,0,0,0,0,22363,22364,22364,22364,22364,22364,22364,22364,22364,22364,22364,22364,22364,22364,22364,22364,22364,22364,22364,22364,22364,22364,22364,22364,22364,22364,22364,22364,22364,22364,22364,22364,22364,22364,22364,22364,22364,22364,22364,22364,22364,22364,22364,22364,22364,22364,22364,22364,22364,22364,22364,22364,22364,22364,22364,22364,22364,22364,22364,22364,0,22366,0,0,0,0,0,0,0,0,0,
0,0,0,0,0,0,0,0,0,22363,22364,22364,22364,22364,22364,22364,22364,22364,22364,22364,22364,22364,22364,22364,22364,22364,22364,22364,22364,22364,22364,22364,22364,22364,22364,22364,22364,22364,22364,22364,22364,22364,22364,22364,22364,22364,22364,22364,22364,22364,22364,22364,22364,22364,22364,22364,22364,22364,22364,22364,22364,22364,22364,22364,22364,22364,22364,22364,22364,0,22366,0,0,0,0,0,0,0,0,0,
0,0,0,0,0,0,0,0,0,22363,22364,22364,22364,22364,22364,22364,22364,22364,22364,22364,22364,22364,22364,22364,22364,22364,22364,22364,22364,22364,22364,22364,22364,22364,22364,22364,22364,22364,22364,22364,22364,22364,22364,22364,22364,22364,22364,22364,22364,22364,22364,22364,22364,22364,22364,22364,22364,22364,22364,22364,22364,22364,22364,22364,22364,22364,22364,22364,22364,0,22366,0,0,0,0,0,0,0,0,0,
0,0,0,0,0,0,0,0,0,22363,22364,22364,22364,22364,22364,22364,22364,22364,22364,22364,22364,22364,22364,22364,22364,22364,22364,22364,22364,22364,22364,22364,22364,22364,22364,22364,22364,22364,22364,22364,22364,22364,22364,22364,22364,22364,22364,22364,22364,22364,22364,22364,22364,22364,22364,22364,22364,22364,22364,22364,22364,22364,22364,22364,22364,22364,22364,22364,22364,0,22366,0,0,0,0,0,0,0,0,0,
0,0,0,0,0,0,0,0,0,22363,22364,22364,22364,22364,22364,22364,22364,22364,22364,22364,22364,22364,22364,22364,22364,22364,22364,22364,22364,22364,22364,22364,22364,22364,22364,22364,22364,22364,22364,22364,22364,22364,22364,22364,22364,22364,22364,22364,22364,22364,22364,22364,22364,22364,22364,22364,22364,22364,22364,22364,22364,22364,22364,22364,22364,22364,22364,22364,22364,0,22366,0,0,0,0,0,0,0,0,0,
0,0,0,0,0,0,0,0,0,22363,22364,22364,22364,22364,22364,22364,22364,22364,22364,22364,22364,22364,22364,22364,22364,22364,22364,22364,22364,22364,22364,22364,22364,22364,22364,22364,22364,22364,22364,22364,22364,22364,22364,22364,22364,22364,22364,22364,22364,22364,22364,22364,22364,22364,22364,22364,22364,22364,22364,22364,22364,22364,22364,22364,22364,22364,22364,22364,22364,0,22366,0,0,0,0,0,0,0,0,0,
0,0,0,0,0,0,0,0,0,22363,22364,22364,22364,22364,22364,22364,22364,22364,22364,22364,22364,22364,22364,22364,22364,22364,22364,22364,22364,22364,22364,22364,22364,22364,22364,22364,22364,22364,22364,22364,22364,22364,22364,22364,22364,22364,22364,22364,22364,22364,22364,22364,22364,22364,22364,22364,22364,22364,22364,22364,22364,22364,22364,22364,22364,22364,22364,22364,22364,0,22366,0,0,0,0,0,0,0,0,0,
0,0,0,0,0,0,0,0,0,22363,22364,22364,22364,22364,22364,22364,22364,22364,22364,22364,22364,22364,22364,22364,22364,22364,22364,22364,22364,22364,22364,22364,22364,22364,22364,22364,22364,22364,22364,22364,22364,22364,22364,22364,22364,22364,22364,22364,22364,22364,22364,22364,22364,22364,22364,22364,22364,22364,22364,22364,22364,22364,22364,22364,22364,22364,22364,22364,22364,0,22366,0,0,0,0,0,0,0,0,0,
0,0,0,0,0,0,0,0,0,22363,22364,22364,22364,22364,22364,22364,22364,22364,22364,22364,22364,22364,22364,22364,22364,22364,22364,22364,22364,22364,22364,22364,22364,22364,22364,22364,22364,22364,22364,22364,22364,22364,22364,22364,22364,22364,22364,22364,22364,22364,22364,22364,22364,22364,22364,22364,22364,22364,22364,22364,22364,22364,22364,22364,22364,22364,22364,22364,22364,0,22366,0,0,0,0,0,0,0,0,0,
0,0,0,0,0,0,0,0,0,22363,22364,22364,22364,22364,22364,22364,22364,22364,22364,22364,22364,22364,22364,22364,22364,22364,22364,22364,22364,22364,22364,22364,22364,22364,22364,22364,22364,22364,22364,22364,22364,22364,22364,22364,22364,22364,22364,22364,22364,22364,22364,22364,22364,22364,22364,22364,22364,22364,22364,22364,22364,22364,22364,22364,22364,22364,22364,22364,22364,0,22366,0,0,0,0,0,0,0,0,0,
0,0,0,0,0,0,0,0,0,22363,22364,22364,22364,22364,22364,22364,22364,22364,22364,22364,22364,22364,22364,22364,22364,22364,22364,22364,22364,22364,22364,22364,22364,22364,22364,22364,22364,22364,22364,22364,22364,22364,22364,22364,22364,22364,22364,22364,22364,22364,22364,22364,22364,22364,22364,22364,22364,22364,22364,22364,22364,22364,22364,22364,22364,22364,22364,22364,22364,0,22366,0,0,0,0,0,0,0,0,0,
0,0,0,0,0,0,0,0,0,22363,22364,22364,22364,22364,22364,22364,22364,22364,22364,22364,22364,22364,22364,22364,22364,22364,22364,22364,22364,22364,22364,22364,22364,22364,22364,22364,22364,22364,22364,22364,22364,22364,22364,22364,22364,22364,22364,22364,22364,22364,22364,22364,22364,22364,22364,22364,22364,22364,22364,22364,22364,22364,22364,22364,22364,22364,22364,22364,22364,0,22366,0,0,0,0,0,0,0,0,0,
0,0,0,0,0,0,0,0,0,22363,22364,22364,22364,22364,22364,22364,22364,22364,22364,22364,22364,22364,22364,22364,22364,22364,22364,22364,22364,22364,22364,22364,22364,22364,22364,22364,22364,22364,22364,22364,22364,22364,22364,22364,22364,22364,22364,22364,22364,22364,22364,22364,22364,22364,22364,22364,22364,22364,22364,22364,22364,22364,22364,22364,22364,22364,22364,22364,22364,0,22366,0,0,0,0,0,0,0,0,0,
0,0,0,0,0,0,0,0,0,22363,22364,22364,22364,22364,22364,22364,22364,22364,22364,22364,22364,22364,22364,22364,22364,22364,22364,22364,22364,22364,22364,22364,22364,22364,22364,22364,22364,22364,22364,22364,22364,22364,22364,22364,22364,22364,22364,22364,22364,22364,22364,22364,22364,22364,22364,22364,22364,22364,22364,22364,22364,22364,22364,22364,22364,22364,22364,22364,22364,0,22366,0,0,0,0,0,0,0,0,0,
0,0,0,0,0,0,0,0,0,22363,22364,22364,22364,22364,22364,22364,22364,22364,22364,22364,22364,22364,22364,22364,22364,22364,22364,22364,22364,22364,22364,22364,22364,22364,22364,22364,22364,22364,22364,22364,22364,22364,22364,22364,22364,22364,22364,22364,22364,22364,22364,22364,22364,22364,22364,22364,22364,22364,22364,22364,22364,22364,22364,22364,22364,22364,22364,22364,22364,0,22366,0,0,0,0,0,0,0,0,0,
0,0,0,0,0,0,0,0,0,22363,22364,22364,22364,22364,22364,22364,22364,22364,22364,22364,22364,22364,22364,22364,22364,22364,22364,22364,22364,22364,22364,22364,22364,22364,22364,22364,22364,22364,22364,22364,22364,22364,22364,22364,22364,22364,22364,22364,22364,22364,22364,22364,22364,22364,22364,22364,22364,22364,22364,22364,22364,22364,22364,22364,22364,22364,22364,22364,22364,0,22366,0,0,0,0,0,0,0,0,0,
0,0,0,0,0,0,0,0,0,22363,22364,22364,22364,22364,22364,22364,22364,22364,22364,22364,22364,22364,22364,22364,22364,22364,22364,22364,22364,22364,22364,22364,22364,22364,22364,22364,22364,22364,22364,22364,22364,22364,22364,22364,22364,22364,22364,22364,22364,22364,22364,22364,22364,22364,22364,22364,22364,22364,22364,22364,22364,22364,22364,22364,22364,22364,22364,22364,22364,0,22366,0,0,0,0,0,0,0,0,0,
0,0,0,0,0,0,0,0,0,22363,22364,22364,22364,22364,22364,22364,22364,22364,22364,22364,22364,22364,22364,22364,22364,22364,22364,22364,22364,22364,22364,22364,22364,22364,22364,22364,22364,22364,22364,22364,22364,22364,22364,22364,22364,22364,22364,22364,22364,22364,22364,22364,22364,22364,22364,22364,22364,22364,22364,22364,22364,22364,22364,0,0,0,0,0,0,0,22366,0,0,0,0,0,0,0,0,0,
0,0,0,0,0,0,0,0,0,22367,22368,22368,22368,22368,22368,22368,22368,22368,22368,22368,22368,22368,22368,22368,0,0,0,0,0,0,0,0,0,0,0,0,0,0,0,0,0,0,0,0,0,0,0,0,0,0,0,0,0,0,0,0,0,0,0,0,0,0,0,0,0,0,0,0,0,0,22370,0,0,0,0,0,0,0,0,0
</data>
 </layer>
 <layer id="22" name="Trim" width="80" height="60" opacity="0.2">
  <data encoding="csv">
0,0,0,0,0,0,0,0,0,0,0,0,0,0,0,0,0,0,0,0,0,0,0,0,0,0,0,0,0,0,0,0,0,0,0,0,0,0,0,0,0,0,0,0,0,0,0,0,0,0,0,0,0,0,0,0,0,0,0,0,0,0,0,0,0,0,0,0,0,0,0,0,0,0,0,0,0,0,0,0,
0,0,0,0,0,0,0,0,0,0,0,0,0,0,0,0,0,0,0,0,0,0,0,0,0,0,0,0,0,0,0,0,0,0,0,0,0,0,0,0,0,0,0,0,0,0,0,0,0,0,0,0,0,0,0,0,0,0,0,0,0,0,0,0,0,0,0,0,0,0,0,0,0,0,0,0,0,0,0,0,
0,0,0,0,0,0,0,0,0,0,0,0,0,0,0,0,0,0,0,0,0,0,0,0,0,0,0,0,0,0,0,0,0,0,0,0,0,0,0,0,0,0,0,0,0,0,0,0,0,0,0,0,0,0,0,0,0,0,0,0,0,0,0,0,0,0,0,0,0,0,0,0,0,0,0,0,0,0,0,0,
0,0,0,0,0,0,0,0,0,0,0,0,0,0,0,0,0,0,0,0,0,0,0,0,0,0,0,0,0,0,0,0,0,0,0,0,0,0,0,0,0,0,0,0,0,0,0,0,0,0,0,0,0,0,0,0,0,0,0,0,0,0,0,0,0,0,0,0,0,0,0,0,0,0,0,0,0,0,0,0,
0,0,0,0,0,0,0,0,0,0,0,0,0,0,0,0,0,0,0,0,0,0,0,0,0,0,0,0,0,0,0,0,0,0,0,0,0,0,0,0,0,0,0,0,0,0,0,0,0,0,0,0,0,0,0,0,0,0,0,0,0,0,0,0,0,0,0,0,0,0,0,0,0,0,0,0,0,0,0,0,
0,0,0,0,0,0,0,0,0,0,0,0,0,0,0,0,0,0,0,0,0,0,0,0,0,0,0,0,0,0,0,0,0,0,0,0,0,0,0,0,0,0,0,0,0,0,0,0,0,0,0,0,0,0,0,0,0,0,0,0,0,0,0,0,0,0,0,0,0,0,0,0,0,0,0,0,0,0,0,0,
0,0,0,0,0,0,0,0,0,0,0,0,0,0,0,0,0,0,0,0,0,0,0,0,0,0,0,0,0,0,0,0,0,0,0,0,0,0,0,0,0,0,0,0,0,0,0,0,0,0,0,0,0,0,0,0,0,0,0,0,0,0,0,0,0,0,0,0,0,0,0,0,0,0,0,0,0,0,0,0,
0,0,0,0,0,0,0,0,0,0,0,0,0,0,0,0,0,0,0,0,0,0,0,0,0,0,0,0,0,0,0,0,0,0,0,0,0,0,0,0,0,0,0,0,0,0,0,0,0,0,0,0,0,0,0,0,0,0,0,0,0,0,0,0,0,0,0,0,0,0,0,0,0,0,0,0,0,0,0,0,
0,0,0,0,0,0,0,0,0,0,0,0,0,0,0,0,0,0,0,0,0,0,0,0,0,0,0,0,0,0,0,0,0,0,0,0,0,0,0,0,0,0,0,0,0,0,0,0,0,0,0,0,0,0,0,0,0,0,0,0,0,0,0,0,0,0,0,0,0,0,0,0,0,0,0,0,0,0,0,0,
0,0,0,0,0,0,0,0,0,0,0,0,0,0,0,0,0,0,0,0,0,0,0,0,0,0,0,0,0,0,0,0,0,0,0,0,0,0,0,0,0,0,0,0,0,0,0,0,0,0,0,0,0,0,0,0,0,0,0,0,0,0,0,0,0,0,0,0,0,0,0,0,0,0,0,0,0,0,0,0,
0,0,0,0,0,0,0,0,0,0,0,0,0,0,0,0,0,0,0,0,0,0,0,0,0,0,0,0,0,0,0,0,0,0,0,0,0,0,0,0,0,0,0,0,0,0,0,0,0,0,0,0,0,0,0,0,0,0,0,0,0,0,0,0,0,0,0,0,0,0,0,0,0,0,0,0,0,0,0,0,
0,0,0,0,0,0,0,0,0,0,0,0,0,0,0,0,0,0,0,0,0,0,0,0,0,0,0,0,0,0,0,0,0,0,0,0,0,0,0,0,0,0,0,0,0,0,0,0,0,0,0,0,0,0,0,0,0,0,0,0,0,0,0,0,0,0,0,0,0,0,0,0,0,0,0,0,0,0,0,0,
0,0,0,0,0,0,0,0,0,0,0,0,0,0,0,0,0,0,0,0,0,0,0,0,0,0,0,0,0,0,0,0,0,0,0,0,0,0,0,0,0,0,0,0,0,0,0,0,0,0,0,0,0,0,0,0,0,0,0,0,0,0,0,0,0,0,0,0,0,0,0,0,0,0,0,0,0,0,0,0,
0,0,0,0,0,0,0,0,0,0,0,0,0,0,0,0,0,0,0,0,0,0,0,0,0,0,0,0,0,0,0,0,0,0,0,0,0,0,0,0,0,0,0,0,0,0,0,0,0,0,0,0,0,0,0,0,0,0,0,0,0,0,0,0,0,0,0,0,0,0,0,0,0,0,0,0,0,0,0,0,
0,0,0,0,0,0,0,0,0,0,0,0,0,0,0,0,0,0,0,0,0,0,0,0,0,0,0,0,0,0,0,0,0,0,0,0,0,0,0,0,0,0,0,0,0,0,0,0,0,0,0,0,0,0,0,0,0,0,0,0,0,0,0,0,0,0,0,0,0,0,0,0,0,0,0,0,0,0,0,0,
0,0,0,0,0,0,0,0,0,0,0,0,0,0,0,0,0,0,0,0,0,0,0,0,0,0,0,0,0,0,0,0,0,0,0,0,0,0,0,0,0,0,0,0,0,0,0,0,0,0,0,0,0,0,0,0,0,0,0,0,0,0,0,0,0,0,0,0,0,0,0,0,0,0,0,0,0,0,0,0,
0,0,0,0,0,0,0,0,0,0,0,0,0,0,0,0,0,0,0,0,0,0,0,0,0,0,0,0,0,0,0,0,0,0,0,0,0,0,0,0,0,0,0,0,0,0,0,0,0,0,0,0,0,0,0,0,0,0,0,0,0,0,0,0,0,0,0,0,0,0,0,0,0,0,0,0,0,0,0,0,
0,0,0,0,0,0,0,0,0,0,0,0,0,0,0,0,0,0,0,0,0,0,0,0,0,0,0,0,0,0,0,0,0,0,0,0,0,0,0,0,0,0,0,0,0,0,0,0,0,0,0,0,0,0,0,0,0,0,0,0,0,0,0,0,0,0,0,0,0,0,0,0,0,0,0,0,0,0,0,0,
0,0,0,0,0,0,0,0,0,0,0,0,0,0,0,0,0,0,0,0,0,0,0,0,0,0,0,0,0,0,0,0,0,0,0,0,0,0,0,0,0,0,0,0,0,0,0,0,0,0,0,0,0,0,0,0,0,0,0,0,0,0,0,0,0,0,0,0,0,0,0,0,0,0,0,0,0,0,0,0,
0,0,0,0,0,0,0,0,0,0,0,0,0,0,0,0,0,0,0,0,0,0,0,0,0,0,0,0,0,0,0,0,0,0,0,0,0,0,0,0,0,0,0,0,0,0,0,0,0,0,0,0,0,0,0,0,0,0,0,0,0,0,0,0,0,0,0,0,0,0,0,0,0,0,0,0,0,0,0,0,
0,0,0,0,0,0,0,0,0,0,0,0,0,0,0,0,0,0,0,0,0,0,0,0,0,0,0,0,0,0,0,0,0,0,0,0,0,0,0,0,0,0,0,0,0,0,0,0,0,0,0,0,0,0,0,0,0,0,0,0,0,0,0,0,0,0,0,0,0,0,0,0,0,0,0,0,0,0,0,0,
0,0,0,0,0,0,0,0,0,0,0,0,0,0,0,0,0,0,0,0,0,0,0,0,0,0,0,0,0,0,0,0,0,0,0,0,0,0,0,0,0,0,0,0,0,0,0,0,0,0,0,0,0,0,0,0,0,0,0,0,0,0,0,0,0,0,0,0,0,0,0,0,0,0,0,0,0,0,0,0,
0,0,0,0,0,0,0,0,0,0,0,0,0,0,0,0,0,0,0,0,0,0,0,0,0,0,0,0,0,0,0,0,0,0,0,0,0,0,0,0,0,0,0,0,0,0,0,0,0,0,0,0,0,0,0,0,0,0,0,0,0,0,0,0,0,0,0,0,0,0,0,0,0,0,0,0,0,0,0,0,
0,0,0,0,0,0,0,0,0,0,0,0,0,0,0,0,0,0,0,0,0,0,0,0,0,0,0,0,0,0,0,0,0,0,0,0,0,0,0,0,0,0,0,0,0,0,0,0,23115,23115,23115,0,0,0,0,0,0,0,0,0,0,0,0,0,0,0,0,0,0,0,0,0,0,0,0,0,0,0,0,0,
0,0,0,0,0,0,0,0,0,0,0,0,0,0,0,0,0,0,0,0,0,0,0,0,0,0,0,0,0,0,0,0,0,0,0,0,0,0,0,0,0,23115,23115,23115,23115,23115,23115,23115,0,0,0,0,0,0,0,0,0,0,0,0,0,0,0,0,0,0,0,0,0,0,0,0,0,0,0,0,0,0,0,0,
0,0,0,0,0,0,0,0,0,0,0,0,0,0,0,0,0,0,0,0,0,0,0,23115,0,0,0,0,0,0,0,0,0,23115,23115,23115,23115,23115,23115,23115,23115,0,0,0,0,0,0,0,0,0,0,0,0,0,0,0,0,0,0,0,0,0,0,0,0,0,0,0,0,0,0,0,0,0,0,0,0,0,0,0,
0,0,0,0,0,0,0,0,0,0,0,0,0,0,0,0,0,0,0,0,0,0,0,23115,0,0,0,23115,23115,23115,23115,23115,23115,0,0,0,0,0,0,0,0,0,0,0,0,0,0,0,0,0,0,0,0,23115,0,0,0,0,0,0,0,0,0,0,0,0,0,0,0,0,0,0,0,0,0,0,0,0,0,0,
0,0,0,0,0,0,0,0,0,0,0,0,0,0,0,0,0,0,0,0,0,0,0,23115,23115,23115,23115,23115,23115,23115,23115,23115,23115,23115,23115,23115,23115,23115,23115,23115,23115,23115,23115,23115,23115,23115,23115,23115,23115,23115,23115,23115,23115,0,0,0,0,0,0,0,0,0,0,0,0,0,0,0,0,0,0,0,0,0,0,0,0,0,0,0,
0,0,0,0,0,0,0,0,0,0,0,0,0,0,0,0,0,0,0,0,0,0,0,23115,23115,23115,23115,23115,23115,23115,23115,23115,23115,23115,23115,23115,23115,23115,23115,23115,23115,23115,23115,23115,23115,23115,23115,23115,23115,23115,23115,23115,23115,0,0,0,0,0,0,0,0,0,0,0,0,0,0,0,0,0,0,0,0,0,0,0,0,0,0,0,
0,0,0,0,0,0,0,0,0,0,0,0,0,0,0,0,0,0,0,0,0,0,0,0,0,0,0,0,0,0,0,0,0,0,0,0,0,0,0,0,0,0,0,0,0,0,0,0,0,0,0,0,0,0,0,0,0,0,0,0,0,0,0,0,0,0,0,0,0,0,0,0,0,0,0,0,0,0,0,0,
0,0,0,0,0,0,0,0,0,0,0,0,0,0,0,0,0,0,0,0,0,0,0,0,0,0,0,0,0,0,0,0,0,0,0,0,0,0,0,0,0,0,0,0,0,0,0,0,0,0,0,0,0,0,0,0,0,0,0,0,0,0,0,0,0,0,0,0,0,0,0,0,0,0,0,0,0,0,0,0,
0,0,0,0,0,0,0,0,0,0,0,0,0,0,0,0,0,0,0,0,0,0,0,0,0,0,0,0,0,0,0,0,0,0,0,0,0,0,0,0,0,0,0,0,0,0,0,0,0,0,0,0,0,0,0,0,0,0,0,0,0,0,0,0,0,0,0,0,0,0,0,0,0,0,0,0,0,0,0,0,
0,0,0,0,0,0,0,0,0,0,0,0,0,0,0,0,0,0,0,0,0,0,0,0,0,0,0,0,0,0,0,0,0,0,0,0,0,0,0,0,0,0,0,0,0,0,0,0,0,0,0,0,0,0,0,0,0,0,0,0,0,0,0,0,0,0,0,0,0,0,0,0,0,0,0,0,0,0,0,0,
0,0,0,0,0,0,0,0,0,0,0,0,0,0,0,0,0,0,0,0,0,0,0,0,0,0,0,0,0,0,0,0,0,0,0,0,0,0,0,0,0,0,0,0,0,0,0,0,0,0,0,0,0,0,0,0,0,0,0,0,0,0,0,0,0,0,0,0,0,0,0,0,0,0,0,0,0,0,0,0,
0,0,0,0,0,0,0,0,0,0,0,0,0,0,0,0,0,0,0,0,0,0,0,0,0,0,0,0,0,0,0,0,0,0,0,0,0,0,0,0,0,0,0,0,0,0,0,0,0,0,0,0,0,0,0,0,0,0,0,0,0,0,0,0,0,0,0,0,0,0,0,0,0,0,0,0,0,0,0,0,
0,0,0,0,0,0,0,0,0,0,0,0,0,0,0,0,0,0,0,0,0,0,0,0,0,0,0,0,0,0,0,0,0,0,0,0,0,0,0,0,0,0,0,0,0,0,0,0,0,0,0,0,0,0,0,0,0,0,0,0,0,0,0,0,0,0,0,0,0,0,0,0,0,0,0,0,0,0,0,0,
0,0,0,0,0,0,0,0,0,0,0,0,0,0,0,0,0,0,0,0,0,0,0,0,0,0,0,0,0,0,0,0,0,0,0,0,0,0,0,0,0,0,0,0,0,0,0,0,0,0,0,0,0,0,0,0,0,0,0,0,0,0,0,0,0,0,0,0,0,0,0,0,0,0,0,0,0,0,0,0,
0,0,0,0,0,0,0,0,0,0,0,0,0,0,0,0,0,0,0,0,0,0,0,0,0,0,0,0,0,0,0,0,0,0,0,0,0,0,0,0,0,0,0,0,0,0,0,0,0,0,0,0,0,0,0,0,0,0,0,0,0,0,0,0,0,0,0,0,0,0,0,0,0,0,0,0,0,0,0,0,
0,0,0,0,0,0,0,0,0,0,0,0,0,0,0,0,0,0,0,0,0,0,0,0,0,0,0,0,0,0,0,0,0,0,0,0,0,0,0,0,0,0,0,0,0,0,0,0,0,0,0,0,0,0,0,0,0,0,0,0,0,0,0,0,0,0,0,0,0,0,0,0,0,0,0,0,0,0,0,0,
0,0,0,0,0,0,0,0,0,0,0,0,0,0,0,0,0,0,0,0,0,0,0,0,0,0,0,0,0,0,0,0,0,0,0,0,0,0,0,0,0,0,0,0,0,0,0,0,0,0,0,0,0,0,0,0,0,0,0,0,0,0,0,0,0,0,0,0,0,0,0,0,0,0,0,0,0,0,0,0,
0,0,0,0,0,0,0,0,0,0,0,0,0,0,0,0,0,0,0,0,0,0,0,0,0,0,0,0,0,0,0,0,0,0,0,0,0,0,0,0,0,0,0,0,0,0,0,0,0,0,0,0,0,0,0,0,0,0,0,0,0,0,0,0,0,0,0,0,0,0,0,0,0,0,0,0,0,0,0,0,
0,0,0,0,0,0,0,0,0,0,0,0,0,0,0,0,0,0,0,0,0,0,0,0,0,0,0,0,0,0,0,0,0,0,0,0,0,0,0,0,0,0,0,0,0,0,0,0,0,0,0,0,0,0,0,0,0,0,0,0,0,0,0,0,0,0,0,0,0,0,0,0,0,0,0,0,0,0,0,0,
0,0,0,0,0,0,0,0,0,0,0,0,0,0,0,0,0,0,0,0,0,0,0,0,0,0,0,0,0,0,0,0,0,0,0,0,0,0,0,0,0,0,0,0,0,0,0,0,0,0,0,0,0,0,0,0,0,0,0,0,0,0,0,0,0,0,0,0,0,0,0,0,0,0,0,0,0,0,0,0,
0,0,0,0,0,0,0,0,0,0,0,0,0,0,0,0,0,0,0,0,0,0,0,0,0,0,0,0,0,0,0,0,0,0,0,0,0,0,0,0,0,0,0,0,0,0,0,0,0,0,0,0,0,0,0,0,0,0,0,0,0,0,0,0,0,0,0,0,0,0,0,0,0,0,0,0,0,0,0,0,
0,0,0,0,0,0,0,0,0,0,0,0,0,0,0,0,0,0,0,0,0,0,0,0,0,0,0,0,0,0,0,0,0,0,0,0,0,0,0,0,0,0,0,0,0,0,0,0,0,0,0,0,0,0,0,0,0,0,0,0,0,0,0,0,0,0,0,0,0,0,0,0,0,0,0,0,0,0,0,0,
0,0,0,0,0,0,0,0,0,0,0,0,0,0,0,0,0,0,0,0,0,0,0,0,0,0,0,0,0,0,0,0,0,0,0,0,0,0,0,0,0,0,0,0,0,0,0,0,0,0,0,0,0,0,0,0,0,0,0,0,0,0,0,0,0,0,0,0,0,0,0,0,0,0,0,0,0,0,0,0,
0,0,0,0,0,0,0,0,0,0,0,0,0,0,0,0,0,0,0,0,0,0,0,0,0,0,0,0,0,0,0,0,0,0,0,0,0,0,0,0,0,0,0,0,0,0,0,0,0,0,0,0,0,0,0,0,0,0,0,0,0,0,0,0,0,0,0,0,0,0,0,0,0,0,0,0,0,0,0,0,
0,0,0,0,0,0,0,0,0,0,0,0,0,0,0,0,0,0,0,0,0,0,0,0,0,0,0,0,0,0,0,0,0,0,0,0,0,0,0,0,0,0,0,0,0,0,0,0,0,0,0,0,0,0,0,0,0,0,0,0,0,0,0,0,0,0,0,0,0,0,0,0,0,0,0,0,0,0,0,0,
0,0,0,0,0,0,0,0,0,0,0,0,0,0,0,0,0,0,0,0,0,0,0,0,0,0,0,0,0,0,0,0,0,0,0,0,0,0,0,0,0,0,0,0,0,0,0,0,0,0,0,0,0,0,0,0,0,0,0,0,0,0,0,0,0,0,0,0,0,0,0,0,0,0,0,0,0,0,0,0,
0,0,0,0,0,0,0,0,0,0,0,0,0,0,0,0,0,0,0,0,0,0,0,0,0,0,0,0,0,0,0,0,0,0,0,0,0,0,0,0,0,0,0,0,0,0,0,0,0,0,0,0,0,0,0,0,0,0,0,0,0,0,0,0,0,0,0,0,0,0,0,0,0,0,0,0,0,0,0,0,
0,0,0,0,0,0,0,0,0,0,0,0,0,0,0,0,0,0,0,0,0,0,0,0,0,0,0,0,0,0,0,0,0,0,0,0,0,0,0,0,0,0,0,0,0,0,0,0,0,0,0,0,0,0,0,0,0,0,0,0,0,0,0,0,0,0,0,0,0,0,0,0,0,0,0,0,0,0,0,0,
0,0,0,0,0,0,0,0,0,0,0,0,0,0,0,0,0,0,0,0,0,0,0,0,0,0,0,0,0,0,0,0,0,0,0,0,0,0,0,0,0,0,0,0,0,0,0,0,0,0,0,0,0,0,0,0,0,0,0,0,0,0,0,0,0,0,0,0,0,0,0,0,0,0,0,0,0,0,0,0,
0,0,0,0,0,0,0,0,0,0,0,0,0,0,0,0,0,0,0,0,0,0,0,0,0,0,0,0,0,0,0,0,0,0,0,0,0,0,0,0,0,0,0,0,0,0,0,0,0,0,0,0,0,0,0,0,0,0,0,0,0,0,0,0,0,0,0,0,0,0,0,0,0,0,0,0,0,0,0,0,
0,0,0,0,0,0,0,0,0,0,0,0,0,0,0,0,0,0,0,0,0,0,0,0,0,0,0,0,0,0,0,0,0,0,0,0,0,0,0,0,0,0,0,0,0,0,0,0,0,0,0,0,0,0,0,0,0,0,0,0,0,0,0,0,0,0,0,0,0,0,0,0,0,0,0,0,0,0,0,0,
0,0,0,0,0,0,0,0,0,0,0,0,0,0,0,0,0,0,0,0,0,0,0,0,0,0,0,0,0,0,0,0,0,0,0,0,0,0,0,0,0,0,0,0,0,0,0,0,0,0,0,0,0,0,0,0,0,0,0,0,0,0,0,0,0,0,0,0,0,0,0,0,0,0,0,0,0,0,0,0,
0,0,0,0,0,0,0,0,0,0,0,0,0,0,0,0,0,0,0,0,0,0,0,0,0,0,0,0,0,0,0,0,0,0,0,0,0,0,0,0,0,0,0,0,0,0,0,0,0,0,0,0,0,0,0,0,0,0,0,0,0,0,0,0,0,0,0,0,0,0,0,0,0,0,0,0,0,0,0,0,
0,0,0,0,0,0,0,0,0,0,0,0,0,0,0,0,0,0,0,0,0,0,0,0,0,0,0,0,0,0,0,0,0,0,0,0,0,0,0,0,0,0,0,0,0,0,0,0,0,0,0,0,0,0,0,0,0,0,0,0,0,0,0,0,0,0,0,0,0,0,0,0,0,0,0,0,0,0,0,0,
0,0,0,0,0,0,0,0,0,0,0,0,0,0,0,0,0,0,0,0,0,0,0,0,0,0,0,0,0,0,0,0,0,0,0,0,0,0,0,0,0,0,0,0,0,0,0,0,0,0,0,0,0,0,0,0,0,0,0,0,0,0,0,0,0,0,0,0,0,0,0,0,0,0,0,0,0,0,0,0,
0,0,0,0,0,0,0,0,0,0,0,0,0,0,0,0,0,0,0,0,0,0,0,0,0,0,0,0,0,0,0,0,0,0,0,0,0,0,0,0,0,0,0,0,0,0,0,0,0,0,0,0,0,0,0,0,0,0,0,0,0,0,0,0,0,0,0,0,0,0,0,0,0,0,0,0,0,0,0,0,
0,0,0,0,0,0,0,0,0,0,0,0,0,0,0,0,0,0,0,0,0,0,0,0,0,0,0,0,0,0,0,0,0,0,0,0,0,0,0,0,0,0,0,0,0,0,0,0,0,0,0,0,0,0,0,0,0,0,0,0,0,0,0,0,0,0,0,0,0,0,0,0,0,0,0,0,0,0,0,0
</data>
 </layer>
 <layer id="17" name="Overlays" width="80" height="60" offsetx="-1" offsety="2">
  <data encoding="csv">
0,0,0,0,0,0,0,0,0,0,0,0,0,0,0,0,0,0,0,0,0,0,0,0,0,0,0,0,0,0,0,0,0,0,0,0,0,0,0,0,0,0,0,0,0,0,0,0,0,0,0,0,0,0,0,0,0,0,0,0,0,0,0,0,0,0,0,0,0,0,0,0,0,0,0,0,0,0,0,0,
0,0,0,0,0,0,0,0,0,0,0,0,0,0,0,0,0,0,0,0,0,0,0,0,0,0,0,0,0,0,0,0,0,0,0,0,0,0,0,0,0,0,0,0,0,0,0,0,0,0,0,0,0,0,0,0,0,0,0,0,0,0,0,0,0,0,0,0,0,0,0,0,0,0,0,0,0,0,0,0,
0,0,0,0,0,0,0,0,0,0,0,0,0,0,0,0,0,0,0,0,0,0,0,23379,23380,23381,23382,23383,23384,23385,23386,23387,23388,23389,23390,23391,23392,23393,23394,23395,23396,23397,23398,23399,23400,23401,23402,23403,23404,23405,23406,23407,23408,0,0,0,0,0,0,0,0,0,0,0,0,0,0,0,0,0,0,0,0,0,0,0,0,0,0,0,
0,0,0,0,0,0,0,0,0,0,0,0,0,0,0,0,0,0,0,0,0,0,0,23409,23410,23411,23412,23413,23414,23415,23416,23417,23418,23419,23420,23421,23422,23423,23424,23425,23426,23427,23428,23429,23430,23431,23432,23433,23434,23435,23436,23437,23438,0,0,0,0,0,0,0,0,0,0,0,0,0,0,0,0,0,0,0,0,0,0,0,0,0,0,0,
0,0,0,0,0,0,0,0,0,0,0,0,0,0,0,0,0,0,0,0,0,0,0,23439,23440,23441,23442,23443,23444,23445,23446,23447,23448,23449,23450,23451,23452,23453,23454,23455,23456,23457,23458,23459,23460,23461,23462,23463,23464,23465,23466,23467,23468,0,0,0,0,0,0,0,0,0,0,0,0,0,0,0,0,0,0,0,0,0,0,0,0,0,0,0,
0,0,0,0,0,0,0,0,0,0,0,0,0,0,0,0,0,0,0,0,0,0,0,23469,23470,23471,23472,23473,23474,23475,23476,23477,23478,23479,23480,23481,23482,23483,23484,23485,23486,23487,23488,23489,23490,23491,23492,23493,23494,23495,23496,23497,23498,0,0,0,0,0,0,0,0,0,0,0,0,0,0,0,0,0,0,0,0,0,0,0,0,0,0,0,
0,0,0,0,0,0,0,0,0,0,0,0,0,0,0,0,0,0,0,0,0,0,0,23499,23500,23501,23502,23503,23504,23505,23506,23507,23508,23509,23510,23511,23512,23513,23514,23515,23516,23517,23518,23519,23520,23521,23522,23523,23524,23525,23526,23527,23528,0,0,0,0,0,0,0,0,0,0,0,0,0,0,0,0,0,0,0,0,0,0,0,0,0,0,0,
0,0,0,0,0,0,0,0,0,0,0,0,0,0,0,0,0,0,0,0,0,0,0,23529,23530,23531,23532,23533,23534,23535,23536,23537,23538,23539,23540,23541,23542,23543,23544,23545,23546,23547,23548,23549,23550,23551,23552,23553,23554,23555,23556,23557,23558,0,0,0,0,0,0,0,0,0,0,0,0,0,0,0,0,0,0,0,0,0,0,0,0,0,0,0,
0,0,0,0,0,0,0,0,0,0,0,0,0,0,0,0,0,0,0,0,0,0,0,23559,23560,23561,23562,23563,23564,23565,23566,23567,23568,23569,23570,23571,23572,23573,23574,23575,23576,23577,23578,23579,23580,23581,23582,23583,23584,23585,23586,23587,23588,0,0,0,0,0,0,0,0,0,0,0,0,0,0,0,0,0,0,0,0,0,0,0,0,0,0,0,
0,0,0,0,0,0,0,0,0,0,0,0,0,0,0,0,0,0,0,0,0,0,0,23589,23590,23591,23592,23593,23594,23595,23596,23597,23598,23599,23600,23601,23602,23603,23604,23605,23606,23607,23608,23609,23610,23611,23612,23613,23614,23615,23616,23617,23618,0,0,0,0,0,0,0,0,0,0,0,0,0,0,0,0,0,0,0,0,0,0,0,0,0,0,0,
0,0,0,0,0,0,0,0,0,0,0,0,0,0,0,0,0,0,0,0,0,0,0,23619,23620,23621,23622,23623,23624,23625,23626,23627,23628,23629,23630,23631,23632,23633,23634,23635,23636,23637,23638,23639,23640,23641,23642,23643,23644,23645,23646,23647,23648,0,0,0,0,0,0,0,0,0,0,0,0,0,0,0,0,0,0,0,0,0,0,0,0,0,0,0,
0,0,0,0,0,0,0,0,0,0,0,0,0,0,0,0,0,0,0,0,0,0,0,23649,23650,23651,23652,23653,23654,23655,23656,23657,23658,23659,23660,23661,23662,23663,23664,23665,23666,23667,23668,23669,23670,23671,23672,23673,23674,23675,23676,23677,23678,0,0,0,0,0,0,0,0,0,0,0,0,0,0,0,0,0,0,0,0,0,0,0,0,0,0,0,
0,0,0,0,0,0,0,0,0,0,0,0,0,0,0,0,0,0,0,0,0,0,0,23679,23680,23681,23682,23683,23684,23685,23686,23687,23688,23689,23690,23691,23692,23693,23694,23695,23696,23697,23698,23699,23700,23701,23702,23703,23704,23705,23706,23707,23708,0,0,0,0,0,0,0,0,0,0,0,0,0,0,0,0,0,0,0,0,0,0,0,0,0,0,0,
0,0,0,0,0,0,0,0,0,0,0,0,0,0,0,0,0,0,0,0,0,0,0,23709,23710,23711,23712,23713,23714,23715,23716,23717,23718,23719,23720,23721,23722,23723,23724,23725,23726,23727,23728,23729,23730,23731,23732,23733,23734,23735,23736,23737,23738,0,0,0,0,0,0,0,0,0,0,0,0,0,0,0,0,0,0,0,0,0,0,0,0,0,0,0,
0,0,0,0,0,0,0,0,0,0,0,0,0,0,0,0,0,0,0,0,0,0,0,23739,23740,23741,23742,23743,23744,23745,23746,23747,23748,23749,23750,23751,23752,23753,23754,23755,23756,23757,23758,23759,23760,23761,23762,23763,23764,23765,23766,23767,23768,0,0,0,0,0,0,0,0,0,0,0,0,0,0,0,0,0,0,0,0,0,0,0,0,0,0,0,
0,0,0,0,0,0,0,0,0,0,0,0,0,0,0,0,0,0,0,0,0,0,0,23769,23770,23771,23772,23773,23774,23775,23776,23777,23778,23779,23780,23781,23782,23783,23784,23785,23786,23787,23788,23789,23790,23791,23792,23793,23794,23795,23796,23797,23798,0,0,0,0,0,0,0,0,0,0,0,0,0,0,0,0,0,0,0,0,0,0,0,0,0,0,0,
0,0,0,0,0,0,0,0,0,0,0,0,0,0,0,0,0,0,0,0,0,0,0,23799,23800,23801,23802,23803,23804,23805,23806,23807,23808,23809,23810,23811,23812,23813,23814,23815,23816,23817,23818,23819,23820,23821,23822,23823,23824,23825,23826,23827,23828,0,0,0,0,0,0,0,0,0,0,0,0,0,0,22319,22320,22321,0,0,0,0,0,0,0,0,0,0,
0,0,0,0,0,0,0,0,0,0,0,0,0,0,0,0,0,0,0,0,0,0,0,23829,23830,23831,23832,23833,23834,23835,23836,23837,23838,23839,23840,23841,23842,23843,23844,23845,23846,23847,23848,23849,23850,23851,23852,23853,23854,23855,23856,23857,23858,0,0,0,0,0,0,0,0,0,0,0,0,0,0,22323,22324,22325,0,0,0,0,0,0,0,0,0,0,
0,0,0,0,0,0,0,22333,22334,22363,0,0,0,0,0,0,0,0,0,0,0,0,0,23859,23860,23861,23862,23863,23864,23865,23866,23867,23868,23869,23870,23871,23872,23873,23874,23875,23876,23877,23878,23879,23880,23881,23882,23883,23884,23885,23886,23887,23888,0,0,0,0,0,0,0,0,0,0,0,0,0,0,22327,22328,22329,0,0,0,0,0,0,0,0,0,0,
0,22333,22334,0,0,0,0,22337,22338,22363,0,0,0,0,0,0,0,0,0,0,0,0,0,23889,23890,23891,23892,23893,23894,23895,23896,23897,23898,23899,23900,23901,23902,23903,23904,23905,23906,23907,23908,23909,23910,23911,23912,23913,23914,23915,23916,23917,23918,0,0,0,0,0,0,0,0,0,0,0,0,0,0,0,0,22365,22358,0,0,0,0,0,0,0,0,0,
0,22337,22338,0,0,22326,22346,0,0,22363,0,0,0,0,0,0,0,0,0,0,0,0,0,23919,23920,23921,23922,23923,23924,23925,23926,23927,23928,23929,23930,23931,23932,23933,23934,23935,23936,23937,23938,23939,23940,23941,23942,23943,23944,23945,23946,23947,23948,0,0,0,0,0,0,0,0,0,0,0,0,0,0,0,0,22365,0,0,0,0,0,0,0,0,0,0,
0,0,0,0,0,22330,22350,0,0,22363,0,0,0,0,0,0,0,0,0,0,0,0,0,23949,23950,23951,23952,23953,23954,23955,23956,23957,23958,23959,23960,23961,23962,23963,23964,23965,23966,23967,23968,23969,23970,23971,23972,23973,23974,23975,23976,23977,23978,0,0,0,0,0,0,0,0,0,0,0,0,0,0,0,0,22365,0,0,0,0,0,0,0,0,0,0,
0,0,0,0,0,0,0,0,0,22363,0,0,0,0,0,0,0,0,0,0,0,0,0,23979,23980,23981,23982,23983,23984,23985,23986,23987,23988,23989,23990,23991,23992,23993,23994,23995,23996,23997,23998,23999,24000,24001,24002,24003,24004,24005,24006,24007,24008,0,0,0,0,0,0,0,0,0,0,0,0,0,0,0,0,22365,0,0,0,0,0,0,0,0,0,0,
0,0,0,0,0,0,0,0,0,22363,0,0,0,0,0,0,0,0,0,0,0,0,0,24009,24010,24011,24012,24013,24014,24015,24016,24017,24018,24019,24020,24021,24022,24023,24024,24025,24026,24027,24028,24029,24030,24031,24032,24033,24034,24035,24036,24037,24038,0,0,0,0,0,0,0,0,0,0,0,0,0,0,0,0,22365,0,0,0,0,0,0,0,0,0,0,
0,0,0,0,0,0,0,0,0,22363,0,0,0,0,0,0,0,0,0,0,0,0,0,24039,24040,24041,24042,24043,24044,24045,24046,24047,24048,24049,24050,24051,24052,24053,24054,24055,24056,24057,24058,24059,24060,24061,24062,24063,24064,24065,24066,24067,24068,0,0,0,0,0,0,0,0,0,0,0,0,0,0,0,0,22365,0,0,0,0,0,0,0,0,0,0,
0,0,0,0,0,0,0,0,0,22363,0,0,0,0,0,0,0,0,0,0,0,0,0,24069,24070,24071,24072,24073,24074,24075,24076,24077,24078,24079,24080,24081,24082,24083,24084,24085,24086,24087,24088,24089,24090,24091,24092,24093,24094,24095,24096,24097,24098,0,0,0,0,0,0,0,0,0,0,0,0,0,0,0,0,22365,0,0,0,0,0,0,0,0,0,0,
0,0,0,0,0,0,0,0,0,22363,0,0,0,0,0,0,0,0,0,0,0,0,0,24099,24100,24101,24102,24103,24104,24105,24106,24107,24108,24109,24110,24111,24112,24113,24114,24115,24116,24117,24118,24119,24120,24121,24122,24123,24124,24125,24126,24127,24128,0,0,0,0,0,0,0,0,0,0,0,0,0,0,0,0,22365,0,0,0,0,0,0,0,0,0,0,
0,0,0,0,0,0,0,0,0,22363,0,0,0,0,0,0,0,0,0,0,0,0,0,24129,24130,24131,24132,24133,24134,24135,24136,24137,24138,24139,24140,24141,24142,24143,24144,24145,24146,24147,24148,24149,24150,24151,24152,24153,24154,24155,24156,24157,24158,0,0,0,0,0,0,0,0,0,0,0,0,0,0,0,0,22365,0,0,0,0,0,0,0,0,0,0,
0,0,0,0,0,0,0,0,0,22363,0,0,0,0,0,0,0,0,0,0,0,0,0,0,0,0,0,0,0,0,0,0,0,0,0,0,0,0,0,0,0,0,0,0,0,0,0,0,0,0,0,0,0,0,0,0,0,0,0,0,0,0,0,0,0,0,0,0,0,22365,0,0,0,0,0,0,0,0,0,0,
0,0,0,0,0,0,0,0,0,22363,0,0,0,0,0,0,0,0,0,0,0,0,0,0,0,0,0,0,0,0,0,0,0,0,0,0,0,0,0,0,0,0,0,0,0,0,0,0,0,0,0,0,0,0,0,0,0,0,0,0,0,0,0,0,0,0,0,0,0,22365,0,0,0,0,0,0,0,0,0,0,
0,0,0,0,0,0,0,0,0,22363,0,0,0,0,0,0,0,0,0,0,0,0,0,0,0,0,0,0,0,0,0,0,0,0,0,0,0,0,0,0,0,0,0,0,0,0,0,0,0,0,0,0,0,0,0,0,0,0,0,0,0,0,0,0,0,0,0,0,0,22365,0,0,0,0,0,0,0,0,0,0,
0,0,0,0,0,0,0,0,0,22363,0,0,0,0,0,0,0,0,0,0,0,0,0,0,0,0,0,0,0,0,0,0,0,0,0,0,0,0,0,0,0,0,0,0,0,0,0,0,0,0,0,0,0,0,0,0,0,0,0,0,0,0,0,0,0,0,0,0,0,22365,0,0,0,0,0,0,0,0,0,0,
0,0,0,0,0,0,0,0,0,22363,0,0,0,0,0,0,0,0,0,0,0,0,0,0,0,0,0,0,0,0,0,0,0,0,0,0,0,0,0,0,0,0,0,0,0,0,0,0,0,0,0,0,0,0,0,0,0,0,0,0,0,0,0,0,0,0,0,0,0,22365,0,0,0,0,0,0,0,0,0,0,
0,0,0,0,0,0,0,0,0,22363,0,0,0,0,0,0,0,0,0,0,0,0,0,0,0,0,0,0,0,0,0,0,0,0,0,0,0,0,0,0,0,0,0,0,0,0,0,0,0,0,0,0,0,0,0,0,0,0,0,0,0,0,0,0,0,0,0,0,0,22365,0,0,0,0,0,0,0,0,0,0,
0,0,0,0,0,0,0,0,0,22363,0,0,0,0,0,0,0,0,0,0,0,0,0,0,0,0,0,0,0,0,0,0,0,0,0,0,0,0,0,0,0,0,0,0,0,0,0,0,0,0,0,0,0,0,0,0,0,0,0,0,0,0,0,0,0,0,0,0,0,22365,0,0,0,0,0,0,0,0,0,0,
0,0,0,0,0,0,0,0,0,22363,0,0,0,0,0,0,0,0,0,0,0,0,0,0,0,0,0,0,0,0,0,0,0,0,0,0,0,0,0,0,0,0,0,0,0,0,0,0,0,0,0,0,0,0,0,0,0,0,0,0,0,0,0,0,0,0,0,0,0,22365,0,0,0,0,0,0,0,0,0,0,
0,0,0,0,0,0,0,0,0,22363,0,0,0,0,0,0,0,0,0,0,0,0,0,0,0,0,0,0,0,0,0,0,0,0,0,0,0,0,0,0,0,0,0,0,0,0,0,0,0,0,0,0,0,0,0,0,0,0,0,0,0,0,0,0,0,0,0,0,0,22365,0,0,0,0,0,0,0,0,0,0,
0,0,0,0,0,0,0,0,0,22363,0,0,0,0,0,0,0,0,0,0,0,0,0,0,0,0,0,0,0,0,0,0,0,0,0,0,0,0,0,0,0,0,0,0,0,0,0,0,0,0,0,0,0,0,0,0,0,0,0,0,0,0,0,0,0,0,0,0,0,22365,0,0,0,0,0,0,0,0,0,0,
0,0,0,0,0,0,0,0,0,22363,0,0,0,0,0,0,0,0,0,0,0,0,0,0,0,0,0,0,0,0,0,0,0,0,0,0,0,0,0,0,0,0,0,0,0,0,0,0,0,0,0,0,0,0,0,0,0,0,0,0,0,0,0,0,0,0,0,0,0,22365,0,0,0,0,0,0,0,0,0,0,
0,0,0,0,0,0,0,0,0,22363,0,0,0,0,0,0,0,0,0,0,0,0,0,0,0,0,0,0,0,0,0,0,0,0,0,0,0,0,0,0,0,0,0,0,0,0,0,0,0,0,0,0,0,0,0,0,0,0,0,0,0,0,0,0,0,0,0,0,0,22365,0,0,0,0,0,0,0,0,0,0,
0,0,0,0,0,0,0,0,0,22363,0,0,0,0,0,0,0,0,0,0,0,0,0,0,0,0,0,0,0,0,0,0,0,0,0,0,0,0,0,0,0,0,0,0,0,0,0,0,0,0,0,0,0,0,0,0,0,0,0,0,0,0,0,0,0,0,0,0,0,22365,0,0,0,0,0,0,0,0,0,0,
0,0,0,0,0,0,0,0,0,22363,0,0,0,0,0,0,0,0,0,0,0,0,0,0,0,0,0,0,0,0,0,0,0,0,0,0,0,0,0,0,0,0,0,0,0,0,0,0,0,0,0,0,0,0,0,0,0,0,0,0,0,0,0,0,0,0,0,0,0,22365,0,0,0,0,0,0,0,0,0,0,
0,0,0,0,0,0,0,0,0,22363,0,0,0,0,0,0,0,0,0,0,0,0,0,0,0,0,0,0,0,0,0,0,0,0,0,0,0,0,0,0,0,0,0,0,0,0,0,0,0,0,0,0,0,0,0,0,0,0,0,0,0,0,0,0,0,0,0,0,0,22365,0,0,0,0,0,0,0,0,0,0,
0,0,0,0,0,0,0,0,0,22363,0,0,0,0,0,0,0,0,0,0,0,0,0,0,0,0,0,0,0,0,0,0,0,0,0,0,0,0,0,0,0,0,0,0,0,0,0,0,0,0,0,0,0,0,0,0,0,0,0,0,0,0,0,0,0,0,0,0,0,22365,0,0,0,0,0,0,0,0,0,0,
0,0,0,0,0,0,0,0,0,22363,0,0,0,0,0,0,0,0,0,0,0,0,0,0,0,0,0,0,0,0,0,0,0,0,0,0,0,0,0,0,0,0,0,0,0,0,0,0,0,0,0,0,0,0,0,0,0,0,0,0,0,0,0,0,0,0,0,0,0,22365,0,0,0,0,0,0,0,0,0,0,
0,0,0,0,0,0,0,0,0,22363,0,0,0,0,0,0,0,0,0,0,0,0,0,0,0,0,0,0,0,0,0,0,0,0,0,0,0,0,0,0,0,0,0,0,0,0,0,0,0,0,0,0,0,0,0,0,0,0,0,0,0,0,0,0,0,0,0,0,0,22365,0,0,0,0,0,0,0,0,0,0,
0,0,0,0,0,0,0,0,0,22363,0,0,0,0,0,0,0,0,0,0,0,0,0,0,0,0,0,0,0,0,0,0,0,0,0,0,0,0,0,0,0,0,0,0,0,0,0,0,0,0,0,0,0,0,0,0,0,0,0,0,0,0,0,0,0,0,0,0,0,22365,0,0,0,0,0,0,0,0,0,0,
0,0,0,0,0,0,0,0,0,22363,0,0,0,0,0,0,0,0,0,0,0,0,0,0,0,0,0,0,0,0,0,0,0,0,0,0,0,0,0,0,0,0,0,0,0,0,0,0,0,0,0,0,0,0,0,0,0,0,0,0,0,0,0,0,0,0,0,0,0,22365,0,0,0,0,0,0,0,0,0,0,
0,0,0,0,0,0,0,0,0,22363,0,0,0,0,0,0,0,0,0,0,0,0,0,0,0,0,0,0,0,0,0,0,0,0,0,0,0,0,0,0,0,0,0,0,0,0,0,0,0,0,0,0,0,0,0,0,0,0,0,0,0,0,0,0,0,0,0,0,0,22365,0,0,0,0,0,0,0,0,0,0,
0,0,0,0,0,0,0,0,0,22363,0,0,0,0,0,0,0,0,0,0,0,0,0,0,0,0,0,0,0,0,0,0,0,0,0,0,0,0,0,0,0,0,0,0,0,0,0,0,0,0,0,0,0,0,0,0,0,0,0,0,0,0,0,0,0,0,0,0,0,22365,0,0,0,0,0,0,0,0,0,0,
0,0,0,0,0,0,0,0,0,22363,0,0,0,0,0,0,0,0,0,0,0,0,0,0,0,0,0,0,0,0,0,0,0,0,0,0,0,0,0,0,0,0,0,0,0,0,0,0,0,0,0,0,0,0,0,0,0,0,0,0,0,0,0,0,0,0,0,0,0,22365,0,0,0,0,0,0,0,0,0,0,
0,0,0,0,0,0,0,0,0,22363,0,0,0,0,0,0,0,0,0,0,0,0,0,0,0,0,0,0,0,0,0,0,0,0,0,0,0,0,0,0,0,0,0,0,0,0,0,0,0,0,0,0,0,0,0,0,0,0,0,0,0,0,0,0,0,0,0,0,0,22365,0,0,0,0,0,0,0,0,0,0,
0,0,0,0,0,0,0,0,0,22363,0,0,0,0,0,0,0,0,0,0,0,0,0,0,0,0,0,0,0,0,0,0,0,0,0,0,0,0,0,0,0,0,0,0,0,0,0,0,0,0,0,0,0,0,0,0,0,0,0,0,0,0,0,0,0,0,0,0,0,22365,0,0,0,0,0,0,0,0,0,0,
0,0,0,0,0,0,0,0,0,22363,0,0,0,0,0,0,0,0,0,0,0,0,0,0,0,0,0,0,0,0,0,0,0,0,0,0,0,0,0,0,0,0,0,0,0,0,0,0,0,0,0,0,0,0,0,0,0,0,0,0,0,0,0,0,0,0,0,0,0,22365,0,0,0,0,0,0,0,0,0,0,
0,0,0,0,0,0,0,0,0,22363,0,0,0,0,0,0,0,0,0,0,0,0,0,0,0,0,0,0,0,0,0,0,0,0,0,0,0,0,0,0,0,0,0,0,0,0,0,0,0,0,0,0,0,0,0,0,0,0,0,0,0,0,0,0,0,0,0,0,0,22365,0,0,0,0,0,0,0,0,0,0,
0,0,0,0,0,0,0,0,0,22363,0,0,0,0,0,0,0,0,0,0,0,0,0,0,0,0,0,0,0,0,0,0,0,0,0,0,0,0,0,0,0,0,0,0,0,0,0,0,0,0,0,0,0,0,0,0,0,0,0,0,0,0,0,0,0,0,0,0,0,22365,0,0,0,0,0,0,0,0,0,0,
0,0,0,0,0,0,0,0,0,22363,0,0,0,0,0,0,0,0,0,0,0,0,0,0,0,0,0,0,0,0,0,0,0,0,0,0,0,0,0,0,0,0,0,0,0,0,0,0,0,0,0,0,0,0,0,0,0,0,0,0,0,0,0,0,0,0,0,0,0,22365,0,0,0,0,0,0,0,0,0,0,
0,0,0,0,0,0,0,0,0,22363,0,0,0,0,0,0,0,0,0,0,0,0,0,0,0,0,0,0,0,0,0,0,0,0,0,0,0,0,0,0,0,0,0,0,0,0,0,0,0,0,0,0,0,0,0,0,0,0,0,0,0,0,0,0,0,0,0,0,0,22365,0,0,0,0,0,0,0,0,0,0,
0,0,0,0,0,0,0,0,0,22363,0,0,0,0,0,0,0,0,0,0,22368,0,0,0,0,0,0,0,0,0,0,0,0,0,0,0,0,0,0,0,0,0,0,0,0,0,0,0,0,0,0,0,0,0,0,0,0,0,0,0,0,0,22364,22364,22364,22364,22364,22364,22364,22365,0,0,0,0,0,0,0,0,0,0,
0,0,0,0,0,0,0,0,0,22367,22368,22368,22368,22368,22368,22368,22368,22368,22368,22368,22368,22368,22368,22368,22368,22368,22368,22368,22368,22368,22368,22368,22368,22368,22368,22368,22368,22368,22368,22368,22368,22368,22368,22368,22368,22368,22368,22368,22368,22368,22368,22368,22368,22368,22368,22368,22368,22368,22368,22368,22368,22368,22368,22368,22368,22368,22368,22368,22368,22369,0,0,0,0,0,0,0,0,0,0
</data>
 </layer>
 <layer id="23" name="Collision" width="80" height="60">
  <data encoding="csv">
0,0,0,0,0,0,0,0,0,0,0,0,0,0,0,0,0,0,0,0,0,0,0,0,0,0,0,0,0,0,0,0,0,0,0,0,0,0,0,0,0,0,0,0,0,0,0,0,0,0,0,0,0,0,0,0,0,0,0,0,0,0,0,0,0,0,0,0,0,0,0,0,0,0,0,0,0,0,0,0,
0,0,0,0,0,0,0,0,0,0,0,0,0,0,0,0,0,0,0,0,0,0,0,0,0,0,0,0,0,0,0,0,0,0,0,0,0,0,0,0,0,0,0,0,0,0,0,0,0,0,0,0,0,0,0,0,0,0,0,0,0,0,0,0,0,0,0,0,0,0,0,0,0,0,0,0,0,0,0,0,
0,0,0,0,0,0,0,0,0,0,0,0,0,0,0,0,0,0,0,0,0,0,0,0,0,0,0,0,0,0,0,0,0,0,0,0,0,0,0,0,0,0,0,0,0,0,0,0,0,0,0,0,0,0,0,0,0,0,0,0,0,0,0,0,0,0,0,0,0,0,0,0,0,0,0,0,0,0,0,0,
0,0,0,0,0,0,0,0,0,0,0,0,0,0,0,0,0,0,0,0,0,0,0,0,0,0,0,0,0,0,0,0,0,0,0,0,0,0,0,0,0,0,0,0,0,0,0,0,0,0,0,0,0,0,0,0,0,0,0,0,0,0,0,0,0,0,0,0,0,0,0,0,0,0,0,0,0,0,0,0,
0,0,0,0,0,0,0,0,0,0,0,0,0,0,0,0,0,0,0,0,0,0,0,0,0,0,0,0,0,0,0,0,0,0,0,0,0,0,0,0,0,0,0,0,0,0,0,0,0,0,0,0,0,0,0,0,0,0,0,0,0,0,0,0,0,0,0,0,0,0,0,0,0,0,0,0,0,0,0,0,
0,0,0,0,0,0,0,0,0,0,0,0,0,0,0,0,0,0,0,0,0,0,0,0,0,0,0,0,0,0,0,0,0,0,0,0,0,0,0,0,0,0,0,0,0,0,0,0,0,0,0,0,0,0,0,0,0,0,0,0,0,0,0,0,0,0,0,0,0,0,0,0,0,0,0,0,0,0,0,0,
0,0,0,0,0,0,0,0,0,0,0,0,0,0,0,0,0,0,0,0,0,0,0,0,0,0,0,0,0,0,0,0,0,0,0,0,0,0,0,0,0,0,0,0,0,0,0,0,0,0,0,0,0,0,0,0,0,0,0,0,0,0,0,0,0,0,0,0,0,0,0,0,0,0,0,0,0,0,0,0,
0,0,0,0,0,0,0,0,0,0,0,0,0,0,0,0,0,0,0,0,0,0,0,0,0,0,0,0,0,0,0,0,0,0,0,0,0,0,0,0,0,0,0,0,0,0,0,0,0,0,0,0,0,0,0,0,0,0,0,0,0,0,0,0,0,0,0,0,0,0,0,0,0,0,0,0,0,0,0,0,
0,0,0,0,0,0,0,0,0,0,0,0,0,0,0,0,0,0,0,0,0,0,0,0,0,0,0,0,0,0,0,0,0,0,0,0,0,0,0,0,0,0,0,0,0,0,0,0,0,0,0,0,0,0,0,0,0,0,0,0,0,0,0,0,0,0,0,0,0,0,0,0,0,0,0,0,0,0,0,0,
0,0,0,0,0,0,0,0,0,0,0,0,0,0,0,0,0,0,0,0,0,0,0,0,0,0,0,0,0,0,0,0,0,0,0,0,0,0,0,0,0,0,0,0,0,0,0,0,0,0,0,0,0,0,0,0,0,0,0,0,0,0,0,0,0,0,0,0,0,0,0,0,0,0,0,0,0,0,0,0,
0,0,0,0,0,0,0,0,0,0,0,0,0,0,0,0,0,0,0,0,0,0,0,0,0,0,0,0,0,0,0,0,0,0,0,0,0,0,0,0,0,0,0,0,0,0,0,0,0,0,0,0,0,0,0,0,0,0,0,0,0,0,0,0,0,0,0,0,0,0,0,0,0,0,0,0,0,0,0,0,
0,0,0,0,0,0,0,0,0,0,0,0,0,0,0,0,0,0,0,0,0,0,0,0,0,0,0,0,0,0,0,0,0,0,0,0,0,0,0,0,0,0,0,0,0,0,0,0,0,0,0,0,0,0,0,0,0,0,0,0,0,0,0,0,0,0,0,0,0,0,0,0,0,0,0,0,0,0,0,0,
0,0,0,0,0,0,0,0,0,0,0,0,0,0,0,0,0,0,0,0,0,0,0,0,0,0,0,0,0,0,0,0,0,0,0,0,0,0,0,0,0,0,0,0,0,0,0,0,0,0,0,0,0,0,0,0,0,0,0,0,0,0,0,0,0,0,0,0,0,0,0,0,0,0,0,0,0,0,0,0,
0,0,0,0,0,0,0,0,0,0,0,0,0,0,0,0,0,0,0,0,0,0,0,0,0,0,0,0,0,0,0,0,0,0,0,0,0,0,0,0,0,0,0,0,0,0,0,0,0,0,0,0,0,0,0,0,0,0,0,0,0,0,0,0,0,0,0,0,0,0,0,0,0,0,0,0,0,0,0,0,
0,0,0,0,0,0,0,0,0,0,0,0,0,0,0,0,0,0,0,0,0,0,0,0,0,0,0,0,0,0,0,0,0,0,0,0,0,0,0,0,0,0,0,0,0,0,0,0,0,0,0,0,0,0,0,0,0,0,0,0,0,0,0,0,0,0,0,0,0,0,0,0,0,0,0,0,0,0,0,0,
0,0,0,0,0,0,0,0,0,0,0,0,0,0,0,0,0,0,0,0,0,0,0,0,0,0,0,0,0,0,0,0,0,0,0,0,0,0,0,0,0,0,0,0,0,0,0,0,0,0,0,0,0,0,0,0,0,0,0,0,0,0,0,0,0,0,0,0,0,0,0,0,0,0,0,0,0,0,0,0,
0,0,0,0,0,0,0,0,0,0,0,0,0,0,0,0,0,0,0,0,0,0,0,0,0,0,0,0,0,0,0,0,0,0,0,0,0,0,0,0,0,0,0,0,0,0,0,0,0,0,0,0,0,0,0,0,0,0,0,0,0,0,0,0,0,0,0,0,0,0,0,0,0,0,0,0,0,0,0,0,
0,0,0,0,0,0,0,0,0,0,0,0,0,0,0,0,0,0,0,0,0,0,0,0,0,0,0,0,0,0,0,0,0,0,0,0,0,0,0,0,0,0,0,0,0,0,0,0,0,0,0,0,0,0,0,0,0,0,0,0,0,0,0,0,0,0,0,0,0,0,0,0,0,0,0,0,0,0,0,0,
0,0,0,0,0,0,0,0,0,0,0,0,0,0,0,0,0,0,0,0,0,0,0,0,0,0,0,0,0,0,0,0,0,0,0,0,0,0,0,0,0,0,0,0,0,0,0,0,0,0,0,0,0,0,0,0,0,0,0,0,0,0,0,0,0,0,0,0,0,0,0,0,0,0,0,0,0,0,0,0,
0,0,0,0,0,0,0,0,0,0,0,0,0,0,0,0,0,0,0,0,0,0,0,0,0,0,0,0,0,0,0,0,0,0,0,0,0,0,0,0,0,0,0,0,0,0,0,0,0,0,0,0,0,0,0,0,0,0,0,0,0,0,0,0,0,0,0,0,0,0,0,0,0,0,0,0,0,0,0,0,
0,0,0,0,0,0,0,0,0,0,0,0,0,0,0,0,0,0,0,0,0,0,0,0,0,0,0,0,0,0,0,0,0,0,0,0,0,0,0,0,0,0,0,0,0,0,0,0,0,0,0,0,0,0,0,0,0,0,0,0,0,0,0,0,0,0,0,0,0,0,0,0,0,0,0,0,0,0,0,0,
0,0,0,0,0,0,0,0,0,0,0,0,0,0,0,0,0,0,0,0,0,0,0,0,0,0,0,0,0,0,0,0,0,0,0,0,0,0,0,0,0,0,0,0,0,0,0,0,0,0,0,0,0,0,0,0,0,0,0,0,0,0,0,0,0,0,0,0,0,0,0,0,0,0,0,0,0,0,0,0,
0,0,0,0,0,0,0,0,0,0,0,0,0,0,0,0,0,0,0,0,0,0,0,0,0,0,0,0,0,0,0,0,0,0,0,0,0,0,0,0,0,0,0,0,0,0,0,0,0,0,0,0,0,0,0,0,0,0,0,0,0,0,0,0,0,0,0,0,0,0,0,0,0,0,0,0,0,0,0,0,
0,0,0,0,0,0,0,0,0,0,0,0,0,0,0,0,0,0,0,0,0,0,0,0,0,0,0,0,0,0,0,0,0,0,0,0,0,0,0,0,0,0,0,0,0,0,0,0,0,0,0,0,0,0,0,0,0,0,0,0,0,0,0,0,0,0,0,0,0,0,0,0,0,0,0,0,0,0,0,0,
0,0,0,0,0,0,0,0,0,0,0,0,0,0,0,0,0,0,0,0,0,0,0,0,0,0,0,0,0,0,0,0,0,0,0,0,0,0,0,0,0,0,0,0,0,0,0,0,0,0,0,0,0,0,0,0,0,0,0,0,0,0,0,0,0,0,0,0,0,0,0,0,0,0,0,0,0,0,0,0,
0,0,0,0,0,0,0,0,0,0,0,0,0,0,0,0,0,0,0,0,0,0,0,0,0,0,0,0,0,0,0,0,0,0,0,0,0,0,0,0,0,0,0,0,0,0,0,0,0,0,0,0,0,0,0,0,0,0,0,0,0,0,0,0,0,0,0,0,0,0,0,0,0,0,0,0,0,0,0,0,
0,0,0,0,0,0,0,0,0,0,0,0,0,0,0,0,0,0,0,0,0,0,0,0,0,0,0,0,0,0,0,0,0,0,0,0,0,0,0,0,0,0,0,0,0,0,0,0,0,0,0,0,0,0,0,0,0,0,0,0,0,0,0,0,0,0,0,0,0,0,0,0,0,0,0,0,0,0,0,0,
0,0,0,0,0,0,0,0,0,0,0,0,0,0,0,0,0,0,0,0,0,0,0,0,0,0,0,0,0,0,0,0,0,0,0,0,0,0,0,0,0,0,0,0,0,0,0,0,0,0,0,0,0,0,0,0,0,0,0,0,0,0,0,0,0,0,0,0,0,0,0,0,0,0,0,0,0,0,0,0,
0,0,0,0,0,0,0,0,0,0,0,0,0,0,0,0,0,0,0,0,0,0,0,0,0,0,0,0,0,0,0,0,0,0,0,0,0,0,0,0,0,0,0,0,0,0,0,0,0,0,0,0,0,0,0,0,0,0,0,0,0,0,0,0,0,0,0,0,0,0,0,0,0,0,0,0,0,0,0,0,
0,0,0,0,0,0,0,0,0,0,0,0,0,0,0,0,0,0,0,0,0,0,0,0,0,0,0,0,0,0,0,0,0,0,0,0,0,0,0,0,0,0,0,0,0,0,0,0,0,0,0,0,0,0,0,0,0,0,0,0,0,0,0,0,0,0,0,0,0,0,0,0,0,0,0,0,0,0,0,0,
0,0,0,0,0,0,0,0,0,0,0,0,0,0,0,0,0,0,0,0,0,0,0,0,0,0,0,0,0,0,0,0,0,0,0,0,0,0,0,0,0,0,0,0,0,0,0,0,0,0,0,0,0,0,0,0,0,0,0,0,0,0,0,0,0,0,0,0,0,0,0,0,0,0,0,0,0,0,0,0,
0,0,0,0,0,0,0,0,0,0,0,0,0,0,0,0,0,0,0,0,0,0,0,0,0,0,0,0,0,0,0,0,0,0,0,0,0,0,0,0,0,0,0,0,0,0,0,0,0,0,0,0,0,0,0,0,0,0,0,0,0,0,0,0,0,0,0,0,0,0,0,0,0,0,0,0,0,0,0,0,
0,0,0,0,0,0,0,0,0,0,0,0,0,0,0,0,0,0,0,0,0,0,0,0,0,0,0,0,0,0,0,0,0,0,0,0,0,0,0,0,0,0,0,0,0,0,0,0,0,0,0,0,0,0,0,0,0,0,0,0,0,0,0,0,0,0,0,0,0,0,0,0,0,0,0,0,0,0,0,0,
0,0,0,0,0,0,0,0,0,0,0,0,0,0,0,0,0,0,0,0,0,0,0,0,0,0,0,0,0,0,0,0,0,0,0,0,0,0,0,0,0,0,0,0,0,0,0,0,0,0,0,0,0,0,0,0,0,0,0,0,0,0,0,0,0,0,0,0,0,0,0,0,0,0,0,0,0,0,0,0,
0,0,0,0,0,0,0,0,0,0,0,0,0,0,0,0,0,0,0,0,0,0,0,0,0,0,0,0,0,0,0,0,0,0,0,0,0,0,0,0,0,0,0,0,0,0,0,0,0,0,0,0,0,0,0,0,0,0,0,0,0,0,0,0,0,0,0,0,0,0,0,0,0,0,0,0,0,0,0,0,
0,0,0,0,0,0,0,0,0,0,0,0,0,0,0,0,0,0,0,0,0,0,0,0,0,0,0,0,0,0,0,0,0,0,0,0,0,0,0,0,0,0,0,0,0,0,0,0,0,0,0,0,0,0,0,0,0,0,0,0,0,0,0,0,0,0,0,0,0,0,0,0,0,0,0,0,0,0,0,0,
0,0,0,0,0,0,0,0,0,0,0,0,0,0,0,0,0,0,0,0,0,0,0,0,0,0,0,0,0,0,0,0,0,0,0,0,0,0,0,0,0,0,0,0,0,0,0,0,0,0,0,0,0,0,0,0,0,0,0,0,0,0,0,0,0,0,0,0,0,0,0,0,0,0,0,0,0,0,0,0,
0,0,0,0,0,0,0,0,0,0,0,0,0,0,0,0,0,0,0,0,0,0,0,0,0,0,0,0,0,0,0,0,0,0,0,0,0,0,0,0,0,0,0,0,0,0,0,0,0,0,0,0,0,0,0,0,0,0,0,0,0,0,0,0,0,0,0,0,0,0,0,0,0,0,0,0,0,0,0,0,
0,0,0,0,0,0,0,0,0,0,0,0,0,0,0,0,0,0,0,0,0,0,0,0,0,0,0,0,0,0,0,0,0,0,0,0,0,0,0,0,0,0,0,0,0,0,0,0,0,0,0,0,0,0,0,0,0,0,0,0,0,0,0,0,0,0,0,0,0,0,0,0,0,0,0,0,0,0,0,0,
0,0,0,0,0,0,0,0,0,0,0,0,0,0,0,0,0,0,0,0,0,0,0,0,0,0,0,0,0,0,0,0,0,0,0,0,0,0,0,0,0,0,0,0,0,0,0,0,0,0,0,0,0,0,0,0,0,0,0,0,0,0,0,0,0,0,0,0,0,0,0,0,0,0,0,0,0,0,0,0,
0,0,0,0,0,0,0,0,0,0,0,0,0,0,0,0,0,0,0,0,0,0,0,0,0,0,0,0,0,0,0,0,0,0,0,0,0,0,0,0,0,0,0,0,0,0,0,0,0,0,0,0,0,0,0,0,0,0,0,0,0,0,0,0,0,0,0,0,0,0,0,0,0,0,0,0,0,0,0,0,
0,0,0,0,0,0,0,0,0,0,0,0,0,0,0,0,0,0,0,0,0,0,0,0,0,0,0,0,0,0,0,0,0,0,0,0,0,0,0,0,0,0,0,0,0,0,0,0,0,0,0,0,0,0,0,0,0,0,0,0,0,0,0,0,0,0,0,0,0,0,0,0,0,0,0,0,0,0,0,0,
0,0,0,0,0,0,0,0,0,0,0,0,0,0,0,0,0,0,0,0,0,0,0,0,0,0,0,0,0,0,0,0,0,0,0,0,0,0,0,0,0,0,0,0,0,0,0,0,0,0,0,0,0,0,0,0,0,0,0,0,0,0,0,0,0,0,0,0,0,0,0,0,0,0,0,0,0,0,0,0,
0,0,0,0,0,0,0,0,0,0,0,0,0,0,0,0,0,0,0,0,0,0,0,0,0,0,0,0,0,0,0,0,0,0,0,0,0,0,0,0,0,0,0,0,0,0,0,0,0,0,0,0,0,0,0,0,0,0,0,0,0,0,0,0,0,0,0,0,0,0,0,0,0,0,0,0,0,0,0,0,
0,0,0,0,0,0,0,0,0,0,0,0,0,0,0,0,0,0,0,0,0,0,0,0,0,0,0,0,0,0,0,0,0,0,0,0,0,0,0,0,0,0,0,0,0,0,0,0,0,0,0,0,0,0,0,0,0,0,0,0,0,0,0,0,0,0,0,0,0,0,0,0,0,0,0,0,0,0,0,0,
0,0,0,0,0,0,0,0,0,0,0,0,0,0,0,0,0,0,0,0,0,0,0,0,0,0,0,0,0,0,0,0,0,0,0,0,0,0,0,0,0,0,0,0,0,0,0,0,0,0,0,0,0,0,0,0,0,0,0,0,0,0,0,0,0,0,0,0,0,0,0,0,0,0,0,0,0,0,0,0,
0,0,0,0,0,0,0,0,0,0,0,0,0,0,0,0,0,0,0,0,0,0,0,0,0,0,0,0,0,0,0,0,0,0,0,0,0,0,0,0,0,0,0,0,0,0,0,0,0,0,0,0,0,0,0,0,0,0,0,0,0,0,0,0,0,0,0,0,0,0,0,0,0,0,0,0,0,0,0,0,
0,0,0,0,0,0,0,0,0,0,0,0,0,0,0,0,0,0,0,0,0,0,0,0,0,0,0,0,0,0,0,0,0,0,0,0,0,0,0,0,0,0,0,0,0,0,0,0,0,0,0,0,0,0,0,0,0,0,0,0,0,0,0,0,0,0,0,0,0,0,0,0,0,0,0,0,0,0,0,0,
0,0,0,0,0,0,0,0,0,0,0,0,0,0,0,0,0,0,0,0,0,0,0,0,0,0,0,0,0,0,0,0,0,0,0,0,0,0,0,0,0,0,0,0,0,0,0,0,0,0,0,0,0,0,0,0,0,0,0,0,0,0,0,0,0,0,0,0,0,0,0,0,0,0,0,0,0,0,0,0,
0,0,0,0,0,0,0,0,0,0,0,0,0,0,0,0,0,0,0,0,0,0,0,0,0,0,0,0,0,0,0,0,0,0,0,0,0,0,0,0,0,0,0,0,0,0,0,0,0,0,0,0,0,0,0,0,0,0,0,0,0,0,0,0,0,0,0,0,0,0,0,0,0,0,0,0,0,0,0,0,
0,0,0,0,0,0,0,0,0,0,0,0,0,0,0,0,0,0,0,0,0,0,0,0,0,0,0,0,0,0,0,0,0,0,0,0,0,0,0,0,0,0,0,0,0,0,0,0,0,0,0,0,0,0,0,0,0,0,0,0,0,0,0,0,0,0,0,0,0,0,0,0,0,0,0,0,0,0,0,0,
0,0,0,0,0,0,0,0,0,0,0,0,0,0,0,0,0,0,0,0,0,0,0,0,0,0,0,0,0,0,0,0,0,0,0,0,0,0,0,0,0,0,0,0,0,0,0,0,0,0,0,0,0,0,0,0,0,0,0,0,0,0,0,0,0,0,0,0,0,0,0,0,0,0,0,0,0,0,0,0,
0,0,0,0,0,0,0,0,0,0,0,0,0,0,0,0,0,0,0,0,0,0,0,0,0,0,0,0,0,0,0,0,0,0,0,0,0,0,0,0,0,0,0,0,0,0,0,0,0,0,0,0,0,0,0,0,0,0,0,0,0,0,0,0,0,0,0,0,0,0,0,0,0,0,0,0,0,0,0,0,
0,0,0,0,0,0,0,0,0,0,0,0,0,0,0,0,0,0,0,0,0,0,0,0,0,0,0,0,0,0,0,0,0,0,0,0,0,0,0,0,0,0,0,0,0,0,0,0,0,0,0,0,0,0,0,0,0,0,0,0,0,0,0,0,0,0,0,0,0,0,0,0,0,0,0,0,0,0,0,0,
0,0,0,0,0,0,0,0,0,0,0,0,0,0,0,0,0,0,0,0,0,0,0,0,0,0,0,0,0,0,0,0,0,0,0,0,0,0,0,0,0,0,0,0,0,0,0,0,0,0,0,0,0,0,0,0,0,0,0,0,0,0,0,0,0,0,0,0,0,0,0,0,0,0,0,0,0,0,0,0,
0,0,0,0,0,0,0,0,0,0,0,0,0,0,0,0,0,0,0,0,0,0,0,0,0,0,0,0,0,0,0,0,0,0,0,0,0,0,0,0,0,0,0,0,0,0,0,0,0,0,0,0,0,0,0,0,0,0,0,0,0,0,0,0,0,0,0,0,0,0,0,0,0,0,0,0,0,0,0,0,
0,0,0,0,0,0,0,0,0,0,0,0,0,0,0,0,0,0,0,0,0,0,0,0,0,0,0,0,0,0,0,0,0,0,0,0,0,0,0,0,0,0,0,0,0,0,0,0,0,0,0,0,0,0,0,0,0,0,0,0,0,0,0,0,0,0,0,0,0,0,0,0,0,0,0,0,0,0,0,0,
0,0,0,0,0,0,0,0,0,0,0,0,0,0,0,0,0,0,0,0,0,0,0,0,0,0,0,0,0,0,0,0,0,0,0,0,0,0,0,0,0,0,0,0,0,0,0,0,0,0,0,0,0,0,0,0,0,0,0,0,0,0,0,0,0,0,0,0,0,0,0,0,0,0,0,0,0,0,0,0
</data>
 </layer>
 <objectgroup id="6" name="Entities" offsetx="6" offsety="454">
  <object id="1" name="spawn_street" type="PlayerSpawn" x="1216" y="768" width="32" height="32">
   <properties>
    <property name="spawnId" value="Entities"/>
   </properties>
  </object>
  <object id="2" name="npc.reporter" type="NPC" x="1024" y="704" width="32" height="32">
   <properties>
    <property name="characterId" value="npc.reporter"/>
    <property name="name" value="Court Reporter"/>
    <property name="sprite" value="npc.reporter"/>
    <property name="storyKnot" value="reporter_intro"/>
   </properties>
  </object>
  <object id="3" name="npc.tourist" type="NPC" x="1472" y="640" width="32" height="32">
   <properties>
    <property name="characterId" value="npc.tourist"/>
    <property name="name" value="Excited Tourist"/>
    <property name="sprite" value="npc.tourist"/>
    <property name="storyKnot" value="tourist_intro"/>
   </properties>
  </object>
  <object id="4" name="lamp_left" type="Prop" x="928" y="736" width="32" height="32">
   <properties>
    <property name="sprite" value="lamp_post"/>
   </properties>
  </object>
  <object id="5" name="lamp_right" type="Prop" x="1536" y="736" width="32" height="32">
   <properties>
    <property name="sprite" value="lamp_post"/>
   </properties>
  </object>
  <object id="6" name="tree_left" type="Prop" x="896" y="608" width="32" height="32">
   <properties>
    <property name="collision" type="bool" value="false"/>
    <property name="sprite" value="prop.lpc_tree_11"/>
   </properties>
  </object>
  <object id="7" name="tree_left_mid" type="Prop" x="1024" y="576" width="32" height="32">
   <properties>
    <property name="collision" type="bool" value="false"/>
    <property name="sprite" value="prop.lpc_tree_05"/>
   </properties>
  </object>
  <object id="8" name="tree_right_mid" type="Prop" x="1440" y="576" width="32" height="32">
   <properties>
    <property name="collision" type="bool" value="false"/>
    <property name="sprite" value="prop.lpc_tree_07"/>
   </properties>
  </object>
  <object id="9" name="tree_right" type="Prop" x="1568" y="608" width="32" height="32">
   <properties>
    <property name="collision" type="bool" value="false"/>
    <property name="sprite" value="prop.lpc_tree_13"/>
   </properties>
  </object>
  <object id="10" name="bench_left" type="Prop" x="960" y="768" width="32" height="32">
   <properties>
    <property name="sprite" value="bench"/>
   </properties>
  </object>
  <object id="11" name="bench_right" type="Prop" x="1504" y="768" width="32" height="32">
   <properties>
    <property name="sprite" value="bench"/>
   </properties>
  </object>
  <object id="13" name="door_lobby" type="Door" x="1195" y="280" width="72" height="50">
   <properties>
    <property name="targetLevel" value="scotus_lobby"/>
    <property name="toMap" value="scotus_lobby"/>
    <property name="toSpawn" value="default"/>
   </properties>
  </object>
  <object id="14" name="door_library_side" type="Door" x="928" y="480" width="32" height="32">
   <properties>
    <property name="targetLevel" value="library"/>
    <property name="toMap" value="library"/>
    <property name="toSpawn" value="default"/>
   </properties>
  </object>
  <object id="15" name="door_records_side" type="Door" x="1536" y="480" width="32" height="32">
   <properties>
    <property name="targetLevel" value="records_vault"/>
    <property name="toMap" value="records_vault"/>
    <property name="toSpawn" value="default"/>
   </properties>
  </object>
  <object id="17" name="prop_lpc_tree_11__trees__2" type="Prop" x="896" y="608" width="32" height="32">
   <properties>
    <property name="collision" type="bool" value="false"/>
    <property name="propId" value="prop.lpc_tree_11"/>
    <property name="sprite" value="prop.lpc_tree_11"/>
   </properties>
  </object>
  <object id="18" name="prop_lpc_tree_05__trees__3" type="Prop" x="1024" y="576" width="32" height="32">
   <properties>
    <property name="collision" type="bool" value="false"/>
    <property name="propId" value="prop.lpc_tree_05"/>
    <property name="sprite" value="prop.lpc_tree_05"/>
   </properties>
  </object>
  <object id="19" name="prop_lpc_tree_07__trees__4" type="Prop" x="1440" y="576" width="32" height="32" visible="0">
   <properties>
    <property name="collision" type="bool" value="false"/>
    <property name="propId" value="prop.lpc_tree_07"/>
    <property name="sprite" value="prop.lpc_tree_07"/>
   </properties>
  </object>
  <object id="20" name="prop_lpc_tree_13__trees__5" type="Prop" x="1568" y="608" width="32" height="32">
   <properties>
    <property name="collision" type="bool" value="false"/>
    <property name="propId" value="prop.lpc_tree_13"/>
    <property name="sprite" value="prop.lpc_tree_13"/>
   </properties>
  </object>
 </objectgroup>
</map>
