<?xml version="1.0" encoding="UTF-8"?>
<map version="1.10" tiledversion="1.11.2" orientation="orthogonal" renderorder="right-down" width="8" height="32" tilewidth="32" tileheight="32" infinite="0" nextlayerid="10" nextobjectid="12">
 <tileset firstgid="1" source="../tilesets/scotus_floors.tsx"/>
 <tileset firstgid="33" source="../tilesets/scotus_structures.tsx"/>
 <tileset firstgid="81" source="../tilesets/scotus_decor.tsx"/>
 <tileset firstgid="97" source="../tilesets/collision.tsx"/>
 <layer id="7083" name="Floor" width="8" height="32">
  <data encoding="csv">
6,2,11,4,2,6,4,11,
3,10,5,4,2,11,11,8,
6,2,3,10,9,2,12,11,
6,2,4,6,3,9,8,6,
5,2,11,12,4,5,12,2,
5,4,9,8,8,10,2,6,
8,10,3,12,2,3,3,6,
10,10,6,12,12,11,12,11,
10,4,6,6,5,4,9,4,
9,4,8,8,11,6,12,11,
5,4,4,10,8,5,9,5,
11,4,12,3,8,9,5,10,
3,6,10,8,11,6,6,5,
9,10,8,10,9,10,4,12,
2,2,9,5,10,11,3,2,
9,6,4,5,10,3,11,2,
10,6,9,5,5,10,8,4,
9,6,2,5,3,8,5,8,
12,10,11,4,5,5,2,8,
2,5,2,12,4,4,6,2,
3,12,9,6,8,8,12,12,
6,11,12,9,10,12,9,9,
8,12,8,5,12,5,3,10,
11,10,5,11,11,9,8,10,
8,12,6,6,6,11,2,12,
9,10,5,4,10,11,3,6,
10,5,4,8,10,2,5,12,
6,6,2,4,12,11,6,5,
2,6,3,12,11,3,10,4,
8,5,9,9,9,3,4,2,
9,9,2,6,2,6,6,5,
12,12,12,12,10,3,12,2
</data>
 </layer>
 <layer id="1331" name="Walls" width="8" height="32">
  <data encoding="csv">
0,0,0,0,0,0,0,0,
0,0,0,0,0,0,0,0,
0,0,0,0,0,0,0,0,
0,0,0,0,0,0,0,0,
0,0,0,0,0,0,0,0,
0,0,0,0,0,0,0,0,
0,0,0,0,0,0,0,0,
0,0,0,0,0,0,0,0,
0,0,0,0,0,0,0,0,
0,0,0,0,0,0,0,0,
0,0,0,0,0,0,0,0,
0,0,0,0,0,0,0,0,
0,0,0,0,0,0,0,0,
0,0,0,0,0,0,0,0,
0,0,0,0,0,0,0,0,
0,0,0,0,0,0,0,0,
0,0,0,0,0,0,0,0,
0,0,0,0,0,0,0,0,
0,0,0,0,0,0,0,0,
0,0,0,0,0,0,0,0,
0,0,0,0,0,0,0,0,
0,0,0,0,0,0,0,0,
0,0,0,0,0,0,0,0,
0,0,0,0,0,0,0,0,
0,0,0,0,0,0,0,0,
0,0,0,0,0,0,0,0,
0,0,0,0,0,0,0,0,
0,0,0,0,0,0,0,0,
0,0,0,0,0,0,0,0,
0,0,0,0,0,0,0,0,
0,0,0,0,0,0,0,0,
0,0,0,0,0,0,0,0
</data>
 </layer>
 <layer id="3159" name="Trim" width="8" height="32">
  <data encoding="csv">
134,3221225603,3221225603,3221225603,3221225603,3221225603,3221225603,133,
1610612865,0,0,0,0,0,0,2684354689,
1610612865,0,0,0,0,0,0,2684354689,
1610612865,0,0,0,0,0,0,2684354689,
1610612865,0,0,0,0,0,0,2684354689,
1610612865,0,0,0,0,0,0,2684354689,
1610612865,0,0,0,0,0,0,2684354689,
1610612865,0,0,0,0,0,0,2684354689,
1610612865,0,0,0,0,0,0,2684354689,
1610612865,0,0,0,0,0,0,2684354689,
1610612865,0,0,0,0,0,0,2684354689,
1610612865,0,0,0,0,0,0,2684354689,
1610612865,0,0,0,0,0,0,2684354689,
1610612865,0,0,0,0,0,0,2684354689,
1610612865,0,0,0,0,0,0,2684354689,
1610612865,0,0,0,0,0,0,2684354689,
1610612865,0,0,0,0,0,0,2684354689,
1610612865,0,0,0,0,0,0,2684354689,
1610612865,0,0,0,0,0,0,2684354689,
1610612865,0,0,0,0,0,0,2684354689,
1610612865,0,0,0,0,0,0,2684354689,
1610612865,0,0,0,0,0,0,2684354689,
1610612865,0,0,0,0,0,0,2684354689,
1610612865,0,0,0,0,0,0,2684354689,
1610612865,0,0,0,0,0,0,2684354689,
1610612865,0,0,0,0,0,0,2684354689,
1610612865,0,0,0,0,0,0,2684354689,
1610612865,0,0,0,0,0,0,2684354689,
1610612865,0,0,0,0,0,0,2684354689,
1610612865,0,0,0,0,0,0,2684354689,
1610612865,0,0,0,0,0,0,2684354689,
3221225605,131,131,131,131,131,131,2684354693
</data>
 </layer>
 <layer id="8407" name="Overlays" width="8" height="32">
  <data encoding="csv">
0,0,0,0,0,0,0,0,
0,0,0,0,0,0,0,0,
0,0,81,81,81,81,0,0,
0,0,81,81,81,81,0,0,
0,0,81,81,81,81,0,0,
0,0,81,81,81,81,0,0,
0,0,81,81,81,81,0,0,
0,0,81,81,81,81,0,0,
0,0,81,81,81,81,0,0,
0,0,81,81,81,81,0,0,
0,0,81,81,81,81,0,0,
0,0,81,81,81,81,0,0,
0,0,81,81,81,81,0,0,
0,0,81,81,81,81,0,0,
0,0,81,81,81,81,0,0,
0,0,81,81,81,81,0,0,
0,0,81,81,81,81,0,0,
0,0,81,81,81,81,0,0,
0,0,81,81,81,81,0,0,
0,0,81,81,81,81,0,0,
0,0,81,81,81,81,0,0,
0,0,81,81,81,81,0,0,
0,0,81,81,81,81,0,0,
0,0,81,81,81,81,0,0,
0,0,81,81,81,81,0,0,
0,0,81,81,81,81,0,0,
0,0,81,81,81,81,0,0,
0,0,81,81,81,81,0,0,
0,0,81,81,81,81,0,0,
0,0,81,81,81,81,0,0,
0,0,0,0,0,0,0,0,
0,0,0,0,0,0,0,0
</data>
 </layer>
 <layer id="7173" name="Collision" width="8" height="32">
  <properties>
   <property name="isCollision" type="bool" value="true"/>
  </properties>
  <data encoding="csv">
163,163,163,163,163,163,163,163,
163,0,0,0,0,0,0,163,
163,0,0,0,0,0,0,163,
163,0,0,0,0,0,0,163,
163,0,0,0,0,0,0,163,
163,0,0,0,0,0,0,163,
163,0,0,0,0,0,0,163,
163,0,0,0,0,0,0,163,
163,0,0,0,0,0,0,163,
163,0,0,0,0,0,0,163,
163,0,0,0,0,0,0,163,
163,0,0,0,0,0,0,163,
163,0,0,0,0,0,0,163,
163,0,0,0,0,0,0,163,
163,0,0,0,0,0,0,163,
163,0,0,0,0,0,0,163,
163,0,0,0,0,0,0,163,
163,0,0,0,0,0,0,163,
163,0,0,0,0,0,0,163,
163,0,0,0,0,0,0,163,
163,0,0,0,0,0,0,163,
163,0,0,0,0,0,0,163,
163,0,0,0,0,0,0,163,
163,0,0,0,0,0,0,163,
163,0,0,0,0,0,0,163,
163,0,0,0,0,0,0,163,
163,0,0,0,0,0,0,163,
163,0,0,0,0,0,0,163,
163,0,0,0,0,0,0,163,
163,0,0,0,0,0,0,163,
163,0,0,0,0,0,0,163,
163,163,163,163,163,163,163,163
</data>
 </layer>
 <objectgroup id="1437" name="Entities"/>
 <objectgroup id="1438" name="Portals">
  <object id="11" name="DoorNorth" type="Door" x="94" y="65" width="61" height="31.9231">
   <properties>
    <property name="targetMap" value="scotus_1_lobby"/>
    <property name="targetSpawnId" value="default"/>
   </properties>
  </object>
 </objectgroup>
 <objectgroup id="1439" name="Spawns">
  <object id="10" name="default" type="PlayerSpawn" x="96" y="927.077" width="63" height="31.9231">
   <properties>
    <property name="spawnId" value="default"/>
   </properties>
  </object>
 </objectgroup>
</map>
